; generated by Slic3r 1.2.9 on 2017-03-14 at 09:37:19

; external perimeters extrusion width = 0.50mm
; perimeters extrusion width = 0.72mm
; infill extrusion width = 0.72mm
; solid infill extrusion width = 0.72mm
; top infill extrusion width = 0.72mm

M107
M104 S200 ; set temperature
G28 ; home all axes
G1 Z5 F5000 ; lift nozzle

M109 S200 ; wait for temperature to be reached
G21 ; set units to millimeters
G90 ; use absolute coordinates
M82 ; use absolute distances for extrusion
G92 E0
G1 Z0.350 F7800.000
G1 E-2.00000 F2400.00000
G92 E0
G1 X71.252 Y59.729 F7800.000
G1 E2.00000 F2400.00000
G1 X72.954 Y58.192 E2.07096 F1800.000
G1 X75.078 Y57.327 E2.14192
G1 X76.477 Y57.177 E2.18547
G1 X123.523 Y57.177 E3.64113
G1 X125.782 Y57.574 E3.71209
G1 X127.770 Y58.717 E3.78305 F1800.000
G1 X129.249 Y60.470 E3.85401
G1 X129.824 Y61.755 E3.89756
G1 X144.362 Y106.498 E5.35322
G1 X144.682 Y108.769 E5.42418
G1 X144.209 Y111.013 E5.49514
G1 X142.999 Y112.961 E5.56610
G1 X141.955 Y113.905 E5.60964
G1 X103.894 Y141.558 E7.06530
G1 X101.833 Y142.564 E7.13627
G1 X99.553 Y142.808 E7.20723
G1 X97.326 Y142.259 E7.27819
G1 X96.106 Y141.558 E7.32173
G1 X58.045 Y113.905 E8.77739
G1 X56.451 Y112.256 E8.84836
G1 X55.515 Y110.162 E8.91932
G1 X55.348 Y107.875 E8.99028
G1 X55.638 Y106.498 E9.03382
G1 X70.176 Y61.755 E10.48948
G1 X71.217 Y59.795 E10.55812
G1 E8.55812 F2400.00000
G92 E0
G1 X104.835 Y102.833 F7800.000
G1 E2.00000 F2400.00000
G1 X100.135 Y116.919 E2.45945 F1800.000
G1 X99.865 Y116.919 E2.46781
G1 X95.165 Y102.833 E2.92725
G1 X80.316 Y102.716 E3.38670
G1 X80.233 Y102.459 E3.39506
G1 X92.177 Y93.637 E3.85451
G1 X87.700 Y79.479 E4.31396
G1 X87.918 Y79.320 E4.32231
G1 X100.000 Y87.953 E4.78176
G1 X112.082 Y79.320 E5.24121
G1 X112.300 Y79.479 E5.24957
G1 X107.823 Y93.637 E5.70902
G1 X119.767 Y102.459 E6.16846
G1 X119.684 Y102.716 E6.17682
G1 X104.910 Y102.833 E6.63395
G1 X105.286 Y103.455 F7800.000
G1 X100.135 Y118.893 E7.13753 F1800.000
G1 X99.865 Y118.893 E7.14589
G1 X94.714 Y103.455 E7.64946
G1 X78.439 Y103.326 E8.15304
G1 X78.355 Y103.069 E8.16140
G1 X91.446 Y93.399 E8.66498
G1 X86.539 Y77.881 E9.16856
G1 X86.758 Y77.723 E9.17692
G1 X100.000 Y87.185 E9.68049
G1 X113.242 Y77.723 E10.18407
G1 X113.461 Y77.881 E10.19243
G1 X108.554 Y93.399 E10.69601
G1 X121.645 Y103.069 E11.19959
G1 X121.561 Y103.326 E11.20795
G1 X105.361 Y103.454 E11.70920
G1 X105.738 Y104.076 F7800.000
G1 X100.135 Y120.867 E12.25691 F1800.000
G1 X99.865 Y120.867 E12.26527
G1 X94.262 Y104.076 E12.81298
G1 X76.561 Y103.936 E13.36069
G1 X76.478 Y103.679 E13.36905
G1 X90.716 Y93.162 E13.91676
G1 X85.379 Y76.284 E14.46447
G1 X85.597 Y76.125 E14.47282
G1 X100.000 Y86.417 E15.02053
G1 X114.403 Y76.125 E15.56824
G1 X114.621 Y76.284 E15.57660
G1 X109.284 Y93.162 E16.12431
G1 X123.522 Y103.679 E16.67202
G1 X123.439 Y103.936 E16.68038
G1 X105.813 Y104.075 E17.22577
G1 X106.189 Y104.697 F7800.000
G1 X100.135 Y122.842 E17.81761 F1800.000
G1 X99.865 Y122.842 E17.82596
G1 X93.811 Y104.697 E18.41780
G1 X74.683 Y104.546 E19.00964
G1 X74.600 Y104.289 E19.01800
G1 X89.986 Y92.925 E19.60984
G1 X84.218 Y74.687 E20.20168
G1 X84.437 Y74.528 E20.21004
G1 X100.000 Y85.649 E20.80188
G1 X115.563 Y74.528 E21.39372
G1 X115.782 Y74.687 E21.40208
G1 X110.014 Y92.925 E21.99392
G1 X125.400 Y104.289 E22.58576
G1 X125.316 Y104.546 E22.59411
G1 X106.264 Y104.697 E23.18363
G1 X106.641 Y105.319 F7800.000
G1 X100.135 Y124.816 E23.81960 F1800.000
G1 X99.865 Y124.816 E23.82796
G1 X93.359 Y105.319 E24.46393
G1 X72.806 Y105.156 E25.09990
G1 X72.722 Y104.899 E25.10826
G1 X89.255 Y92.687 E25.74423
G1 X83.058 Y73.090 E26.38020
G1 X83.277 Y72.931 E26.38856
G1 X100.000 Y84.881 E27.02453
G1 X116.723 Y72.931 E27.66050
G1 X116.942 Y73.090 E27.66886
G1 X110.745 Y92.687 E28.30483
G1 X127.278 Y104.899 E28.94080
G1 X127.194 Y105.156 E28.94916
G1 X106.716 Y105.318 E29.58281
G1 X107.092 Y105.940 F7800.000
G1 X100.135 Y126.790 E30.26291 F1800.000
G1 X99.865 Y126.790 E30.27127
G1 X92.908 Y105.940 E30.95137
G1 X70.928 Y105.766 E31.63147
G1 X70.845 Y105.510 E31.63983
G1 X88.525 Y92.450 E32.31993
G1 X81.898 Y71.492 E33.00003
G1 X82.116 Y71.334 E33.00839
G1 X100.000 Y84.113 E33.68849
G1 X117.884 Y71.334 E34.36859
G1 X118.102 Y71.492 E34.37695
G1 X111.475 Y92.450 E35.05705
G1 X129.155 Y105.510 E35.73715
G1 X129.072 Y105.766 E35.74551
G1 X107.167 Y105.939 E36.42329
G1 X107.544 Y106.561 F7800.000
G1 X100.135 Y128.765 E37.14752 F1800.000
G1 X99.865 Y128.765 E37.15588
G1 X92.456 Y106.561 E37.88011
G1 X69.051 Y106.377 E38.60435
G1 X68.967 Y106.120 E38.61270
G1 X87.794 Y92.213 E39.33694
G1 X80.737 Y69.895 E40.06117
G1 X80.956 Y69.736 E40.06953
G1 X100.000 Y83.345 E40.79376
G1 X119.044 Y69.736 E41.51799
G1 X119.263 Y69.895 E41.52635
G1 X112.206 Y92.213 E42.25058
G1 X131.033 Y106.120 E42.97481
G1 X130.949 Y106.377 E42.98317
G1 X107.619 Y106.561 E43.70508
G1 X107.995 Y107.183 F7800.000
G1 X100.135 Y130.739 E44.47344 F1800.000
G1 X99.865 Y130.739 E44.48180
G1 X92.005 Y107.183 E45.25016
G1 X67.173 Y106.987 E46.01853
G1 X67.089 Y106.730 E46.02689
G1 X87.064 Y91.975 E46.79525
G1 X79.577 Y68.298 E47.56361
G1 X79.795 Y68.139 E47.57197
G1 X100.000 Y82.577 E48.34033
G1 X120.205 Y68.139 E49.10869
G1 X120.423 Y68.298 E49.11705
G1 X112.936 Y91.975 E49.88541
G1 X132.911 Y106.730 E50.65378
G1 X132.827 Y106.987 E50.66214
G1 X108.070 Y107.182 E51.42818
G1 X108.446 Y107.804 F7800.000
G1 X100.135 Y132.713 E52.24067 F1800.000
G1 X99.865 Y132.713 E52.24903
G1 X91.554 Y107.804 E53.06152
G1 X65.295 Y107.597 E53.87401
G1 X65.212 Y107.340 E53.88237
G1 X86.333 Y91.738 E54.69487
G1 X78.416 Y66.701 E55.50736
G1 X78.635 Y66.542 E55.51572
G1 X100.000 Y81.809 E56.32821
G1 X121.365 Y66.542 E57.14070
G1 X121.584 Y66.701 E57.14906
G1 X113.667 Y91.738 E57.96156
G1 X134.788 Y107.340 E58.77405
G1 X134.705 Y107.597 E58.78241
G1 X108.521 Y107.803 E59.59258
G1 X108.898 Y108.425 F7800.000
G1 X100.135 Y134.687 E60.44920 F1800.000
G1 X99.865 Y134.687 E60.45756
G1 X91.102 Y108.425 E61.31419
G1 X63.418 Y108.207 E62.17081
G1 X63.334 Y107.950 E62.17917
G1 X85.603 Y91.501 E63.03579
G1 X77.256 Y65.103 E63.89241
G1 X77.474 Y64.945 E63.90077
G1 X100.000 Y81.040 E64.75740
G1 X122.526 Y64.945 E65.61402
G1 X122.744 Y65.103 E65.62238
G1 X114.397 Y91.501 E66.47900
G1 X136.666 Y107.950 E67.33563
G1 X136.582 Y108.207 E67.34399
G1 X108.973 Y108.425 E68.19829
G1 X108.409 Y108.320 F7800.000
G1 X115.549 Y102.371 F7800.000
G1 X100.893 Y87.715 E68.84542 F1800.000
G1 X100.373 Y88.087 E68.86538
G1 X114.665 Y102.378 E69.49641
G1 X113.780 Y102.385 E69.52403
G1 X99.782 Y88.387 E70.14211
G1 X96.658 Y86.155 F7800.000
G1 X112.895 Y102.392 E70.85907 F1800.000
G1 X112.010 Y102.399 E70.88669
G1 X93.534 Y83.923 E71.70252
G1 X89.770 Y84.618 F7800.000
G1 X107.586 Y102.434 E72.48918 F1800.000
G1 X106.702 Y102.441 E72.51681
G1 X90.183 Y85.922 E73.24619
G1 X90.595 Y87.226 E73.28890
G1 X105.817 Y102.448 E73.96100
G1 X104.932 Y102.455 E73.98863
G1 X91.008 Y88.531 E74.60346
G1 X91.420 Y89.835 E74.64617
G1 X104.459 Y102.874 E75.22192
G1 X104.236 Y103.543 E75.24393
G1 X91.832 Y91.139 E75.79162
G1 X92.245 Y92.443 E75.83432
G1 X104.013 Y104.211 E76.35395
G1 X103.790 Y104.880 E76.37596
G1 X92.622 Y93.712 E76.86906
G1 X92.110 Y94.091 E76.88897
G1 X103.567 Y105.549 E77.39487
G1 X103.344 Y106.217 E77.41688
G1 X91.597 Y94.470 E77.93557
G1 X91.084 Y94.849 E77.95548
G1 X103.121 Y106.886 E78.48697
G1 X102.898 Y107.555 E78.50898
G1 X90.571 Y95.228 E79.05327
G1 X90.058 Y95.607 E79.07318
G1 X102.674 Y108.223 E79.63026
G1 X102.451 Y108.892 E79.65227
G1 X89.545 Y95.986 E80.22215
G1 X89.032 Y96.364 E80.24205
G1 X95.121 Y102.453 E80.51091
G1 X95.673 Y103.005 F7800.000
G1 X102.228 Y109.560 E80.80036 F1800.000
G1 X102.005 Y110.229 E80.82237
G1 X96.119 Y104.343 E81.08226
G1 X96.566 Y105.682 F7800.000
G1 X101.782 Y110.898 E81.31258 F1800.000
G1 X101.559 Y111.566 E81.33459
G1 X97.012 Y107.020 E81.53534
G1 X97.459 Y108.358 F7800.000
G1 X101.336 Y112.235 E81.70652 F1800.000
G1 X101.113 Y112.904 E81.72853
G1 X97.906 Y109.697 E81.87014
G1 X98.352 Y111.035 F7800.000
G1 X100.890 Y113.572 E81.98218 F1800.000
G1 X100.667 Y114.241 E82.00419
G1 X98.799 Y112.373 E82.08667
G1 X99.245 Y113.711 F7800.000
G1 X100.443 Y114.910 E82.13957 F1800.000
G1 X100.220 Y115.578 E82.16158
G1 X99.692 Y115.050 E82.18492
G1 X94.222 Y102.446 F7800.000
G1 X88.519 Y96.743 E82.43673 F1800.000
G1 X88.006 Y97.122 E82.45664
G1 X93.323 Y102.439 E82.69141
G1 X92.425 Y102.432 E82.71948
G1 X87.494 Y97.501 E82.93721
G1 X86.981 Y97.880 E82.95712
G1 X91.526 Y102.425 E83.15780
G1 X90.627 Y102.418 E83.18587
G1 X86.468 Y98.259 E83.36952
G1 X85.955 Y98.638 E83.38942
G1 X89.728 Y102.411 E83.55603
G1 X88.829 Y102.404 E83.58409
G1 X85.442 Y99.016 E83.73365
G1 X84.929 Y99.395 E83.75356
G1 X87.930 Y102.397 E83.88608
G1 X87.031 Y102.389 E83.91415
G1 X84.416 Y99.774 E84.02963
G1 X83.903 Y100.153 E84.04954
G1 X86.133 Y102.382 E84.14797
G1 X85.234 Y102.375 E84.17604
G1 X83.390 Y100.532 E84.25743
G1 X82.877 Y100.911 E84.27734
G1 X84.335 Y102.368 E84.34169
G1 X83.436 Y102.361 E84.36976
G1 X82.365 Y101.290 E84.41707
G1 X81.852 Y101.668 E84.43698
G1 X82.537 Y102.354 E84.46725
G1 X81.638 Y102.347 E84.49531
G1 X81.339 Y102.047 E84.50854
G1 X89.358 Y83.314 F7800.000
G1 X108.471 Y102.427 E85.35248 F1800.000
G1 X109.356 Y102.420 E85.38010
G1 X88.946 Y82.010 E86.28131
G1 X88.533 Y80.706 E86.32402
G1 X110.241 Y102.413 E87.28251
G1 X111.125 Y102.406 E87.31013
G1 X90.410 Y81.690 E88.22484
G1 X107.520 Y93.451 F7800.000
G1 X101.414 Y87.344 E88.49449 F1800.000
G1 X101.934 Y86.972 E88.51445
G1 X107.735 Y92.773 E88.77059
G1 X107.949 Y92.095 E88.79278
G1 X102.454 Y86.600 E89.03542
G1 X102.974 Y86.229 E89.05538
G1 X108.163 Y91.418 E89.28451
G1 X108.377 Y90.740 E89.30670
G1 X103.494 Y85.857 E89.52232
G1 X104.014 Y85.485 E89.54228
G1 X108.592 Y90.063 E89.74440
G1 X108.806 Y89.385 E89.76659
G1 X104.534 Y85.114 E89.95521
G1 X105.054 Y84.742 E89.97517
G1 X109.020 Y88.708 E90.15028
G1 X109.234 Y88.030 E90.17246
G1 X105.574 Y84.370 E90.33407
G1 X106.094 Y83.999 E90.35403
G1 X109.449 Y87.353 E90.50213
G1 X109.663 Y86.675 E90.52431
G1 X106.615 Y83.627 E90.65891
G1 X107.135 Y83.256 E90.67886
G1 X109.877 Y85.998 E90.79995
G1 X110.091 Y85.320 E90.82214
G1 X107.655 Y82.884 E90.92972
G1 X108.175 Y82.512 E90.94968
G1 X110.306 Y84.643 E91.04376
G1 X110.520 Y83.965 E91.06594
G1 X108.695 Y82.141 E91.14651
G1 X109.215 Y81.769 E91.16647
G1 X110.734 Y83.288 E91.23354
G1 X110.948 Y82.610 E91.25572
G1 X109.735 Y81.397 E91.30928
G1 X110.255 Y81.026 E91.32924
G1 X111.162 Y81.933 E91.36930
G1 X111.377 Y81.255 E91.39148
G1 X110.775 Y80.654 E91.41803
G1 X111.296 Y80.282 E91.43799
G1 X111.591 Y80.578 E91.45103
G1 X109.676 Y95.606 F7800.000
G1 X116.434 Y102.364 E91.74945 F1800.000
G1 X117.319 Y102.357 E91.77708
G1 X113.088 Y98.126 E91.96389
G1 X116.500 Y100.647 F7800.000
G1 X118.204 Y102.350 E92.03909 F1800.000
G1 Z0.650 F7800.000
G1 X104.794 Y102.777 F7800.000
G1 X100.141 Y116.719 E92.44738 F3600.000
G1 X99.859 Y116.719 E92.45524
G1 X95.206 Y102.777 E92.86354
G1 X80.508 Y102.661 E93.27183
G1 X80.421 Y102.391 E93.27969
G1 X92.243 Y93.658 E93.68798
G1 X87.812 Y79.644 E94.09628
G1 X88.041 Y79.477 E94.10414
G1 X100.000 Y88.023 E94.51243
G1 X111.959 Y79.477 E94.92072
G1 X112.188 Y79.644 E94.92858
G1 X107.756 Y93.658 E95.33688
G1 X119.579 Y102.391 E95.74517
G1 X119.492 Y102.661 E95.75303
G1 X104.869 Y102.776 E96.15924
G1 X105.267 Y103.427 F7800.000
G1 X100.141 Y118.787 E96.60903 F3600.000
G1 X99.859 Y118.787 E96.61689
G1 X94.733 Y103.427 E97.06668
G1 X78.541 Y103.300 E97.51647
G1 X78.454 Y103.030 E97.52433
G1 X91.478 Y93.410 E97.97412
G1 X86.596 Y77.971 E98.42391
G1 X86.825 Y77.804 E98.43177
G1 X100.000 Y87.218 E98.88156
G1 X113.175 Y77.804 E99.33135
G1 X113.404 Y77.971 E99.33921
G1 X108.522 Y93.410 E99.78900
G1 X121.546 Y103.030 E100.23879
G1 X121.459 Y103.300 E100.24665
G1 X105.342 Y103.427 E100.69435
G1 X105.739 Y104.078 F7800.000
G1 X100.141 Y120.855 E101.18564 F3600.000
G1 X99.859 Y120.855 E101.19350
G1 X94.261 Y104.078 E101.68479
G1 X76.575 Y103.939 E102.17607
G1 X76.487 Y103.669 E102.18393
G1 X90.713 Y93.161 E102.67522
G1 X85.381 Y76.298 E103.16650
G1 X85.610 Y76.131 E103.17436
G1 X100.000 Y86.414 E103.66565
G1 X114.390 Y76.132 E104.15693
G1 X114.619 Y76.298 E104.16479
G1 X109.287 Y93.161 E104.65608
G1 X123.513 Y103.669 E105.14736
G1 X123.425 Y103.939 E105.15522
G1 X105.814 Y104.078 E105.64443
G1 X106.212 Y104.729 F7800.000
G1 X100.141 Y122.923 E106.17721 F3600.000
G1 X99.859 Y122.923 E106.18507
G1 X93.788 Y104.729 E106.71785
G1 X74.608 Y104.578 E107.25063
G1 X74.521 Y104.308 E107.25849
G1 X89.948 Y92.912 E107.79127
G1 X84.166 Y74.625 E108.32405
G1 X84.394 Y74.459 E108.33191
G1 X100.000 Y85.610 E108.86469
G1 X115.606 Y74.459 E109.39748
G1 X115.834 Y74.625 E109.40534
G1 X110.052 Y92.912 E109.93812
G1 X125.479 Y104.308 E110.47090
G1 X125.392 Y104.578 E110.47876
G1 X106.287 Y104.728 E111.00946
G1 X106.685 Y105.380 F7800.000
G1 X100.141 Y124.991 E111.58373 F3600.000
G1 X99.859 Y124.991 E111.59159
G1 X93.315 Y105.380 E112.16587
G1 X72.642 Y105.217 E112.74015
G1 X72.554 Y104.947 E112.74801
G1 X89.183 Y92.664 E113.32228
G1 X82.950 Y72.952 E113.89656
G1 X83.179 Y72.786 E113.90442
G1 X100.000 Y84.805 E114.47870
G1 X116.821 Y72.786 E115.05298
G1 X117.050 Y72.952 E115.06084
G1 X110.817 Y92.664 E115.63511
G1 X127.446 Y104.947 E116.20939
G1 X127.358 Y105.217 E116.21725
G1 X106.760 Y105.379 E116.78944
G1 X107.158 Y106.030 F7800.000
G1 X100.141 Y127.059 E117.40522 F3600.000
G1 X99.859 Y127.059 E117.41308
G1 X92.842 Y106.030 E118.02885
G1 X70.675 Y105.856 E118.64462
G1 X70.588 Y105.586 E118.65248
G1 X88.418 Y92.415 E119.26826
G1 X81.735 Y71.279 E119.88403
G1 X81.964 Y71.113 E119.89189
G1 X100.000 Y84.001 E120.50766
G1 X118.036 Y71.113 E121.12344
G1 X118.265 Y71.279 E121.13130
G1 X111.582 Y92.415 E121.74707
G1 X129.412 Y105.586 E122.36284
G1 X129.325 Y105.856 E122.37070
G1 X107.233 Y106.030 E122.98439
G1 X107.631 Y106.681 F7800.000
G1 X100.141 Y129.126 E123.64166 F3600.000
G1 X99.859 Y129.126 E123.64952
G1 X92.369 Y106.681 E124.30679
G1 X68.708 Y106.495 E124.96406
G1 X68.621 Y106.225 E124.97192
G1 X87.653 Y92.167 E125.62919
G1 X80.519 Y69.606 E126.28646
G1 X80.748 Y69.440 E126.29432
G1 X100.000 Y83.196 E126.95159
G1 X119.252 Y69.440 E127.60885
G1 X119.481 Y69.606 E127.61671
G1 X112.347 Y92.167 E128.27398
G1 X131.379 Y106.225 E128.93125
G1 X131.292 Y106.495 E128.93911
G1 X107.706 Y106.681 E129.59430
G1 X108.104 Y107.332 F7800.000
G1 X100.141 Y131.194 E130.29306 F3600.000
G1 X99.859 Y131.194 E130.30092
G1 X91.896 Y107.332 E130.99969
G1 X66.742 Y107.133 E131.69845
G1 X66.654 Y106.864 E131.70631
G1 X86.888 Y91.918 E132.40508
G1 X79.304 Y67.933 E133.10384
G1 X79.533 Y67.767 E133.11170
G1 X100.000 Y82.392 E133.81047
G1 X120.467 Y67.767 E134.50923
G1 X120.696 Y67.933 E134.51709
G1 X113.112 Y91.918 E135.21586
G1 X133.346 Y106.864 E135.91462
G1 X133.258 Y107.133 E135.92248
G1 X108.179 Y107.331 E136.61916
G1 X108.576 Y107.983 F7800.000
G1 X100.141 Y133.262 E137.35942 F3600.000
G1 X99.859 Y133.262 E137.36728
G1 X91.424 Y107.983 E138.10754
G1 X64.775 Y107.772 E138.84780
G1 X64.688 Y107.503 E138.85566
G1 X86.123 Y91.670 E139.59592
G1 X78.088 Y66.260 E140.33619
G1 X78.317 Y66.094 E140.34405
G1 X100.000 Y81.587 E141.08431
G1 X121.683 Y66.094 E141.82457
G1 X121.912 Y66.260 E141.83243
G1 X113.877 Y91.670 E142.57269
G1 X135.312 Y107.503 E143.31295
G1 X135.225 Y107.772 E143.32081
G1 X108.651 Y107.982 E144.05899
G1 X108.970 Y108.525 F7800.000
G1 X100.118 Y135.055 E144.57607 F1800.000
G1 X99.882 Y135.055 E144.58043
G1 X91.030 Y108.525 E145.09751
