; generated by Slic3r 1.2.9 on 2017-05-10 at 08:42:17

; external perimeters extrusion width = 1.00mm
; perimeters extrusion width = 1.15mm
; infill extrusion width = 1.15mm
; solid infill extrusion width = 1.15mm
; top infill extrusion width = 1.15mm

M107
G28 ; home all axes
G1 Z5 F5000 ; lift nozzle
M104 S0 T0
M140 S0 T0

G21 ; set units to millimeters
G90 ; use absolute coordinates
M82 ; use absolute distances for extrusion
G92 E0
G1 Z28.600 F1800.000
G1 X149.605 Y153.925 F1800.000
G1 X150.684 Y154.292 E0.93324 F720.000
G1 X152.022 Y158.498 E4.54501
G1 X150.642 Y160.384 E6.45695
G1 X149.530 Y158.240 E8.43316
G1 X148.429 Y157.175 E9.68751
G1 X149.554 Y154.066 E12.39292
G1 X148.067 Y152.271 F1800.000
G1 X151.541 Y153.452 E15.39609 F720.000
G1 X153.289 Y158.949 E20.11611
G1 X152.827 Y159.211 E20.55076
G1 X151.731 Y160.710 E22.07026
G1 X150.363 Y162.172 E23.70890
G1 X148.660 Y158.889 E26.73566
G1 X147.185 Y157.463 E28.41464
G1 X148.630 Y153.470 E31.88920
G1 X148.131 Y152.407 E32.85085
G1 X147.364 Y150.774 F1800.000
G1 X147.017 Y150.035 E33.51889 F720.000
G1 X147.308 Y147.566 E35.55387
G1 X148.179 Y147.374 E36.28385
G1 X149.243 Y146.991 E37.20892
G1 X149.530 Y147.349 E37.58449
G1 X147.444 Y150.648 E40.77811
G1 X148.342 Y151.233 F1800.000
G1 X152.870 Y152.773 E44.69234 F720.000
G1 X152.619 Y153.306 E45.17456
G1 X154.573 Y159.451 E50.45184
G1 X153.556 Y160.029 E51.40870
G1 X152.558 Y161.395 E52.79331
G1 X151.445 Y162.583 E54.12565
G1 X150.133 Y164.963 E56.34940
G1 X149.915 Y164.227 E56.97682
G1 X149.321 Y162.490 E58.47981
G1 X147.790 Y159.537 E61.20152
G1 X145.942 Y157.751 E63.30511
G1 X147.472 Y153.524 E66.98393
G1 X145.918 Y150.214 E69.97617
G1 X146.333 Y146.683 E72.88538
G1 X147.882 Y146.343 E74.18262
G1 X149.969 Y145.591 E75.99795
G1 X151.938 Y144.685 E77.77161
G1 X152.254 Y145.047 E78.16447
G1 X148.422 Y151.106 E84.03178
G1 X149.974 Y150.656 F1800.000
G1 X154.351 Y152.145 E87.81516 F720.000
G1 X153.767 Y153.382 E88.93477
G1 X155.457 Y158.698 E93.49969
G1 X156.252 Y159.728 E94.56458
G1 X154.286 Y160.847 E96.41598
G1 X153.384 Y162.079 E97.66572
G1 X152.319 Y163.218 E98.94172
G1 X150.987 Y165.631 E101.19733
G1 X150.887 Y165.860 E101.40221
G1 X149.790 Y166.049 E102.31272
G1 X149.407 Y166.194 E102.64816
G1 X149.216 Y165.641 E103.12696
G1 X148.894 Y164.553 E104.05600
G1 X148.333 Y162.912 E105.47513
G1 X146.919 Y160.186 E107.98824
G1 X144.698 Y158.038 E110.51646
G1 X146.313 Y153.577 E114.39953
G1 X144.818 Y150.392 E117.27853
G1 X145.359 Y145.801 E121.06197
G1 X147.584 Y145.312 E122.92647
G1 X149.563 Y144.599 E124.64751
G1 X151.256 Y143.820 E126.17266
G1 X152.694 Y142.993 E127.53029
G1 X154.050 Y142.019 E128.89670
G1 X154.895 Y142.875 E129.88049
G1 X150.054 Y150.530 E137.29237
G1 X151.606 Y150.080 F1800.000
G1 X155.831 Y151.517 E140.94490 F720.000
G1 X154.915 Y153.458 E142.70188
G1 X156.421 Y158.193 E146.76784
G1 X157.756 Y159.924 E148.55695
G1 X156.828 Y160.633 E149.51233
G1 X155.015 Y161.664 E151.21979
G1 X154.210 Y162.764 E152.33464
G1 X153.192 Y163.852 E153.55430
G1 X151.949 Y166.106 E155.66046
G1 X151.637 Y166.819 E156.29731
G1 X150.074 Y167.087 E157.59524
G1 X149.004 Y167.493 E158.53170
G1 X148.755 Y167.123 E158.89689
G1 X148.542 Y166.943 E159.12481
G1 X148.196 Y165.968 E159.97155
G1 X147.873 Y164.878 E160.90189
G1 X147.346 Y163.334 E162.23716
G1 X146.049 Y160.834 E164.54168
G1 X143.455 Y158.326 E167.49452
G1 X145.155 Y153.630 E171.58185
G1 X143.718 Y150.571 E174.34760
G1 X144.397 Y144.809 E179.09528
G1 X144.829 Y144.820 E179.44881
G1 X147.286 Y144.280 E181.50795
G1 X149.157 Y143.607 E183.13470
G1 X150.764 Y142.867 E184.58269
G1 X152.117 Y142.090 E185.85989
G1 X153.171 Y141.345 E186.91599
G1 X154.144 Y140.590 E187.92403
G1 X156.255 Y142.728 E190.38258
G1 X151.686 Y149.953 E197.37841
G1 X153.238 Y149.503 F1800.000
G1 X157.312 Y150.889 E200.90009 F720.000
G1 X156.064 Y153.535 E203.29445
G1 X157.385 Y157.689 E206.86146
G1 X158.774 Y159.490 E208.72332
G1 X159.339 Y160.017 E209.35536
G1 X159.759 Y160.486 E209.87087
G1 X158.449 Y160.743 E210.96320
G1 X157.421 Y161.528 E212.02191
G1 X155.744 Y162.482 E213.60081
G1 X155.037 Y163.449 E214.58078
G1 X154.066 Y164.487 E215.74411
G1 X152.911 Y166.580 E217.70082
G1 X152.407 Y167.731 E218.72876
G1 X152.089 Y167.828 E219.00063
G1 X150.357 Y168.125 E220.43875
G1 X148.590 Y168.796 E221.98537
G1 X147.949 Y167.845 E222.92442
G1 X147.646 Y167.588 E223.24953
G1 X147.465 Y167.135 E223.64841
G1 X147.175 Y166.295 E224.37571
G1 X146.853 Y165.203 E225.30736
G1 X146.358 Y163.756 E226.55876
G1 X145.179 Y161.483 E228.65470
G1 X142.895 Y159.275 E231.25436
G1 X141.826 Y158.699 E232.24809
G1 X142.420 Y158.037 E232.97626
G1 X143.996 Y153.683 E236.76562
G1 X142.404 Y150.293 E239.83068
G1 X142.689 Y150.151 E240.09083
G1 X143.447 Y143.712 E245.39665
G1 X144.726 Y143.746 E246.44370
G1 X146.989 Y143.249 E248.33912
G1 X148.750 Y142.614 E249.87158
G1 X150.272 Y141.914 E251.24242
G1 X151.540 Y141.186 E252.43918
G1 X152.534 Y140.484 E253.43450
G1 X153.364 Y139.839 E254.29510
G1 X154.215 Y139.137 E255.19798
G1 X156.986 Y141.943 E258.42560
G1 X157.762 Y142.349 E259.14243
G1 X153.318 Y149.377 E265.94665
G1 X154.870 Y148.927 F1800.000
G1 X158.793 Y150.261 E269.33748 F720.000
G1 X157.212 Y153.611 E272.36921
G1 X158.348 Y157.184 E275.43726
G1 X159.569 Y158.766 E277.07259
G1 X160.105 Y159.266 E277.67276
G1 X160.528 Y159.740 E278.19221
G1 X161.649 Y161.207 E279.70373
G1 X158.900 Y161.746 E281.99610
G1 X158.013 Y162.424 E282.90949
G1 X156.473 Y163.300 E284.35983
G1 X155.863 Y164.133 E285.20491
G1 X154.939 Y165.121 E286.31191
G1 X153.872 Y167.055 E288.11917
G1 X153.205 Y168.563 E289.46884
G1 X152.753 Y168.745 E289.86774
G1 X152.304 Y168.878 E290.25049
G1 X150.641 Y169.164 E291.63187
G1 X148.283 Y170.059 E293.69582
G1 X147.713 Y169.411 E294.40234
G1 X147.143 Y168.566 E295.23571
G1 X146.750 Y168.232 E295.65803
G1 X146.461 Y167.509 E296.29580
G1 X146.155 Y166.622 E297.06350
G1 X145.832 Y165.529 E297.99646
G1 X145.370 Y164.179 E299.16400
G1 X144.308 Y162.131 E301.05134
G1 X142.257 Y160.148 E303.38676
G1 X140.119 Y158.996 E305.37401
G1 X141.484 Y157.476 E307.04606
G1 X142.838 Y153.736 E310.30117
G1 X140.990 Y149.800 E313.85986
G1 X141.693 Y149.450 E314.50271
G1 X142.326 Y144.073 E318.93346
G1 X141.823 Y142.598 E320.20942
G1 X144.624 Y142.672 E322.50285
G1 X146.691 Y142.217 E324.23456
G1 X148.344 Y141.622 E325.67272
G1 X149.780 Y140.961 E326.96641
G1 X150.963 Y140.282 E328.08274
G1 X151.896 Y139.623 E329.01727
G1 X152.695 Y139.003 E329.84462
G1 X154.787 Y137.274 E332.06578
G1 X154.874 Y138.279 E332.89114
G1 X157.630 Y141.072 E336.10242
G1 X159.289 Y141.939 E337.63393
G1 X154.950 Y148.800 E344.27717
G1 X156.502 Y148.350 F1800.000
G1 X160.767 Y149.801 E347.96423 F720.000
G1 X159.995 Y150.222 E348.68418
G1 X158.361 Y153.688 E351.81984
G1 X159.312 Y156.679 E354.38893
G1 X160.363 Y158.043 E355.79772
G1 X160.871 Y158.516 E356.36603
G1 X161.354 Y159.057 E356.95936
G1 X163.916 Y162.410 E360.41304
G1 X162.359 Y162.160 E361.70352
G1 X159.352 Y162.749 E364.21147
G1 X158.606 Y163.319 E364.97954
G1 X157.202 Y164.117 E366.30132
G1 X156.690 Y164.818 E367.01152
G1 X155.813 Y165.755 E368.06217
G1 X154.834 Y167.529 E369.72000
G1 X154.041 Y169.304 E371.31099
G1 X153.908 Y169.400 E371.44543
G1 X153.596 Y169.560 E371.73225
G1 X152.802 Y169.860 E372.42646
G1 X152.519 Y169.928 E372.66454
G1 X150.924 Y170.202 E373.98919
G1 X147.777 Y171.397 E376.74426
G1 X147.736 Y171.059 E377.02273
G1 X146.863 Y170.066 E378.10450
G1 X146.338 Y169.288 E378.87316
G1 X145.883 Y168.902 E379.36132
G1 X145.780 Y168.692 E379.55258
G1 X145.457 Y167.882 E380.26625
G1 X145.134 Y166.949 E381.07435
G1 X144.811 Y165.854 E382.00861
G1 X144.382 Y164.601 E383.09229
G1 X143.438 Y162.780 E384.77104
G1 X141.618 Y161.021 E386.84221
G1 X139.324 Y159.785 E388.97460
G1 X137.950 Y159.307 E390.16522
G1 X139.277 Y158.330 E391.51355
G1 X140.548 Y156.916 E393.06937
G1 X141.679 Y153.789 E395.79023
G1 X140.067 Y150.354 E398.89568
G1 X138.907 Y149.639 E400.01056
G1 X140.697 Y148.749 E401.64639
G1 X141.234 Y144.189 E405.40381
G1 X140.413 Y141.784 E407.48322
G1 X139.931 Y140.802 E408.37890
G1 X142.244 Y141.537 E410.36517
G1 X144.522 Y141.598 E412.23005
G1 X146.393 Y141.186 E413.79805
G1 X147.938 Y140.630 E415.14191
G1 X149.289 Y140.008 E416.35846
G1 X150.386 Y139.378 E417.39435
G1 X151.258 Y138.762 E418.26810
G1 X152.025 Y138.167 E419.06219
G1 X154.473 Y136.144 E421.66080
G1 X155.665 Y134.989 E423.01922
G1 X155.908 Y137.802 E425.32941
G1 X158.275 Y140.200 E428.08729
G1 X160.816 Y141.529 E430.43349
G1 X156.582 Y148.223 E436.91576
G1 X158.134 Y147.774 F1800.000
G1 X163.422 Y149.572 E441.48679 F720.000
G1 X160.815 Y150.995 E443.91748
G1 X159.509 Y153.764 E446.42293
G1 X160.276 Y156.175 E448.49307
G1 X161.158 Y157.319 E449.67533
G1 X161.637 Y157.766 E450.21177
G1 X162.181 Y158.373 E450.87897
G1 X165.255 Y162.399 E455.02420
G1 X166.382 Y163.800 E456.49536
G1 X166.075 Y164.200 E456.90834
G1 X164.793 Y163.636 E458.05455
G1 X162.378 Y163.248 E460.05649
G1 X159.803 Y163.753 E462.20343
G1 X159.199 Y164.214 E462.82618
G1 X157.931 Y164.935 E464.01939
G1 X157.516 Y165.503 E464.59471
G1 X156.686 Y166.390 E465.58903
G1 X155.796 Y168.004 E467.09741
G1 X154.989 Y169.806 E468.71322
G1 X154.874 Y169.988 E468.88981
G1 X154.745 Y170.118 E469.03942
G1 X154.467 Y170.317 E469.31884
G1 X154.042 Y170.535 E469.71032
G1 X153.501 Y170.753 E470.18757
G1 X153.101 Y170.890 E470.53332
G1 X152.735 Y170.978 E470.84176
G1 X151.208 Y171.240 E472.10967
G1 X148.531 Y172.256 E474.45309
G1 X147.483 Y174.085 E476.17760
G1 X147.027 Y173.991 E476.55843
G1 X146.712 Y171.517 E478.59912
G1 X146.013 Y170.722 E479.46546
G1 X145.532 Y170.009 E480.16942
G1 X145.020 Y169.574 E480.71929
G1 X144.800 Y169.127 E481.12702
G1 X144.452 Y168.256 E481.89510
G1 X144.114 Y167.276 E482.74360
G1 X143.790 Y166.179 E483.67916
G1 X143.395 Y165.023 E484.67898
G1 X142.567 Y163.428 E486.14914
G1 X140.980 Y161.894 E487.95607
G1 X138.891 Y160.769 E489.89758
G1 X136.666 Y159.993 E491.82612
G1 X135.254 Y159.810 E492.99118
G1 X136.964 Y158.640 E494.68658
G1 X137.745 Y158.128 E495.45036
G1 X138.554 Y157.532 E496.27275
G1 X139.612 Y156.355 E497.56793
G1 X140.521 Y153.842 E499.75454
G1 X139.233 Y151.098 E502.23532
G1 X137.482 Y150.018 E503.91879
G1 X136.467 Y149.656 E504.80030
G1 X139.701 Y148.048 E507.75552
G1 X140.142 Y144.305 E510.83962
G1 X139.422 Y142.195 E512.66411
G1 X138.666 Y140.657 E514.06662
G1 X137.658 Y139.149 E515.55064
G1 X137.296 Y138.754 E515.98994
G1 X137.641 Y138.323 E516.44146
G1 X138.975 Y139.095 E517.70225
G1 X140.549 Y139.874 E519.13960
G1 X142.424 Y140.470 E520.74962
G1 X144.419 Y140.523 E522.38344
G1 X146.095 Y140.155 E523.78772
G1 X147.532 Y139.637 E525.03729
G1 X148.797 Y139.055 E526.17668
G1 X149.809 Y138.474 E527.13213
G1 X150.621 Y137.901 E527.94511
G1 X151.355 Y137.331 E528.70594
G1 X153.759 Y135.344 E531.25840
G1 X154.334 Y134.792 E531.91013
G1 X155.534 Y133.619 E533.28382
G1 X156.651 Y132.058 E534.85451
G1 X157.123 Y132.254 E535.27282
G1 X156.714 Y134.685 E537.29005
G1 X156.942 Y137.324 E539.45816
G1 X158.920 Y139.328 E541.76265
G1 X161.045 Y140.440 E543.72478
G1 X163.746 Y141.417 E546.07543
G1 X161.560 Y142.355 E548.02190
G1 X158.214 Y147.647 E553.14555
G1 X159.766 Y147.197 F1800.000
G1 X163.860 Y148.589 E556.68414 F720.000
G1 X165.105 Y148.960 E557.74751
G1 X166.384 Y149.554 E558.90146
G1 X167.731 Y150.383 E560.19597
G1 X168.018 Y150.612 E560.49603
G1 X167.753 Y151.086 E560.94049
G1 X166.729 Y150.724 E561.82957
G1 X164.750 Y150.563 E563.45480
G1 X163.186 Y150.921 E564.76793
G1 X161.635 Y151.768 E566.21402
G1 X160.657 Y153.840 E568.08927
G1 X161.239 Y155.670 E569.66044
G1 X161.952 Y156.595 E570.61617
G1 X162.403 Y157.015 E571.12074
G1 X163.007 Y157.690 E571.86182
G1 X166.098 Y161.738 E576.02982
G1 X167.847 Y163.912 E578.31313
G1 X169.718 Y165.979 E580.59503
G1 X171.505 Y167.634 E582.58802
G1 X171.187 Y168.093 E583.04452
G1 X170.680 Y167.838 E583.50870
G1 X166.489 Y165.552 E587.41558
G1 X164.487 Y164.672 E589.20520
G1 X162.396 Y164.336 E590.93849
G1 X160.255 Y164.756 E592.72441
G1 X159.791 Y165.110 E593.20184
G1 X158.660 Y165.753 E594.26650
G1 X158.343 Y166.187 E594.70693
G1 X157.559 Y167.024 E595.64492
G1 X156.757 Y168.478 E597.00385
G1 X155.931 Y170.321 E598.65703
G1 X155.716 Y170.660 E598.98508
G1 X155.442 Y170.936 E599.30370
G1 X155.027 Y171.233 E599.72134
G1 X154.488 Y171.511 E600.21748
G1 X153.875 Y171.757 E600.75816
G1 X153.400 Y171.920 E601.16905
G1 X152.950 Y172.028 E601.54785
G1 X151.491 Y172.278 E602.75903
G1 X149.269 Y173.122 E604.70394
G1 X148.030 Y175.283 E606.74258
G1 X147.838 Y177.015 E608.16899
G1 X147.888 Y178.580 E609.45035
G1 X147.379 Y178.703 E609.87887
G1 X147.002 Y177.900 E610.60513
G1 X146.472 Y176.498 E611.83148
G1 X146.080 Y175.132 E612.99406
G1 X145.689 Y171.975 E615.59747
G1 X145.163 Y171.378 E616.24839
G1 X144.727 Y170.730 E616.88763
G1 X144.212 Y170.294 E617.44032
G1 X144.102 Y170.135 E617.59789
G1 X143.820 Y169.563 E618.12028
G1 X143.448 Y168.629 E618.94278
G1 X143.094 Y167.602 E619.83168
G1 X142.769 Y166.504 E620.76854
G1 X142.407 Y165.445 E621.68450
G1 X141.697 Y164.077 E622.94607
G1 X140.342 Y162.767 E624.48875
G1 X138.458 Y161.752 E626.23939
G1 X136.418 Y161.041 E628.00768
G1 X134.512 Y160.793 E629.58032
G1 X132.902 Y160.858 E630.89959
G1 X132.597 Y160.897 E631.15053
G1 X132.420 Y160.417 E631.56898
G1 X133.651 Y159.609 E632.77419
G1 X136.368 Y157.750 E635.46838
G1 X137.133 Y157.248 E636.21705
G1 X137.830 Y156.735 E636.92584
G1 X138.675 Y155.794 E637.96039
G1 X139.362 Y153.896 E639.61275
G1 X138.398 Y151.843 E641.46884
G1 X137.015 Y150.989 E642.79898
G1 X135.787 Y150.550 E643.86658
G1 X134.261 Y150.198 E645.14825
G1 X132.297 Y149.882 E646.77602
G1 X132.289 Y149.342 E647.21762
G1 X136.189 Y148.598 E650.46648
G1 X138.705 Y147.347 E652.76618
G1 X139.049 Y144.421 E655.17696
G1 X138.430 Y142.606 E656.74653
G1 X137.736 Y141.193 E658.03486
G1 X136.813 Y139.813 E659.39364
G1 X135.598 Y138.487 E660.86516
G1 X133.894 Y137.295 E662.56737
G1 X131.741 Y136.334 E664.49706
G1 X128.654 Y135.223 E667.18202
G1 X128.778 Y134.669 E667.64640
G1 X129.202 Y134.711 E667.99467
G1 X131.090 Y134.995 E669.55767
G1 X133.023 Y135.411 E671.17512
G1 X134.976 Y135.978 E672.83994
G1 X136.709 Y136.632 E674.35556
G1 X138.115 Y137.360 E675.65106
G1 X139.481 Y138.151 E676.94312
G1 X140.951 Y138.878 E678.28515
G1 X142.604 Y139.403 E679.70439
G1 X144.317 Y139.449 E681.10714
G1 X145.798 Y139.123 E682.34770
G1 X147.126 Y138.645 E683.50298
G1 X148.305 Y138.102 E684.56522
G1 X149.232 Y137.570 E685.44024
G1 X149.983 Y137.040 E686.19243
G1 X150.685 Y136.495 E686.92001
G1 X153.046 Y134.544 E689.42632
G1 X154.718 Y132.919 E691.33403
G1 X156.052 Y131.053 E693.21135
G1 X156.915 Y128.958 E695.06524
G1 X157.098 Y126.875 E696.77690
G1 X156.888 Y125.175 E698.17861
G1 X156.576 Y123.804 E699.32905
G1 X157.085 Y123.600 E699.77856
G1 X157.628 Y124.511 E700.64667
G1 X158.178 Y126.173 E702.07862
G1 X158.461 Y128.003 E703.59457
G1 X158.488 Y129.820 E705.08146
G1 X158.329 Y131.540 E706.49495
G1 X157.793 Y134.728 E709.14088
G1 X157.976 Y136.847 E710.88112
G1 X159.565 Y138.457 E712.73222
G1 X161.477 Y139.457 E714.49819
G1 X163.580 Y140.218 E716.32871
G1 X165.671 Y140.628 E718.07253
G1 X167.311 Y140.700 E719.41581
G1 X167.398 Y141.212 E719.84116
G1 X166.060 Y141.743 E721.01900
G1 X164.224 Y142.377 E722.60829
G1 X162.288 Y143.209 E724.33265
G1 X159.846 Y147.070 E728.07197
G1 X161.398 Y146.621 F1800.000
G1 X164.185 Y147.568 E730.48110 F720.000
G1 X165.486 Y147.956 E731.59154
G1 X166.892 Y148.609 E732.86047
G1 X168.349 Y149.505 E734.26057
G1 X171.296 Y151.866 E737.35090
