; generated by Slic3r 1.2.9 on 2017-05-10 at 08:51:05

; external perimeters extrusion width = 1.00mm
; perimeters extrusion width = 1.15mm
; infill extrusion width = 1.15mm
; solid infill extrusion width = 1.15mm
; top infill extrusion width = 1.15mm

M107
G28 ; home all axes
G1 Z5 F5000 ; lift nozzle
M104 S0 T0
M140 S0 T0

G21 ; set units to millimeters
G90 ; use absolute coordinates
M82 ; use absolute distances for extrusion
G92 E0
G1 Z28.600 F1800.000
G1 X122.505 Y136.647 F1800.000
G1 X122.849 Y133.721 E2.41075 F720.000
G1 X122.230 Y131.906 E3.98032
G1 X121.536 Y130.493 E5.26866
G1 X120.613 Y129.113 E6.62742
G1 X119.398 Y127.787 E8.09894
G1 X117.694 Y126.595 E9.80115
G1 X115.541 Y125.634 E11.73085
G1 X112.454 Y124.523 E14.41581
G1 X112.578 Y123.969 E14.88020
G1 X113.002 Y124.011 E15.22847
G1 X114.890 Y124.295 E16.79147
G1 X116.823 Y124.711 E18.40892
G1 X118.776 Y125.278 E20.07374
G1 X120.509 Y125.932 E21.58936
G1 X121.915 Y126.660 E22.88486
G1 X123.281 Y127.451 E24.17693
G1 X124.751 Y128.178 E25.51895
G1 X126.404 Y128.703 E26.93818
G1 X128.117 Y128.749 E28.34094
G1 X129.598 Y128.423 E29.58151
G1 X130.926 Y127.945 E30.73678
G1 X132.105 Y127.402 E31.79902
G1 X133.032 Y126.870 E32.67404
G1 X133.783 Y126.340 E33.42623
G1 X134.485 Y125.795 E34.15381
G1 X136.846 Y123.844 E36.66012
G1 X138.518 Y122.219 E38.56782
G1 X139.852 Y120.353 E40.44515
G1 X140.715 Y118.258 E42.29904
G1 X140.898 Y116.175 E44.01071
G1 X140.688 Y114.475 E45.41241
G1 X140.376 Y113.104 E46.56285
G1 X140.885 Y112.900 E47.01236
G1 X141.428 Y113.811 E47.88047
G1 X141.978 Y115.473 E49.31241
G1 X142.261 Y117.303 E50.82836
G1 X142.288 Y119.120 E52.31525
G1 X142.129 Y120.840 E53.72874
G1 X141.593 Y124.028 E56.37467
G1 X141.776 Y126.147 E58.11491
G1 X143.365 Y127.757 E59.96601
G1 X145.277 Y128.757 E61.73198
G1 X147.380 Y129.518 E63.56250
G1 X149.471 Y129.928 E65.30631
G1 X151.111 Y130.000 E66.64960
G1 X151.198 Y130.512 E67.07494
G1 X149.860 Y131.043 E68.25278
G1 X148.024 Y131.677 E69.84207
G1 X146.088 Y132.509 E71.56644
G1 X143.566 Y136.497 E75.42852
G1 X147.660 Y137.889 E78.96709
G1 X148.905 Y138.260 E80.03044
G1 X150.184 Y138.854 E81.18440
G1 X151.531 Y139.683 E82.47891
G1 X151.818 Y139.912 E82.77897
G1 X151.553 Y140.386 E83.22343
G1 X150.529 Y140.024 E84.11251
G1 X148.550 Y139.863 E85.73774
G1 X146.986 Y140.221 E87.05087
G1 X145.435 Y141.068 E88.49698
G1 X144.457 Y143.141 E90.37223
G1 X145.039 Y144.970 E91.94339
G1 X145.752 Y145.895 E92.89912
G1 X146.203 Y146.315 E93.40369
G1 X146.807 Y146.990 E94.14477
G1 X149.898 Y151.038 E98.31277
G1 X151.647 Y153.212 E100.59608
G1 X153.518 Y155.279 E102.87798
G1 X155.305 Y156.934 E104.87097
G1 X154.987 Y157.393 E105.32747
G1 X154.480 Y157.138 E105.79165
G1 X150.289 Y154.852 E109.69853
G1 X148.287 Y153.972 E111.48816
G1 X146.196 Y153.636 E113.22144
G1 X144.055 Y154.056 E115.00736
G1 X143.591 Y154.410 E115.48479
G1 X142.460 Y155.053 E116.54945
G1 X142.143 Y155.487 E116.98988
G1 X141.359 Y156.324 E117.92786
G1 X140.557 Y157.778 E119.28679
G1 X139.731 Y159.621 E120.93996
G1 X139.516 Y159.960 E121.26803
G1 X139.242 Y160.236 E121.58666
G1 X138.827 Y160.533 E122.00427
G1 X138.288 Y160.811 E122.50042
G1 X137.675 Y161.057 E123.04113
G1 X137.200 Y161.220 E123.45200
G1 X136.750 Y161.328 E123.83079
G1 X135.291 Y161.578 E125.04197
G1 X133.069 Y162.422 E126.98689
G1 X131.830 Y164.583 E129.02552
G1 X131.638 Y166.315 E130.45194
G1 X131.688 Y167.880 E131.73330
G1 X131.179 Y168.003 E132.16181
G1 X130.802 Y167.200 E132.88809
G1 X130.272 Y165.798 E134.11444
G1 X129.880 Y164.432 E135.27700
G1 X129.489 Y161.275 E137.88038
G1 X128.963 Y160.678 E138.53129
G1 X128.527 Y160.030 E139.17058
G1 X128.012 Y159.594 E139.72326
G1 X127.902 Y159.436 E139.88082
G1 X127.620 Y158.863 E140.40322
G1 X127.248 Y157.929 E141.22572
G1 X126.894 Y156.902 E142.11463
G1 X126.569 Y155.805 E143.05148
G1 X126.207 Y154.745 E143.96742
G1 X125.497 Y153.377 E145.22900
G1 X124.142 Y152.067 E146.77169
G1 X122.258 Y151.052 E148.52235
G1 X120.218 Y150.341 E150.29063
G1 X118.312 Y150.093 E151.86327
G1 X116.702 Y150.158 E153.18253
G1 X116.397 Y150.197 E153.43348
G1 X116.220 Y149.717 E153.85193
G1 X117.451 Y148.909 E155.05714
G1 X120.168 Y147.050 E157.75133
G1 X120.933 Y146.548 E158.50000
G1 X121.630 Y146.035 E159.20880
G1 X122.475 Y145.094 E160.24336
G1 X123.162 Y143.196 E161.89576
G1 X122.198 Y141.143 E163.75187
G1 X120.815 Y140.289 E165.08197
G1 X119.587 Y139.850 E166.14955
G1 X118.061 Y139.498 E167.43122
G1 X116.097 Y139.182 E169.05899
G1 X116.089 Y138.642 E169.50059
G1 X119.989 Y137.898 E172.74947
G1 X122.371 Y136.714 E174.92643
G1 X145.198 Y135.921 F1800.000
G1 X147.985 Y136.868 E177.33556 F720.000
G1 X149.286 Y137.256 E178.44598
G1 X150.692 Y137.909 E179.71491
G1 X152.149 Y138.805 E181.11502
G1 X155.096 Y141.166 E184.20534
G1 X156.594 Y142.083 E185.64277
G1 X157.999 Y142.696 E186.89688
G1 X159.307 Y143.062 E188.00859
G1 X159.250 Y143.602 E188.45293
G1 X158.399 Y143.656 E189.15067
G1 X157.190 Y143.566 E190.14247
G1 X156.074 Y143.346 E191.07407
G1 X155.133 Y143.030 E191.88611
G1 X152.238 Y141.765 E194.47142
G1 X150.303 Y141.080 E196.15118
G1 X148.628 Y140.944 E197.52672
G1 X147.370 Y141.232 E198.58333
G1 X146.255 Y141.841 E199.62266
G1 X145.606 Y143.217 E200.86770
G1 X146.003 Y144.465 E201.93991
G1 X146.547 Y145.171 E202.66911
G1 X146.970 Y145.565 E203.14181
G1 X147.633 Y146.307 E203.95677
G1 X150.742 Y150.377 E208.14754
G1 X152.462 Y152.516 E210.39433
G1 X154.281 Y154.525 E212.61205
G1 X156.282 Y156.379 E214.84438
G1 X158.357 Y157.983 E216.99024
G1 X160.404 Y159.279 E218.97306
G1 X162.324 Y160.287 E220.74771
G1 X164.883 Y161.407 E223.03366
G1 X164.699 Y161.963 E223.51293
G1 X162.743 Y161.511 E225.15583
G1 X160.953 Y161.070 E226.66437
G1 X158.761 Y160.299 E228.56562
G1 X156.351 Y159.274 E230.70874
G1 X153.984 Y158.088 E232.87586
G1 X149.816 Y155.815 E236.76066
G1 X147.982 Y155.008 E238.40070
G1 X146.215 Y154.724 E239.86533
G1 X144.506 Y155.059 E241.29024
G1 X144.184 Y155.305 E241.62235
G1 X143.189 Y155.871 E242.55844
G1 X142.969 Y156.172 E242.86399
G1 X142.233 Y156.959 E243.74564
G1 X141.519 Y158.253 E244.95512
G1 X140.672 Y160.137 E246.64566
G1 X140.358 Y160.632 E247.12517
G1 X139.939 Y161.055 E247.61282
G1 X139.387 Y161.450 E248.16866
G1 X138.734 Y161.786 E248.76947
G1 X138.049 Y162.062 E249.37360
G1 X137.499 Y162.250 E249.84961
G1 X136.965 Y162.378 E250.29876
G1 X135.575 Y162.617 E251.45321
G1 X133.808 Y163.287 E252.99962
G1 X132.870 Y164.923 E254.54233
G1 X132.711 Y166.357 E255.72372
G1 X132.748 Y167.495 E256.65522
G1 X132.979 Y168.623 E257.59713
G1 X133.387 Y169.780 E258.60149
G1 X133.929 Y170.935 E259.64588
G1 X134.386 Y171.742 E260.40481
G1 X134.986 Y172.727 E261.34867
G1 X135.678 Y173.808 E262.39889
G1 X136.272 Y174.592 E263.20358
G1 X135.869 Y174.988 E263.66602
G1 X134.885 Y174.216 E264.68995
G1 X133.895 Y173.340 E265.77167
G1 X133.013 Y172.397 E266.82845
G1 X132.193 Y171.401 E267.88393
G1 X131.453 Y170.441 E268.87595
G1 X130.823 Y169.534 E269.77913
G1 X130.311 Y168.674 E270.59832
G1 X129.814 Y167.618 E271.55399
G1 X129.254 Y166.136 E272.85045
G1 X128.826 Y164.643 E274.12139
G1 X128.465 Y161.734 E276.52051
G1 X128.114 Y161.334 E276.95600
G1 X127.721 Y160.752 E277.53057
G1 X127.212 Y160.320 E278.07734
G1 X126.976 Y159.980 E278.41583
G1 X126.641 Y159.298 E279.03779
G1 X126.244 Y158.303 E279.91470
G1 X125.873 Y157.229 E280.84401
G1 X125.548 Y156.130 E281.78217
G1 X125.219 Y155.168 E282.61425
G1 X124.627 Y154.026 E283.66724
G1 X123.504 Y152.940 E284.94569
G1 X121.826 Y152.036 E286.50546
G1 X119.970 Y151.389 E288.11350
G1 X118.264 Y151.167 E289.52114
G1 X116.792 Y151.226 E290.72740
G1 X115.488 Y151.394 E291.80332
G1 X114.264 Y151.667 E292.82959
G1 X113.090 Y152.039 E293.83666
G1 X111.907 Y152.546 E294.89050
G1 X110.624 Y153.245 E296.08658
G1 X109.358 Y154.191 E297.37962
G1 X108.328 Y155.430 E298.69845
G1 X107.588 Y157.206 E300.27282
G1 X107.055 Y157.078 E300.72139
G1 X107.082 Y156.730 E301.00715
G1 X107.447 Y155.512 E302.04752
G1 X108.155 Y154.396 E303.12902
G1 X109.454 Y153.106 E304.62723
G1 X111.041 Y151.845 E306.28654
G1 X111.616 Y151.443 E306.86025
G1 X112.506 Y150.835 E307.74259
G1 X114.490 Y149.572 E309.66668
G1 X116.854 Y148.019 E311.98194
G1 X119.572 Y146.160 E314.67652
G1 X120.321 Y145.668 E315.41007
G1 X120.907 Y145.237 E316.00527
G1 X121.539 Y144.534 E316.77919
G1 X122.004 Y143.249 E317.89733
G1 X121.364 Y141.887 E319.12876
G1 X120.349 Y141.260 E320.10552
G1 X119.285 Y140.880 E321.02991
G1 X117.855 Y140.549 E322.23092
G1 X115.926 Y140.239 E323.82946
G1 X112.841 Y139.838 E326.37601
G1 X110.830 Y139.617 E328.03172
G1 X109.431 Y139.499 E329.18002
G1 X108.788 Y139.465 E329.70719
G1 X108.755 Y138.891 E330.17744
G1 X111.904 Y138.350 E332.79277
G1 X119.643 Y136.873 E339.24034
G1 X121.509 Y135.946 E340.94526
G1 X121.757 Y133.837 E342.68268
G1 X121.238 Y132.317 E343.99734
G1 X120.606 Y131.029 E345.17149
G1 X119.768 Y129.776 E346.40502
G1 X118.688 Y128.597 E347.71331
G1 X117.164 Y127.531 E349.23538
G1 X115.141 Y126.629 E351.04864
G1 X111.038 Y125.152 E354.61670
G1 X109.030 Y124.363 E356.38283
G1 X106.815 Y123.326 E358.38439
G1 X104.628 Y122.070 E360.44812
G1 X103.570 Y121.281 E361.52804
G1 X103.902 Y120.775 E362.02326
G1 X105.061 Y121.439 E363.11610
G1 X107.128 Y122.130 E364.89978
G1 X109.221 Y122.538 E366.64557
G1 X111.212 Y122.760 E368.28498
G1 X113.133 Y122.947 E369.86455
G1 X115.083 Y123.241 E371.47799
G1 X117.085 Y123.672 E373.15371
G1 X119.115 Y124.261 E374.88399
G1 X120.946 Y124.952 E376.48514
G1 X122.430 Y125.720 E377.85238
G1 X123.788 Y126.506 E379.13667
G1 X125.153 Y127.182 E380.38336
G1 X126.584 Y127.637 E381.61181
G1 X128.015 Y127.675 E382.78350
G1 X129.300 Y127.392 E383.86035
G1 X130.520 Y126.953 E384.92133
G1 X131.613 Y126.450 E385.90642
G1 X132.455 Y125.966 E386.70100
G1 X133.145 Y125.479 E387.39242
G1 X133.816 Y124.958 E388.08674
G1 X136.133 Y123.043 E390.54690
G1 X137.701 Y121.519 E392.33692
G1 X138.909 Y119.831 E394.03556
G1 X139.662 Y118.002 E395.65414
G1 X139.821 Y116.194 E397.13951
G1 X139.632 Y114.660 E398.40415
G1 X139.329 Y113.335 E399.51646
G1 X138.791 Y112.044 E400.66092
G1 X137.986 Y110.846 E401.84205
G1 X137.144 Y109.839 E402.91592
G1 X136.391 Y109.028 E403.82215
G1 X134.501 Y107.127 E406.01620
G1 X133.248 Y105.899 E407.45160
G1 X131.989 Y104.720 E408.86290
G1 X131.344 Y104.079 E409.60734
G1 X131.719 Y103.627 E410.08833
G1 X135.658 Y106.341 E414.00286
G1 X136.820 Y107.199 E415.18539
G1 X137.901 Y108.069 E416.32092
G1 X139.049 Y109.066 E417.56497
G1 X140.232 Y110.259 E418.94026
G1 X141.429 Y111.720 E420.48557
G1 X142.409 Y113.364 E422.05163
G1 X143.023 Y115.221 E423.65240
G1 X143.331 Y117.213 E425.30223
G1 X143.360 Y119.161 E426.89679
G1 X143.192 Y120.978 E428.38984
G1 X142.672 Y124.072 E430.95716
G1 X142.810 Y125.670 E432.26953
G1 X144.010 Y126.885 E433.66724
G1 X145.709 Y127.774 E435.23704
G1 X147.667 Y128.482 E436.94100
G1 X149.599 Y128.861 E438.55163
G1 X151.377 Y128.939 E440.00851
G1 X152.864 Y128.728 E441.23763
G1 X154.046 Y128.324 E442.25977
G1 X155.001 Y127.816 E443.14508
G1 X155.803 Y127.149 E443.99875
G1 X156.547 Y126.305 E444.91957
G1 X157.201 Y125.232 E445.94753
G1 X157.666 Y123.984 E447.03773
G1 X157.964 Y122.652 E448.15459
G1 X158.013 Y122.258 E448.47980
G1 X158.625 Y122.305 E448.98193
G1 X158.600 Y123.115 E449.64477
G1 X158.384 Y124.467 E450.76535
G1 X157.960 Y125.897 E451.98613
G1 X157.361 Y127.186 E453.14950
G1 X156.605 Y128.199 E454.18356
G1 X155.523 Y129.183 E455.38099
G1 X153.988 Y130.272 E456.92068
G1 X152.195 Y131.269 E458.59939
G1 X150.233 Y132.048 E460.32754
G1 X148.411 Y132.677 E461.90460
G1 X146.816 Y133.362 E463.32507
G1 X145.278 Y135.794 E465.68005
G1 X146.830 Y135.344 F1800.000
G1 X148.310 Y135.848 E466.95973 F720.000
G1 X149.666 Y136.251 E468.11723
G1 X151.200 Y136.964 E469.50113
G1 X152.767 Y137.927 E471.00684
G1 X155.713 Y140.288 E474.09626
G1 X157.090 Y141.131 E475.41781
G1 X158.359 Y141.685 E476.55064
G1 X159.524 Y142.011 E477.54079
G1 X160.707 Y142.096 E478.51160
G1 X162.014 Y141.937 E479.58888
G1 X163.408 Y141.459 E480.79499
G1 X164.816 Y140.611 E482.13993
G1 X166.079 Y139.680 E483.42380
G1 X167.086 Y138.903 E484.46486
G1 X167.973 Y138.152 E485.41603
G1 X168.845 Y137.325 E486.39929
G1 X170.754 Y135.415 E488.60963
G1 X171.801 Y134.472 E489.76220
G1 X172.856 Y133.722 E490.82174
G1 X174.013 Y133.120 E491.88883
G1 X175.342 Y132.644 E493.04427
G1 X176.832 Y132.425 E494.27692
G1 X178.519 Y132.589 E495.66407
G1 X180.195 Y133.125 E497.10363
G1 X181.651 Y134.024 E498.50436
G1 X182.807 Y135.093 E499.79267
G1 X183.562 Y136.120 E500.83580
G1 X184.033 Y137.092 E501.72011
G1 X184.322 Y137.983 E502.48625
G1 X184.464 Y138.837 E503.19496
G1 X184.492 Y139.717 E503.91585
G1 X184.419 Y140.607 E504.64601
G1 X184.255 Y141.476 E505.36963
G1 X183.988 Y142.293 E506.07320
G1 X183.595 Y143.053 E506.77378
G1 X183.094 Y143.756 E507.47993
G1 X182.520 Y144.377 E508.17181
G1 X181.853 Y144.900 E508.86578
G1 X180.990 Y145.362 E509.66646
G1 X180.676 Y144.835 E510.16865
G1 X181.165 Y144.512 E510.64767
G1 X181.761 Y144.028 E511.27655
G1 X182.339 Y143.430 E511.95662
G1 X182.824 Y142.733 E512.65186
G1 X183.203 Y142.015 E513.31606
G1 X183.473 Y141.329 E513.92004
G1 X183.650 Y140.649 E514.49451
G1 X183.749 Y139.957 E515.06709
G1 X183.764 Y139.263 E515.63488
G1 X183.687 Y138.575 E516.20110
G1 X183.463 Y137.829 E516.83844
G1 X183.047 Y136.945 E517.63801
G1 X182.336 Y135.985 E518.61567
G1 X181.256 Y135.044 E519.78805
G1 X179.941 Y134.266 E521.03884
G1 X178.508 Y133.798 E522.27212
G1 X177.056 Y133.685 E523.46409
G1 X175.733 Y133.973 E524.57220
G1 X174.617 Y134.434 E525.56064
G1 X173.679 Y134.886 E526.41227
G1 X172.794 Y135.444 E527.26850
G1 X171.905 Y136.180 E528.21352
G1 X168.551 Y139.251 E531.93460
G1 X167.468 Y140.289 E533.16219
G1 X166.411 Y141.245 E534.32838
G1 X165.144 Y142.242 E535.64815
G1 X163.808 Y143.127 E536.95964
G1 X162.435 Y143.843 E538.22647
G1 X161.064 Y144.358 E539.42513
G1 X159.726 Y144.646 E540.54572
G1 X158.393 Y144.730 E541.63844
G1 X157.047 Y144.630 E542.74312
G1 X155.798 Y144.384 E543.78432
G1 X154.747 Y144.031 E544.69191
G1 X151.844 Y142.762 E547.28436
G1 X150.077 Y142.137 E548.81851
G1 X148.706 Y142.025 E549.94437
G1 X147.753 Y142.243 E550.74447
G1 X147.075 Y142.614 E551.37702
G1 X146.754 Y143.293 E551.99185
G1 X146.966 Y143.961 E552.56510
G1 X147.342 Y144.447 E553.06777
G1 X147.736 Y144.814 E553.50860
G1 X148.459 Y145.624 E554.39744
G1 X151.585 Y149.716 E558.61098
G1 X153.278 Y151.820 E560.82125
G1 X155.043 Y153.772 E562.97478
G1 X156.975 Y155.560 E565.12946
G1 X158.972 Y157.104 E567.19519
G1 X160.940 Y158.350 E569.10140
G1 X162.788 Y159.321 E570.80950
G1 X165.899 Y160.682 E573.58864
G1 X167.404 Y161.565 E575.01670
G1 X168.719 Y162.494 E576.33425
G1 X169.591 Y163.266 E577.28683
G1 X170.179 Y164.000 E578.05632
G1 X170.649 Y164.839 E578.84368
G1 X171.006 Y165.734 E579.63246
G1 X171.252 Y166.616 E580.38176
G1 X171.415 Y167.637 E581.22804
G1 X171.521 Y168.939 E582.29723
G1 X171.490 Y170.322 E583.42914
G1 X171.249 Y171.626 E584.51450
G1 X170.831 Y172.859 E585.57951
G1 X170.273 Y173.994 E586.61418
G1 X169.621 Y174.931 E587.54901
G1 X168.903 Y175.607 E588.35565
G1 X168.052 Y176.157 E589.18473
G1 X167.041 Y176.667 E590.11154
G1 X165.931 Y177.034 E591.06868
G1 X164.721 Y177.181 E592.06615
G1 X163.550 Y177.140 E593.02466
G1 X163.422 Y177.114 E593.13149
G1 X162.596 Y176.946 E593.82160
G1 X161.703 Y176.576 E594.61264
G1 X160.733 Y175.994 E595.53853
G1 X159.848 Y175.273 E596.47282
G1 X159.182 Y174.476 E597.32225
G1 X158.708 Y173.620 E598.12342
G1 X158.449 Y172.835 E598.79984
G1 X159.022 Y172.615 E599.30214
