; generated by Slic3r 1.2.9 on 2017-05-11 at 15:41:31

; external perimeters extrusion width = 1.00mm
; perimeters extrusion width = 1.15mm
; infill extrusion width = 1.15mm
; solid infill extrusion width = 1.15mm
; top infill extrusion width = 1.15mm

M107
G28 ; home all axes
G1 Z5 F5000 ; lift nozzle
M104 S0 T0
M140 S0 T0

G21 ; set units to millimeters
G90 ; use absolute coordinates
M82 ; use absolute distances for extrusion
G92 E0
G1 Z28.600 F1800.000
G1 X113.177 Y59.643 F1800.000
G1 X112.999 Y59.909 E0.26254 F720.000
G1 X112.756 Y60.344 E0.67021
G1 X112.424 Y61.082 E1.33232
G1 X112.271 Y61.498 E1.69523
G1 X111.959 Y62.497 E2.55178
G1 X111.898 Y62.772 E2.78251
G1 X111.767 Y63.743 E3.58419
G1 X111.824 Y65.185 E4.76476
G1 X112.082 Y66.678 E6.00539
G1 X112.569 Y68.268 E7.36582
G1 X112.574 Y68.266 F1800.000
G1 X113.205 Y69.718 E10.11300 F720.000
G1 X113.805 Y70.837 E12.31689
G1 X113.982 Y71.132 E12.91394
G1 X114.665 Y72.155 E15.04641
G1 X114.913 Y72.493 E15.77521
G1 X115.756 Y73.563 E18.13813
G1 X116.122 Y73.979 E19.10034
G1 X117.135 Y75.055 E21.66368
G1 X117.552 Y75.449 E22.65934
G1 X119.261 Y76.925 E26.57760
G1 X122.622 Y78.710 F1800.000
G1 X123.105 Y78.917 E27.00755 F720.000
G1 X124.810 Y79.473 E28.47473
G1 X124.806 Y79.484 F1800.000
G1 X125.400 Y79.651 E29.54474 F720.000
G1 X127.992 Y80.286 E34.17437
G1 X131.458 Y81.150 F1800.000
G1 X132.654 Y81.528 E35.20101 F720.000
G1 X134.063 Y82.044 E36.42868
G1 X134.383 Y82.194 E36.71828
G1 X134.386 Y82.190 F1800.000
G1 X136.065 Y83.077 E40.01462 F720.000
G1 X136.843 Y83.663 E41.70404
G1 X146.857 Y92.798 F1800.000
G1 X136.610 Y95.086 F1800.000
G1 X134.240 Y95.034 F1800.000
G1 X132.321 Y95.063 F1800.000
G1 X132.161 Y95.066 F1800.000
G1 X132.098 Y95.067 F1800.000
G1 X131.518 Y95.084 F1800.000
G1 X131.558 Y95.078 F1800.000
G1 X128.945 Y95.155 E46.23876 F720.000
G1 X128.945 Y95.155 F1800.000
G1 X127.051 Y95.222 E47.78969 F720.000
G1 X124.236 Y95.352 F1800.000
G1 X123.097 Y95.474 E49.77848 F720.000
G1 X122.675 Y95.542 E50.51993
G1 X121.959 Y95.690 E51.78780
G1 X121.450 Y95.838 E52.70711
G1 X120.980 Y96.000 E53.57008
G1 X120.324 Y96.267 E54.79958
G1 X119.282 Y96.773 E56.80950
G1 X118.283 Y97.347 E58.80777
G1 X116.789 Y98.266 E61.85194
G1 X116.789 Y98.266 F1800.000
G1 X115.061 Y99.313 E63.50517 F720.000
G1 X113.922 Y99.947 E64.57177
G1 X112.980 Y100.423 E65.43581
G1 X111.694 Y100.982 E66.58359
G1 X110.626 Y101.358 E67.50969
G1 X119.283 Y96.772 F1800.000
G1 X128.380 Y95.174 F1800.000
G1 X137.753 Y95.047 F1800.000
G1 X140.395 Y104.370 F1800.000
G1 X131.052 Y106.586 F1800.000
G1 X127.165 Y108.534 F1800.000
G1 X124.622 Y110.626 F1800.000
G1 X123.956 Y111.535 F1800.000
G1 X123.411 Y112.926 F1800.000
G1 X123.406 Y112.941 F1800.000
G1 X123.365 Y113.191 F1800.000
G1 X123.251 Y113.826 F1800.000
G1 X123.228 Y114.972 E69.49860 F720.000
G1 X123.298 Y116.173 E71.58552
G1 X123.366 Y116.679 E72.47245
G1 X123.576 Y117.742 E74.35114
G1 X124.128 Y119.894 E78.20702
G1 X124.496 Y121.445 E80.97319
G1 X124.777 Y123.058 E83.81284
G1 X124.894 Y124.726 E86.71458
G1 X124.904 Y125.151 E87.45267
G1 X124.884 Y125.152 F1800.000
G1 X124.839 Y126.322 E88.41086 F720.000
G1 X124.691 Y127.203 E89.14196
G1 X124.602 Y127.542 E89.42871
G1 X124.258 Y128.462 E90.23241
G1 X124.035 Y128.924 E90.65253
G1 X123.786 Y129.353 E91.05807
G1 X123.516 Y129.754 E91.45411
G1 X123.112 Y130.246 E91.97524
G1 X124.596 Y127.558 F1800.000
G1 X124.781 Y123.118 F1800.000
G1 X123.226 Y114.832 F1800.000
G1 X125.032 Y110.177 F1800.000
G1 X126.466 Y108.996 F1800.000
G1 X127.619 Y108.243 F1800.000
G1 X127.737 Y108.174 F1800.000
G1 X127.941 Y108.063 F1800.000
G1 X127.928 Y108.069 F1800.000
G1 X128.862 Y107.556 E92.84760 F720.000
G1 X130.032 Y107.009 E93.90425
G1 X131.798 Y106.270 E95.47070
G1 X149.264 Y101.337 F1800.000
G1 X150.227 Y102.889 E98.63977 F720.000
G1 X150.323 Y103.077 E99.00585
G1 X150.856 Y104.361 E101.41836
G1 X152.274 Y89.936 F1800.000
G1 X153.015 Y89.225 E102.25847 F720.000
G1 X153.905 Y88.288 E103.31623
G1 X156.905 Y77.117 F1800.000
G1 X157.368 Y75.235 E106.67943 F720.000
G1 X157.457 Y74.768 E107.50344
G1 X157.483 Y74.773 F1800.000
G1 X157.529 Y73.515 E108.53357 F720.000
G1 X157.490 Y72.320 E109.51200
G1 X157.386 Y71.642 E110.07372
G1 X156.399 Y68.668 F1800.000
G1 X155.822 Y67.707 E112.01912 F720.000
G1 X155.414 Y67.147 E113.22052
G1 X154.810 Y66.409 E114.87549
G1 X154.378 Y65.933 E115.99092
G1 X153.247 Y64.812 E118.75378
G1 X153.246 Y64.814 F1800.000
G1 X152.332 Y63.983 E119.76446 F720.000
G1 X151.256 Y63.054 E120.92743
G1 X150.167 Y62.154 E122.08328
G1 X147.124 Y59.655 F1800.000
G1 X146.386 Y58.939 E123.86832 F720.000
G1 X145.873 Y58.380 E125.18410
G1 X144.896 Y57.182 E127.86646
G1 X144.093 Y56.036 E130.29484
G1 X143.876 Y55.678 E131.02060
G1 X143.308 Y54.633 E133.08482
G1 X143.336 Y54.618 F1800.000
G1 X143.028 Y53.694 E133.88139 F720.000
G1 X142.877 Y52.576 E134.80469
G1 X142.909 Y51.280 E135.86612
G1 X142.951 Y50.888 E136.18809
G1 X143.163 Y49.841 E137.06293
G1 X143.346 Y49.255 E137.56525
G1 X143.608 Y48.691 E138.07404
G1 X143.156 Y49.869 F1800.000
G1 X143.058 Y53.815 F1800.000
G1 X146.997 Y59.532 F1800.000
G1 X154.353 Y65.908 F1800.000
G1 X157.498 Y72.566 F1800.000
G1 X153.787 Y88.281 F1800.000
G1 X169.231 Y85.756 F1800.000
G1 X173.573 Y81.685 F1800.000
G1 X174.302 Y70.192 F1800.000
G1 X174.298 Y65.235 F1800.000
G1 X174.709 Y62.517 F1800.000
G1 X174.796 Y62.208 F1800.000
G1 X175.061 Y61.453 F1800.000
G1 X175.141 Y61.260 F1800.000
G1 X175.174 Y61.181 F1800.000
G1 X175.162 Y61.209 F1800.000
G1 X174.792 Y62.222 E138.95627 F720.000
G1 X174.709 Y62.517 E139.20750
G1 X174.492 Y63.545 E140.06678
G1 X174.442 Y63.861 E140.32888
G1 X174.297 Y65.245 E141.46747
G1 X174.216 Y67.151 E143.02885
G1 X174.218 Y67.713 E143.48862
G1 X174.253 Y69.121 E144.64111
G1 X174.369 Y71.960 E146.96683
G1 X174.371 Y72.639 E147.52252
G1 X174.371 Y72.639 F1800.000
G1 X174.380 Y76.494 E154.21101 F720.000
G1 X174.364 Y77.898 E156.64707
G1 X172.972 Y82.829 F1800.000
G1 X172.843 Y83.027 E156.84043 F720.000
G1 X172.244 Y83.764 E157.61767
G1 X172.113 Y83.902 E157.77344
G1 X171.395 Y84.526 E158.55177
G1 X171.063 Y84.762 E158.88527
G1 X170.376 Y85.186 E159.54565
G1 X169.993 Y85.384 E159.89899
G1 X169.495 Y85.639 E160.86935 F720.000
G1 X169.127 Y85.803 E161.56829
G1 X167.679 Y86.293 E164.22125
G1 X163.513 Y86.831 F1800.000
G1 X158.412 Y87.562 F1800.000
G1 X164.067 Y95.154 F1800.000
G1 X166.321 Y95.665 F1800.000
G1 X167.589 Y96.247 F1800.000
G1 X167.986 Y96.466 F1800.000
G1 X167.989 Y96.468 F1800.000
G1 X168.164 Y96.541 F1800.000
G1 X170.644 Y98.041 E169.24938 F720.000
G1 X170.645 Y98.038 F1800.000
G1 X171.418 Y98.441 E169.96266 F720.000
G1 X172.250 Y98.830 E170.71435
G1 X173.293 Y99.158 E171.60910
G1 X175.819 Y99.466 F1800.000
G1 X176.739 Y99.400 E173.20984 F720.000
G1 X178.029 Y99.085 E175.51485
G1 X178.270 Y99.005 E175.95378
G1 X179.288 Y98.568 E177.87611
G1 X179.290 Y98.573 F1800.000
G1 X179.776 Y98.330 E178.32099 F720.000
G1 X180.684 Y97.756 E179.20030
G1 X181.237 Y97.374 E179.75008
G1 X181.941 Y96.838 E180.47438
G1 X183.014 Y95.951 E181.61354
G1 X184.375 Y94.748 E183.10026
G1 X187.468 Y91.823 E186.58346
G1 X188.385 Y91.045 E187.56775
G1 X189.345 Y90.413 E188.50867
G1 X190.302 Y89.934 E189.38467
G1 X191.510 Y89.468 E190.44418
G1 X192.848 Y89.223 E191.55735
G1 X193.025 Y89.214 E191.70259
G1 X194.397 Y89.333 E192.82911
G1 X194.617 Y89.377 E193.01261
G1 X195.950 Y89.807 E194.15886
G1 X196.056 Y89.856 E194.25497
G1 X193.045 Y89.216 F1800.000
G1 X189.080 Y90.578 F1800.000
G1 X185.267 Y93.913 F1800.000
G1 X179.900 Y98.252 F1800.000
G1 X174.013 Y99.322 F1800.000
G1 X165.894 Y95.524 F1800.000
G1 X149.803 Y102.236 F1800.000
G1 X168.636 Y111.492 F1800.000
G1 X176.078 Y116.111 F1800.000
G1 X178.859 Y117.193 F1800.000
G1 X180.257 Y117.655 F1800.000
G1 X180.471 Y117.726 F1800.000
G1 X180.580 Y117.766 F1800.000
G1 X181.269 Y118.042 F1800.000
G1 X181.284 Y118.049 F1800.000
G1 X182.149 Y118.453 E195.91056 F720.000
G1 X182.732 Y118.758 E197.05288
G1 X183.601 Y119.266 E198.79967
G1 X184.013 Y119.535 E199.65390
G1 X184.635 Y119.992 E200.99277
G1 X184.820 Y120.150 E201.41432
G1 X185.351 Y120.707 E202.75090
G1 X185.500 Y120.892 E203.16188
G1 X185.817 Y121.386 E204.18074
G1 X186.088 Y121.887 E205.16856
G1 X186.107 Y121.877 F1800.000
G1 X186.500 Y122.931 E206.08904 F720.000
G1 X186.736 Y123.869 E206.88101
G1 X186.860 Y124.706 E207.57353
G1 X186.897 Y125.108 E207.90356
G1 X186.924 Y125.842 E208.50485
G1 X186.907 Y126.496 E209.04056
G1 X186.532 Y123.057 F1800.000
G1 X184.437 Y119.846 F1800.000
G1 X180.580 Y117.766 F1800.000
G1 X178.859 Y117.193 F1800.000
G1 X178.232 Y116.983 F1800.000
G1 X178.103 Y116.938 F1800.000
G1 X178.038 Y116.914 F1800.000
G1 X177.951 Y116.882 F1800.000
G1 X177.145 Y116.576 E209.74634 F720.000
G1 X176.032 Y116.091 E210.74023
G1 X175.210 Y115.693 E211.48709
G1 X175.208 Y115.697 F1800.000
G1 X173.765 Y114.939 E214.31551 F720.000
G1 X172.829 Y114.391 E216.19735
G1 X171.591 Y113.612 E218.73546
G1 X169.296 Y111.996 F1800.000
G1 X166.456 Y109.773 E221.68706 F720.000
G1 X146.830 Y119.988 F1800.000
G1 X146.976 Y121.714 E223.10457 F720.000
G1 X147.071 Y122.468 E223.72649
G1 X147.594 Y124.604 F1800.000
G1 X148.464 Y126.284 E227.00887 F720.000
G1 X149.093 Y127.306 E229.09138
G1 X149.087 Y127.310 F1800.000
G1 X149.752 Y128.261 E230.04133 F720.000
G1 X150.338 Y129.034 E230.83517
G1 X150.648 Y129.400 E231.22723
G1 X152.470 Y131.298 F1800.000
G1 X153.596 Y132.311 E233.85535 F720.000
G1 X154.467 Y133.155 E235.95956
G1 X155.258 Y134.032 E238.00835
G1 X155.765 Y134.685 E239.44233
G1 X156.222 Y135.490 E241.04863
G1 X156.379 Y135.883 E241.78405
G1 X156.563 Y136.523 E242.93887
G1 X156.563 Y136.523 F1800.000
G1 X156.642 Y136.942 E243.28810 F720.000
G1 X156.735 Y137.935 E244.10421
G1 X156.690 Y139.391 E245.29620
G1 X156.655 Y139.704 E245.55417
G1 X156.432 Y140.855 E246.51348
G1 X156.259 Y141.430 E247.00515
G1 X156.051 Y141.897 E247.42292
G1 X156.550 Y140.252 F1800.000
G1 X156.561 Y136.515 F1800.000
G1 X149.230 Y127.518 F1800.000
G1 X147.013 Y122.022 F1800.000
G1 X148.547 Y113.762 F1800.000
G1 X149.988 Y109.910 F1800.000
G1 X150.060 Y109.181 F1800.000
G1 X150.135 Y108.318 F1800.000
G1 X150.338 Y106.423 F1800.000
G1 X150.400 Y105.893 F1800.000
G1 X150.442 Y105.834 F1800.000
G1 X149.330 Y103.690 E249.39913 F720.000
G1 X148.229 Y102.625 E250.65349
G1 X149.404 Y99.375 E253.48159
G1 X150.484 Y99.742 E254.41481
G1 X151.822 Y103.948 E258.02655
G1 X150.531 Y105.713 E259.81577
G1 X150.163 Y107.622 F1800.000
G1 X148.460 Y104.339 E262.84252 F720.000
G1 X146.985 Y102.913 E264.52150
G1 X148.430 Y98.920 E267.99610
G1 X147.867 Y97.721 E269.08034
G1 X151.341 Y98.902 E272.08334
G1 X153.089 Y104.399 E276.80340
G1 X152.627 Y104.661 E277.23817
G1 X151.531 Y106.160 E278.75764
G1 X150.266 Y107.512 E280.27344
G1 X147.164 Y96.224 F1800.000
G1 X146.817 Y95.485 E280.94128 F720.000
G1 X147.108 Y93.016 E282.97629
G1 X147.979 Y92.824 E283.70627
G1 X149.043 Y92.441 E284.63116
G1 X149.330 Y92.799 E285.00674
G1 X147.244 Y96.097 E288.20013
G1 X148.141 Y96.683 F1800.000
G1 X152.670 Y98.223 E292.11451 F720.000
G1 X152.419 Y98.756 E292.59686
G1 X154.373 Y104.901 E297.87400
G1 X153.356 Y105.479 E298.83101
G1 X152.358 Y106.845 E300.21560
G1 X151.245 Y108.033 E301.54786
G1 X149.933 Y110.413 E303.77163
G1 X149.715 Y109.677 E304.39902
G1 X149.121 Y107.940 E305.90202
G1 X147.590 Y104.987 E308.62375
G1 X145.742 Y103.201 E310.72734
G1 X147.271 Y98.973 E314.40619
G1 X145.718 Y95.664 E317.39831
G1 X146.133 Y92.133 E320.30755
G1 X147.682 Y91.793 E321.60480
G1 X149.769 Y91.041 E323.42010
G1 X151.737 Y90.135 E325.19365
G1 X152.054 Y90.497 E325.58651
G1 X148.222 Y96.556 E331.45381
G1 X149.774 Y96.106 F1800.000
G1 X154.151 Y97.595 E335.23733 F720.000
G1 X153.567 Y98.832 E336.35704
G1 X155.258 Y104.148 E340.92200
G1 X156.052 Y105.178 E341.98675
G1 X154.085 Y106.297 E343.83822
G1 X153.184 Y107.529 E345.08793
G1 X152.119 Y108.668 E346.36387
G1 X150.787 Y111.081 E348.61950
G1 X150.687 Y111.310 E348.82439
G1 X149.590 Y111.499 E349.73485
G1 X149.207 Y111.644 E350.07034
G1 X149.016 Y111.091 E350.54913
G1 X148.694 Y110.003 E351.47815
G1 X148.133 Y108.362 E352.89729
G1 X146.719 Y105.636 E355.41042
G1 X144.498 Y103.488 E357.93863
G1 X146.113 Y99.027 E361.82172
G1 X144.618 Y95.842 E364.70062
G1 X145.159 Y91.251 E368.48408
G1 X147.384 Y90.762 E370.34859
G1 X149.363 Y90.049 E372.06961
G1 X151.056 Y89.270 E373.59476
G1 X152.494 Y88.443 E374.95243
G1 X153.850 Y87.469 E376.31882
G1 X154.695 Y88.325 E377.30258
G1 X149.854 Y95.980 E384.71455
G1 X151.406 Y95.530 F1800.000
G1 X155.631 Y96.967 E388.36720 F720.000
G1 X154.715 Y98.909 E390.12428
G1 X156.221 Y103.643 E394.19028
G1 X157.556 Y105.374 E395.97926
G1 X156.628 Y106.083 E396.93464
G1 X154.815 Y107.114 E398.64216
G1 X154.010 Y108.214 E399.75699
G1 X152.992 Y109.302 E400.97660
G1 X151.749 Y111.556 E403.08278
G1 X151.437 Y112.269 E403.71964
G1 X149.874 Y112.537 E405.01752
G1 X148.804 Y112.943 E405.95404
G1 X148.554 Y112.573 E406.31934
G1 X148.342 Y112.393 E406.54715
G1 X147.996 Y111.418 E407.39388
G1 X147.673 Y110.328 E408.32421
G1 X147.146 Y108.784 E409.65948
G1 X145.849 Y106.284 E411.96402
G1 X143.255 Y103.776 E414.91684
G1 X144.955 Y99.080 E419.00418
G1 X143.518 Y96.021 E421.76984
G1 X144.197 Y90.259 E426.51753
G1 X144.629 Y90.270 E426.87105
G1 X147.086 Y89.730 E428.93022
G1 X148.956 Y89.057 E430.55694
G1 X150.564 Y88.317 E432.00494
G1 X151.917 Y87.540 E433.28218
G1 X152.971 Y86.795 E434.33829
G1 X153.944 Y86.040 E435.34630
G1 X156.055 Y88.178 E437.80484
G1 X151.486 Y95.403 E444.80074
G1 X153.038 Y94.953 F1800.000
G1 X157.112 Y96.339 E448.32253 F720.000
G1 X155.864 Y98.985 E450.71697
G1 X157.185 Y103.139 E454.28401
G1 X158.574 Y104.940 E456.14580
G1 X159.139 Y105.467 E456.77782
G1 X159.559 Y105.936 E457.29331
G1 X158.249 Y106.193 E458.38559
G1 X157.221 Y106.978 E459.44436
G1 X155.544 Y107.932 E461.02331
G1 X154.837 Y108.899 E462.00325
G1 X153.866 Y109.937 E463.16653
G1 X152.711 Y112.030 E465.12327
G1 X152.207 Y113.181 E466.15121
G1 X151.889 Y113.278 E466.42312
G1 X150.157 Y113.575 E467.86116
G1 X148.390 Y114.246 E469.40782
G1 X147.749 Y113.295 E470.34696
G1 X147.446 Y113.038 E470.67197
G1 X147.265 Y112.585 E471.07085
G1 X146.975 Y111.745 E471.79815
G1 X146.653 Y110.653 E472.72979
G1 X146.158 Y109.206 E473.98120
G1 X144.979 Y106.933 E476.07715
G1 X142.695 Y104.725 E478.67677
G1 X141.626 Y104.149 E479.67053
G1 X142.221 Y103.487 E480.39878
G1 X143.796 Y99.133 E484.18809
G1 X142.204 Y95.743 E487.25312
G1 X142.489 Y95.601 E487.51330
G1 X143.247 Y89.162 E492.81908
G1 X144.526 Y89.196 E493.86612
G1 X146.789 Y88.699 E495.76157
G1 X148.550 Y88.064 E497.29400
G1 X150.072 Y87.364 E498.66485
G1 X151.340 Y86.636 E499.86164
G1 X152.334 Y85.934 E500.85697
G1 X153.164 Y85.289 E501.71756
G1 X154.015 Y84.587 E502.62043
G1 X156.786 Y87.393 E505.84805
G1 X157.562 Y87.799 E506.56488
G1 X153.118 Y94.827 E513.36916
G1 X154.670 Y94.377 F1800.000
G1 X158.593 Y95.711 E516.76008 F720.000
G1 X157.012 Y99.061 E519.79189
G1 X158.148 Y102.634 E522.85997
G1 X159.369 Y104.216 E524.49523
G1 X159.905 Y104.716 E525.09539
G1 X160.328 Y105.190 E525.61480
G1 X161.449 Y106.657 E527.12636
G1 X158.701 Y107.196 E529.41870
G1 X157.813 Y107.874 E530.33214
G1 X156.273 Y108.750 E531.78252
G1 X155.663 Y109.583 E532.62759
G1 X154.739 Y110.571 E533.73454
G1 X153.672 Y112.505 E535.54182
G1 X153.005 Y114.013 E536.89149
G1 X152.553 Y114.195 E537.29041
G1 X152.104 Y114.328 E537.67316
G1 X150.441 Y114.614 E539.05448
G1 X148.083 Y115.509 E541.11848
G1 X147.513 Y114.861 E541.82501
G1 X146.943 Y114.016 E542.65845
G1 X146.550 Y113.682 E543.08067
