; generated by Slic3r 1.2.9 on 2017-03-14 at 10:12:43

; external perimeters extrusion width = 1.30mm
; perimeters extrusion width = 1.37mm
; infill extrusion width = 1.37mm
; solid infill extrusion width = 1.37mm
; top infill extrusion width = 1.37mm

M107
G28 ; home all axes
G1 Z5 F5000 ; lift nozzle
M104 S0 T0
M140 S0 T0

G21 ; set units to millimeters
G90 ; use absolute coordinates
M82 ; use absolute distances for extrusion
G92 E0
G1 Z1.300 F600.000
G1 E-2.00000 F2400.00000
G92 E0
G1 X73.802 Y76.274 F600.000
G1 E2.00000 F2400.00000
G1 X74.472 Y75.547 E5.13841 F600.000
G1 X75.001 Y75.775 E6.96934
G1 X75.063 Y75.654 E7.40074
G1 X75.152 Y75.840 E8.05612
G1 X76.196 Y76.291 E11.66718
G1 X75.761 Y77.112 E14.61853
G1 X77.426 Y80.587 E26.85193
G1 X76.328 Y81.407 E31.20224
G1 X75.933 Y82.360 E34.47734
G1 X74.930 Y83.720 E39.84479
G1 X74.547 Y82.400 E44.20950
G1 X73.828 Y80.773 E49.85713
G1 X73.275 Y80.152 E52.49630
G1 X73.005 Y79.690 E54.19461
G1 X74.286 Y77.178 E63.14763
G1 X73.894 Y76.446 E65.78330
G1 X76.662 Y73.964 F600.000
G1 X79.423 Y75.155 E75.33063 F600.000
G1 X78.360 Y77.164 E82.54765
G1 X79.522 Y79.589 E91.08545
G1 X81.134 Y81.205 E98.33220
G1 X79.449 Y81.638 E103.85563
G1 X78.940 Y82.354 E106.64253
G1 X78.227 Y82.885 E109.46555
G1 X77.968 Y83.510 E111.61154
G1 X77.697 Y83.878 E113.06616
G1 X76.862 Y85.681 E119.37414
G1 X76.335 Y85.871 E121.15192
G1 X75.339 Y86.023 E124.35191
G1 X73.977 Y86.439 E128.87190
G1 X73.299 Y85.642 E132.19103
G1 X73.088 Y85.462 E133.07497
G1 X72.927 Y85.061 E134.44667
G1 X72.757 Y84.563 E136.11631
G1 X72.361 Y83.196 E140.63525
G1 X71.852 Y82.044 E144.63287
G1 X71.388 Y81.523 E146.84755
G1 X71.024 Y80.900 E149.13869
G1 X70.068 Y80.342 E152.65430
G1 X71.667 Y77.204 E163.83765
G1 X70.480 Y74.983 E171.83342
G1 X71.006 Y74.702 E173.72543
G1 X71.100 Y71.146 E185.01980
G1 X72.092 Y71.140 E188.16965
G1 X72.891 Y70.951 E190.77699
G1 X73.377 Y70.809 E192.38463
G1 X74.228 Y70.494 E195.26399
G1 X75.039 Y70.124 E198.09442
G1 X75.730 Y69.735 E200.61139
G1 X76.323 Y69.326 E202.90017
G1 X77.452 Y68.427 E207.48082
G1 X79.512 Y70.657 E217.11936
G1 X76.789 Y73.816 E230.35979
G1 X80.484 Y73.085 F600.000
G1 X82.651 Y74.020 E237.85343 F600.000
G1 X83.605 Y74.358 E241.06672
G1 X83.533 Y75.412 E244.42220
G1 X82.414 Y75.644 E248.04897
G1 X81.563 Y76.074 E251.07638
G1 X80.958 Y77.216 E255.18012
G1 X81.444 Y78.230 E258.74968
G1 X81.887 Y78.674 E260.73962
G1 X82.189 Y78.930 E261.99877
G1 X82.603 Y79.371 E263.91790
G1 X84.356 Y81.668 E273.09199
G1 X84.784 Y82.195 E275.24788
G1 X85.740 Y83.286 E279.85446
G1 X86.194 Y83.749 E281.91002
G1 X85.454 Y84.709 E285.75813
G1 X84.375 Y84.093 E289.70193
G1 X83.287 Y83.562 E293.54364
G1 X82.137 Y83.344 E297.26039
G1 X80.848 Y83.675 E301.48597
G1 X80.620 Y83.995 E302.73421
G1 X80.127 Y84.364 E304.69015
G1 X80.004 Y84.660 E305.70702
G1 X79.704 Y85.067 E307.31187
G1 X78.857 Y86.896 E313.71422
G1 X78.686 Y87.158 E314.70660
G1 X78.450 Y87.398 E315.77341
G1 X78.142 Y87.624 E316.98579
G1 X77.773 Y87.817 E318.31022
G1 X77.024 Y88.094 E320.84405
G1 X76.769 Y88.152 E321.67475
G1 X75.855 Y88.292 E324.60967
G1 X74.693 Y88.647 E328.46734
G1 X73.061 Y90.955 E337.44363
G1 X72.546 Y89.025 E343.78277
G1 X72.512 Y88.758 E344.63769
G1 X72.349 Y88.433 E345.79236
G1 X72.275 Y88.019 E347.12720
G1 X71.652 Y87.288 E350.17746
G1 X71.311 Y86.997 E351.59966
G1 X71.124 Y86.728 E352.63896
G1 X70.975 Y86.429 E353.70125
G1 X70.750 Y85.867 E355.62265
G1 X70.543 Y85.261 E357.65703
G1 X70.175 Y83.992 E361.85170
G1 X69.876 Y83.316 E364.19931
G1 X69.501 Y82.894 E365.98950
G1 X69.328 Y82.598 E367.08156
G1 X68.542 Y82.139 E369.97064
G1 X68.305 Y81.959 E370.91274
G1 X67.148 Y81.537 E374.82443
G1 X64.227 Y81.219 E384.15265
G1 X68.009 Y78.725 E398.53385
G1 X68.520 Y78.267 E400.71315
G1 X69.049 Y77.229 E404.41270
G1 X68.444 Y76.097 E408.48972
G1 X67.654 Y75.660 E411.35659
G1 X66.478 Y75.302 E415.25734
G1 X66.498 Y74.251 E418.59461
G1 X67.349 Y74.025 E421.38966
G1 X68.721 Y73.291 E426.33130
G1 X68.765 Y71.647 E431.55532
G1 X68.535 Y71.274 E432.94509
G1 X68.340 Y70.817 E434.52188
G1 X67.937 Y70.069 E437.21962
G1 X67.433 Y69.319 E440.09061
G1 X66.767 Y68.578 E443.25230
G1 X65.667 Y67.776 E447.57771
G1 X66.247 Y66.704 E451.44647
G1 X67.516 Y67.187 E455.75537
G1 X68.323 Y67.614 E458.65360
G1 X69.092 Y68.075 E461.50183
G1 X69.917 Y68.510 E464.46309
G1 X70.862 Y68.826 E467.62623
G1 X71.815 Y68.821 E470.65156
G1 X72.648 Y68.604 E473.38384
G1 X73.342 Y68.347 E475.73690
G1 X73.987 Y68.053 E477.98596
G1 X74.499 Y67.765 E479.85241
G1 X74.940 Y67.461 E481.55153
G1 X75.893 Y66.702 E485.41929
G1 X76.716 Y65.997 E488.86151
G1 X77.624 Y65.092 E492.93263
G1 X78.366 Y64.052 E496.98809
G1 X78.804 Y62.984 E500.65114
G1 X79.974 Y63.278 E504.47840
G1 X79.864 Y64.355 E507.91871
G1 X79.566 Y66.284 E514.11463
G1 X79.646 Y67.382 E517.60834
G1 X80.450 Y68.253 E521.37295
G1 X81.531 Y68.814 E525.24006
G1 X82.735 Y69.230 E529.28338
G1 X83.979 Y69.457 E533.30008
G1 X84.057 Y70.534 E536.72835
G1 X83.126 Y70.845 E539.84429
G1 X82.047 Y71.271 E543.52543
G1 X80.611 Y72.937 E550.51140
G1 X79.851 Y74.220 F600.000
G1 X79.700 Y61.869 F600.000
G1 X78.852 Y59.918 E557.26432 F600.000
G1 X78.696 Y59.603 E558.37865
G1 X78.258 Y58.919 E560.95876
G1 X77.825 Y58.377 E563.16280
G1 X77.225 Y57.734 E565.95434
G1 X76.427 Y56.985 E569.42861
G1 X74.063 Y55.032 E579.16607
G1 X73.361 Y54.416 E582.13091
G1 X72.965 Y54.017 E583.91457
G1 X72.468 Y53.440 E586.33102
G1 X72.154 Y53.035 E587.96094
G1 X71.600 Y52.224 E591.07941
G1 X71.352 Y51.768 E592.72605
G1 X71.140 Y51.177 E594.72070
G1 X71.045 Y50.476 E596.96552
G1 X71.075 Y49.669 E599.52936
G1 X71.208 Y48.965 E601.80384
G1 X71.310 Y48.618 E602.95156
G1 X71.617 Y47.958 E605.26285
G1 E603.26285 F2400.00000
G92 E0
G1 X73.291 Y54.348 F600.000
G1 X73.291 Y54.348 F600.000
G1 X53.594 Y55.389 F600.000
G1 E2.00000 F2400.00000
G1 X53.356 Y56.208 E4.70813 F600.000
G1 X53.253 Y56.910 E6.96056
G1 X53.289 Y57.715 E9.52005
G1 X53.428 Y58.521 E12.11528
G1 X53.693 Y59.419 E15.08949
G1 X54.054 Y60.253 E17.97431
G1 X54.539 Y61.103 E21.08085
G1 X55.042 Y61.815 E23.84793
G1 X55.631 Y62.543 E26.82180
G1 X56.449 Y63.404 E30.59282
G1 X57.425 Y64.232 E34.65651
G1 X58.428 Y64.878 E38.44465
G1 X58.585 Y64.966 E39.01566
G1 X59.748 Y65.486 E43.06040
G1 X61.134 Y65.947 E47.69827
G1 X62.329 Y66.255 E51.61518
G1 X64.712 Y66.808 E59.38456
G1 X69.824 Y70.179 F600.000
G1 X68.498 Y74.767 F600.000
G1 X67.000 Y74.788 F600.000
G1 X66.215 Y74.808 F600.000
G1 X66.074 Y74.807 F600.000
G1 X66.015 Y74.808 F600.000
G1 X64.994 Y74.842 F600.000
G1 X65.187 Y74.837 F600.000
G1 X61.897 Y74.888 E69.82944 F600.000
G1 X60.442 Y74.937 E74.45178
G1 X59.840 Y74.987 E76.37108
G1 X59.496 Y75.038 E77.47568
G1 X58.823 Y75.199 E79.67332
G1 X58.202 Y75.431 E81.77598
G1 X57.625 Y75.712 E83.81439
G1 X57.064 Y76.042 E85.88134
G1 X55.722 Y76.891 E90.92212
G1 X54.499 Y77.587 E95.39170
G1 X54.030 Y77.819 E97.05316
G1 X53.474 Y78.063 E98.98063
G1 X52.809 Y78.307 E101.22958
G1 X52.170 Y78.515 E103.36425
G1 E101.36425 F2400.00000
G92 E0
G1 X60.472 Y83.611 F600.000
G1 X60.848 Y83.349 F600.000
G1 X61.200 Y83.043 F600.000
G1 X61.457 Y82.840 F600.000
G1 X61.538 Y82.952 F600.000
G1 X62.874 Y82.848 F600.000
G1 E2.00000 F2400.00000
G1 X61.857 Y83.032 E5.28268 F600.000
G1 X60.937 Y83.270 E8.29988
G1 X60.551 Y83.674 E10.07295
G1 X60.338 Y83.967 E11.22086
G1 X60.167 Y84.244 E12.25675
G1 X59.925 Y84.919 E14.53098
G1 X59.881 Y85.185 E15.38728
G1 X59.816 Y85.826 E17.43294
G1 X59.814 Y86.173 E18.53661
G1 X59.852 Y86.803 E20.53801
G1 X60.017 Y87.717 E23.48708
G1 X60.547 Y89.835 E30.42021
G1 X60.706 Y90.762 E33.40605
G1 X60.771 Y91.722 E36.46097
G1 X60.746 Y92.567 E39.14477
G1 X60.648 Y93.162 E41.06140
G1 X60.488 Y93.660 E42.72271
G1 X60.190 Y94.391 E45.22897
G1 E43.22897 F2400.00000
G92 E0
G1 X72.892 Y91.146 F600.000
G1 X73.670 Y91.425 F600.000
G1 X73.707 Y91.535 F600.000
G1 X73.897 Y92.013 F600.000
G1 X73.797 Y92.074 F600.000
G1 X73.840 Y92.104 F600.000
G1 E2.00000 F2400.00000
G1 X74.741 Y93.457 E7.16097 F600.000
G1 X75.339 Y94.247 E10.30643
G1 X75.897 Y94.887 E13.00224
G1 X76.292 Y95.299 E14.81616
G1 X77.195 Y96.148 E18.75001
G1 X78.103 Y97.067 E22.85304
G1 X78.443 Y97.492 E24.58076
G1 X78.691 Y97.932 E26.18403
G1 X78.872 Y98.492 E28.05362
G1 X78.919 Y98.783 E28.98822
G1 X78.962 Y99.314 E30.68010
G1 X78.934 Y100.083 E33.12401
G1 X78.918 Y100.260 E33.68727
G1 X78.788 Y100.921 E35.82580
G1 X78.486 Y101.934 E39.18293
G1 E37.18293 F2400.00000
G92 E0
G1 X77.045 Y96.005 F600.000
G1 X75.879 Y94.867 F600.000
G1 X73.953 Y92.137 F600.000
G1 X75.112 Y83.158 F600.000
G1 X82.640 Y81.903 F600.000
G1 X84.772 Y83.405 F600.000
G1 X85.781 Y84.196 F600.000
G1 X86.135 Y84.459 F600.000
G1 X86.687 Y84.835 F600.000
G1 X86.885 Y84.968 F600.000
G1 X86.867 Y85.005 F600.000
G1 E2.00000 F2400.00000
G1 X88.654 Y86.042 E8.56009 F600.000
G1 X89.906 Y86.695 E13.04367
G1 X90.670 Y87.046 E15.71331
G1 X92.535 Y87.725 E22.01487
G1 X92.938 Y87.889 E23.39473
G1 X93.790 Y88.304 E26.40475
G1 X94.535 Y88.749 E29.16010
G1 X95.011 Y89.105 E31.04834
G1 X95.322 Y89.431 E32.47718
G1 X95.586 Y89.820 E33.97000
G1 X95.768 Y90.174 E35.23507
G1 X95.940 Y90.624 E36.76495
G1 X96.159 Y91.444 E39.45797
G1 E37.45797 F2400.00000
G92 E0
G1 X88.855 Y86.630 F600.000
G1 X80.486 Y81.013 F600.000
G1 X76.085 Y80.332 F600.000
G1 X82.347 Y74.801 F600.000
G1 X83.419 Y74.896 F600.000
G1 X84.227 Y75.114 F600.000
G1 X84.451 Y75.185 F600.000
G1 X84.606 Y75.246 F600.000
G1 X84.844 Y75.298 F600.000
G1 E2.00000 F2400.00000
G1 X87.080 Y76.583 E10.19009 F600.000
G1 X87.792 Y76.903 E12.66776
G1 X88.398 Y77.092 E14.68319
G1 X89.044 Y77.227 E16.77929
G1 X89.687 Y77.275 E18.82594
G1 X90.358 Y77.220 E20.96261
G1 X91.091 Y77.047 E23.35637
G1 X91.866 Y76.737 E26.00415
G1 X92.106 Y76.615 E26.85949
G1 X92.844 Y76.157 E29.61740
G1 X93.334 Y75.798 E31.54454
G1 X94.200 Y75.068 E35.14109
G1 X96.511 Y72.926 E45.14559
G1 X96.923 Y72.574 E46.86725
G1 X97.494 Y72.180 E49.06958
G1 X98.111 Y71.862 E51.27216
G1 X98.811 Y71.595 E53.65046
G1 X100.412 Y71.307 E58.81681
G1 E56.81681 F2400.00000
G92 E0
G1 X88.358 Y68.024 F600.000
G1 X87.213 Y68.875 F600.000
G1 X86.294 Y69.394 F600.000
G1 X85.997 Y69.520 F600.000
G1 X85.811 Y69.582 F600.000
G1 X85.242 Y69.768 F600.000
G1 X85.314 Y69.891 F600.000
G1 E2.00000 F2400.00000
G1 X86.859 Y69.098 E7.51302 F600.000
G1 X87.167 Y68.908 E8.66314
G1 X87.464 Y68.679 E9.85270
G1 X87.755 Y68.421 E11.08952
G1 X88.172 Y67.916 E13.16855
G1 X88.541 Y67.248 E15.58985
G1 X88.662 Y66.941 E16.63771
G1 X88.846 Y66.348 E18.60991
G1 X88.971 Y65.703 E20.69654
G1 X89.055 Y64.701 E23.88756
G1 X89.078 Y63.419 E27.95893
G1 X89.063 Y61.561 E33.85768
G1 X88.948 Y59.327 E40.96096
G1 E38.96096 F2400.00000
G92 E0
G1 X80.161 Y64.394 F600.000
G1 X78.115 Y66.688 F600.000
G1 X77.391 Y69.310 F600.000
G1 X77.311 Y70.297 F600.000
G1 X77.294 Y70.515 F600.000
G1 X77.283 Y70.632 F600.000
G1 X77.718 Y70.601 F600.000
G1 X77.654 Y70.357 F600.000
G1 E2.00000 F2400.00000
G1 X76.690 Y71.222 E6.11162 F600.000
G1 X75.945 Y71.834 E9.17567
G1 X73.372 Y73.764 E19.38725
G1 Z2.600 F600.000
G1 X74.952 Y73.254 F600.000
G1 X78.152 Y75.141 E24.90767 F600.000
G1 X77.042 Y77.420 E28.67305
G1 X78.906 Y80.038 E33.44706
G1 X80.135 Y81.124 E35.88393
G1 X78.616 Y81.959 E38.45834
G1 X78.257 Y83.314 E40.54121
G1 X77.836 Y84.327 E42.17022
G1 X77.729 Y84.778 E42.85892
G1 X77.523 Y85.373 E43.79396
G1 X77.353 Y85.791 E44.46510
G1 X77.241 Y86.014 E44.83614
G1 X77.186 Y86.071 E44.95322
G1 X76.958 Y86.209 E45.34989
G1 X76.520 Y86.367 E46.04123
G1 X76.041 Y86.410 E46.75606
G1 X74.595 Y86.596 E48.92179
G1 X74.055 Y86.733 E49.74920
G1 X73.368 Y86.239 E51.00671
G1 X72.722 Y85.829 E52.14297
G1 X72.503 Y85.320 E52.96662
G1 X72.355 Y84.872 E53.66814
G1 X72.028 Y83.413 E55.88862
G1 X71.774 Y82.540 E57.23923
G1 X71.568 Y82.197 E57.83420
G1 X71.135 Y81.031 E59.68155
G1 X70.493 Y80.553 E60.87066
G1 X71.046 Y80.098 E61.93530
G1 X72.970 Y77.414 E66.84217
G1 X71.829 Y75.109 E70.66205
G1 X72.941 Y74.443 E72.58812
G1 X72.225 Y71.740 E76.74180
G1 X72.936 Y71.572 E77.82670
G1 X73.615 Y71.330 E78.89698
G1 X75.294 Y70.602 E81.61575
G1 X75.976 Y70.245 E82.75925
G1 X76.949 Y69.611 E84.48468
G1 X77.233 Y69.396 E85.01410
G1 X78.133 Y70.551 E87.18971
G1 X75.100 Y73.127 E93.10175
G1 X76.818 Y73.093 F600.000
G1 X79.568 Y74.715 E97.84509 F600.000
G1 X78.301 Y77.316 E102.14204
G1 X79.718 Y79.307 E105.77275
G1 X80.834 Y80.293 E107.98465
G1 X81.191 Y80.690 E108.77783
G1 X81.748 Y81.477 E110.21043
G1 X79.547 Y82.687 E113.94202
G1 X79.260 Y83.769 E115.60502
G1 X79.225 Y83.815 E115.69150
G1 X78.872 Y84.663 E117.05610
G1 X78.767 Y85.105 E117.73032
G1 X78.546 Y85.742 E118.73272
G1 X78.343 Y86.240 E119.53138
G1 X78.185 Y86.555 E120.05492
G1 X78.070 Y86.720 E120.35447
G1 X77.904 Y86.890 E120.70688
G1 X77.688 Y87.052 E121.10785
G1 X77.409 Y87.198 E121.57533
G1 X77.033 Y87.345 E122.17631
G1 X76.730 Y87.438 E122.64662
G1 X76.159 Y87.489 E123.49856
G1 X74.798 Y87.665 E125.53666
G1 X73.831 Y87.910 E127.01879
G1 X72.760 Y87.139 E128.97928
G1 X72.071 Y86.703 E130.19001
G1 X71.892 Y86.545 E130.54423
G1 X71.819 Y86.449 E130.72371
G1 X71.685 Y86.190 E131.15703
G1 X71.484 Y85.696 E131.94978
G1 X71.311 Y85.175 E132.76504
G1 X70.974 Y83.679 E135.04312
G1 X70.770 Y82.978 E136.12757
G1 X70.585 Y82.669 E136.66310
G1 X70.229 Y81.710 E138.18207
G1 X69.624 Y81.261 E139.30119
G1 X68.892 Y80.417 E140.96111
G1 X69.396 Y80.049 E141.88837
G1 X70.247 Y79.350 E143.52436
G1 X71.708 Y77.311 E147.25022
G1 X70.411 Y74.693 E151.59020
G1 X71.682 Y73.931 E153.79185
G1 X71.091 Y71.697 E157.22530
G1 X71.010 Y70.759 E158.62437
G1 X72.104 Y70.653 E160.25731
G1 X72.628 Y70.529 E161.05666
G1 X73.224 Y70.317 E161.99656
G1 X74.820 Y69.624 E164.58141
G1 X75.426 Y69.307 E165.59816
G1 X76.324 Y68.722 E167.18938
G1 X77.431 Y67.884 E169.25241
G1 X78.900 Y69.767 E172.80028
G1 X80.056 Y70.343 E174.71973
G1 X76.967 Y72.967 E180.74231
G1 X78.684 Y72.933 F600.000
G1 X81.774 Y74.756 E186.07183 F600.000
G1 X80.408 Y75.471 E188.36196
G1 X79.560 Y77.211 E191.23888
G1 X80.531 Y78.575 E193.72629
G1 X81.600 Y79.521 E195.84653
G1 X82.040 Y80.011 E196.82561
G1 X82.596 Y80.795 E198.25381
G1 X82.793 Y81.124 E198.82249
G1 X83.315 Y81.851 E200.15168
G1 X83.897 Y82.738 E201.72752
G1 X82.090 Y82.528 E204.43010
G1 X80.478 Y83.414 E207.16292
G1 X80.255 Y84.254 E208.45398
G1 X80.174 Y84.361 E208.65251
G1 X79.909 Y85.000 E209.68046
G1 X79.806 Y85.432 E210.34020
G1 X79.568 Y86.111 E211.40998
G1 X79.333 Y86.689 E212.33615
G1 X79.121 Y87.112 E213.03910
G1 X78.909 Y87.416 E213.58910
G1 X78.621 Y87.709 E214.19963
G1 X78.270 Y87.972 E214.85157
G1 X77.861 Y88.188 E215.53867
G1 X77.390 Y88.372 E216.29058
G1 X76.940 Y88.510 E216.98947
G1 X76.277 Y88.569 E217.97854
G1 X75.001 Y88.734 E219.88899
G1 X74.173 Y88.943 E221.15772
G1 X73.872 Y89.172 E221.71918
G1 X73.502 Y89.357 E222.33464
G1 X72.969 Y88.627 E223.67759
G1 X72.152 Y88.039 E225.17290
G1 X71.417 Y87.575 E226.46376
G1 X71.091 Y87.287 E227.10950
G1 X70.898 Y87.030 E227.58743
G1 X70.698 Y86.646 E228.23060
G1 X70.464 Y86.072 E229.15163
G1 X70.268 Y85.478 E230.08062
G1 X69.920 Y83.945 E232.41631
G1 X69.766 Y83.416 E233.23460
G1 X69.602 Y83.141 E233.71068
G1 X69.322 Y82.390 E234.90127
G1 X68.881 Y82.061 E235.71831
G1 X68.454 Y81.569 E236.68763
G1 X67.230 Y80.976 E238.70745
G1 X66.980 Y80.952 E239.07970
G1 X66.872 Y80.501 E239.76797
G1 X67.403 Y80.160 E240.70562
G1 X68.730 Y79.190 E243.14839
G1 X69.447 Y78.601 E244.52679
G1 X70.445 Y77.209 E247.07162
G1 X69.589 Y75.479 E249.93841
G1 X68.218 Y74.742 E252.25098
G1 X70.423 Y73.420 E256.07100
