; generated by Slic3r 1.2.9 on 2017-03-14 at 09:34:33

; external perimeters extrusion width = 0.50mm
; perimeters extrusion width = 0.72mm
; infill extrusion width = 0.72mm
; solid infill extrusion width = 0.72mm
; top infill extrusion width = 0.72mm

M107
M104 S200 ; set temperature
G28 ; home all axes
G1 Z5 F5000 ; lift nozzle

M109 S200 ; wait for temperature to be reached
G21 ; set units to millimeters
G90 ; use absolute coordinates
M82 ; use absolute distances for extrusion
G92 E0
G1 Z0.350 F7800.000
G1 E-2.00000 F2400.00000
G92 E0
G1 X71.252 Y59.729 F7800.000
G1 E2.00000 F2400.00000
G1 X72.954 Y58.192 E2.07096 F1800.000
G1 X75.078 Y57.327 E2.14192
G1 X76.477 Y57.177 E2.18547
G1 X123.523 Y57.177 E3.64113
G1 X125.782 Y57.574 E3.71209
G1 X127.770 Y58.717 E3.78305 F1800.000
G1 X129.249 Y60.470 E3.85401
G1 X129.824 Y61.755 E3.89756
G1 X144.362 Y106.498 E5.35322
G1 X144.682 Y108.769 E5.42418
G1 X144.209 Y111.013 E5.49514
G1 X142.999 Y112.961 E5.56610
G1 X141.955 Y113.905 E5.60964
G1 X103.894 Y141.558 E7.06530
G1 X101.833 Y142.564 E7.13627
G1 X99.553 Y142.808 E7.20723
G1 X97.326 Y142.259 E7.27819
G1 X96.106 Y141.558 E7.32173
G1 X58.045 Y113.905 E8.77739
G1 X56.451 Y112.256 E8.84836
G1 X55.515 Y110.162 E8.91932
G1 X55.348 Y107.875 E8.99028
G1 X55.638 Y106.498 E9.03382
G1 X70.176 Y61.755 E10.48948
G1 X71.217 Y59.795 E10.55812
G1 E8.55812 F2400.00000
G92 E0
G1 X100.321 Y96.620 F7800.000
G1 E2.00000 F2400.00000
G1 X100.135 Y97.176 E2.01814 F1800.000
G1 X99.865 Y97.176 E2.02650
G1 X99.679 Y96.620 E2.04464
G1 X99.093 Y96.615 E2.06278
G1 X99.010 Y96.358 E2.07114
G1 X99.481 Y96.010 E2.08928
G1 X99.304 Y95.451 E2.10742
G1 X99.523 Y95.292 E2.11578
G1 X100.000 Y95.633 E2.13392
G1 X100.477 Y95.292 E2.15206
G1 X100.696 Y95.451 E2.16042
G1 X100.519 Y96.010 E2.17857
G1 X100.990 Y96.358 E2.19670
G1 X100.907 Y96.615 E2.20506
G1 X100.396 Y96.619 E2.22088
G1 X100.772 Y97.241 F7800.000
G1 X100.135 Y99.150 E2.28316 F1800.000
G1 X99.865 Y99.150 E2.29151
G1 X99.228 Y97.241 E2.35379
G1 X97.215 Y97.225 E2.41606
G1 X97.132 Y96.968 E2.42442
G1 X98.751 Y95.773 E2.48669
G1 X98.144 Y93.854 E2.54896
G1 X98.363 Y93.695 E2.55732
G1 X100.000 Y94.865 E2.61959
G1 X101.638 Y93.695 E2.68186
G1 X101.856 Y93.854 E2.69022
G1 X101.249 Y95.773 E2.75249
G1 X102.868 Y96.968 E2.81476
G1 X102.785 Y97.225 E2.82312
G1 X100.847 Y97.241 E2.88307
G1 X101.224 Y97.862 F7800.000
G1 X100.135 Y101.125 E2.98948 F1800.000
G1 X99.865 Y101.125 E2.99783
G1 X98.776 Y97.862 E3.10424
G1 X95.338 Y97.835 E3.21064
G1 X95.254 Y97.578 E3.21900
G1 X98.020 Y95.535 E3.32540
G1 X96.983 Y92.256 E3.43180
G1 X97.202 Y92.098 E3.44016
G1 X100.000 Y94.097 E3.54656
G1 X102.798 Y92.098 E3.65297
G1 X103.017 Y92.256 E3.66132
G1 X101.980 Y95.535 E3.76773
G1 X104.746 Y97.578 E3.87413
G1 X104.662 Y97.835 E3.88249
G1 X101.298 Y97.862 E3.98657
G1 X101.675 Y98.484 F7800.000
G1 X100.135 Y103.099 E4.13710 F1800.000
G1 X99.865 Y103.099 E4.14546
G1 X98.325 Y98.484 E4.29599
G1 X93.460 Y98.445 E4.44653
G1 X93.377 Y98.189 E4.45489
G1 X97.290 Y95.298 E4.60542
G1 X95.823 Y90.659 E4.75595
G1 X96.042 Y90.500 E4.76431
G1 X100.000 Y93.329 E4.91484
G1 X103.958 Y90.500 E5.06538
G1 X104.177 Y90.659 E5.07373
G1 X102.710 Y95.298 E5.22427
G1 X106.623 Y98.189 E5.37480
G1 X106.540 Y98.445 E5.38316
G1 X101.750 Y98.483 E5.53137
G1 X102.126 Y99.105 F7800.000
G1 X100.135 Y105.073 E5.72603 F1800.000
G1 X99.865 Y105.073 E5.73439
G1 X97.874 Y99.105 E5.92906
G1 X91.582 Y99.056 E6.12372
G1 X91.499 Y98.799 E6.13208
G1 X96.559 Y95.061 E6.32674
G1 X94.663 Y89.062 E6.52141
G1 X94.881 Y88.903 E6.52976
G1 X100.000 Y92.561 E6.72443
G1 X105.119 Y88.903 E6.91909
G1 X105.337 Y89.062 E6.92745
G1 X103.441 Y95.061 E7.12211
G1 X108.501 Y98.799 E7.31678
G1 X108.418 Y99.056 E7.32513
G1 X102.201 Y99.105 E7.51748
G1 X102.578 Y99.727 F7800.000
G1 X100.135 Y107.047 E7.75627 F1800.000
G1 X99.865 Y107.047 E7.76463
G1 X97.422 Y99.727 E8.00343
G1 X89.705 Y99.666 E8.24222
G1 X89.621 Y99.409 E8.25058
G1 X95.829 Y94.823 E8.48937
G1 X93.502 Y87.465 E8.72817
G1 X93.721 Y87.306 E8.73653
G1 X100.000 Y91.793 E8.97532
G1 X106.279 Y87.306 E9.21411
G1 X106.498 Y87.465 E9.22247
G1 X104.171 Y94.823 E9.46127
G1 X110.379 Y99.409 E9.70006
G1 X110.295 Y99.666 E9.70842
G1 X102.653 Y99.726 E9.94489
G1 X103.029 Y100.348 F7800.000
G1 X100.135 Y109.022 E10.22782 F1800.000
G1 X99.865 Y109.022 E10.23618
G1 X96.971 Y100.348 E10.51910
G1 X87.827 Y100.276 E10.80203
G1 X87.744 Y100.019 E10.81038
G1 X95.099 Y94.586 E11.09331
G1 X92.342 Y85.867 E11.37623
G1 X92.560 Y85.709 E11.38459
G1 X100.000 Y91.025 E11.66752
G1 X107.440 Y85.709 E11.95044
G1 X107.658 Y85.867 E11.95880
G1 X104.901 Y94.586 E12.24173
G1 X112.256 Y100.019 E12.52465
G1 X112.173 Y100.276 E12.53301
G1 X103.104 Y100.347 E12.81361
G1 X103.481 Y100.969 F7800.000
G1 X100.135 Y110.996 E13.14067 F1800.000
G1 X99.865 Y110.996 E13.14903
G1 X96.519 Y100.969 E13.47608
G1 X85.949 Y100.886 E13.80314
G1 X85.866 Y100.629 E13.81150
G1 X94.368 Y94.349 E14.13855
G1 X91.181 Y84.270 E14.46561
G1 X91.400 Y84.111 E14.47397
G1 X100.000 Y90.257 E14.80102
G1 X108.600 Y84.111 E15.12808
G1 X108.819 Y84.270 E15.13644
G1 X105.632 Y94.349 E15.46349
G1 X114.134 Y100.629 E15.79055
G1 X114.051 Y100.886 E15.79891
G1 X103.556 Y100.969 E16.12364
G1 X103.932 Y101.591 F7800.000
G1 X100.135 Y112.970 E16.49483 F1800.000
G1 X99.865 Y112.970 E16.50319
G1 X96.068 Y101.591 E16.87437
G1 X84.072 Y101.496 E17.24556
G1 X83.988 Y101.239 E17.25392
G1 X93.638 Y94.111 E17.62510
G1 X90.021 Y82.673 E17.99629
G1 X90.239 Y82.514 E18.00465
G1 X100.000 Y89.489 E18.37584
G1 X109.761 Y82.514 E18.74702
G1 X109.979 Y82.673 E18.75538
G1 X106.362 Y94.111 E19.12657
G1 X116.012 Y101.239 E19.49775
G1 X115.928 Y101.496 E19.50611
G1 X104.007 Y101.590 E19.87498
G1 X104.384 Y102.212 F7800.000
G1 X100.135 Y114.945 E20.29029 F1800.000
G1 X99.865 Y114.945 E20.29865
G1 X95.616 Y102.212 E20.71397
G1 X82.194 Y102.106 E21.12929
G1 X82.111 Y101.849 E21.13764
G1 X92.907 Y93.874 E21.55296
G1 X88.860 Y81.076 E21.96828
G1 X89.079 Y80.917 E21.97664
G1 X100.000 Y88.721 E22.39195
G1 X110.921 Y80.917 E22.80727
G1 X111.140 Y81.076 E22.81563
G1 X107.093 Y93.874 E23.23095
G1 X117.889 Y101.849 E23.64626
G1 X117.806 Y102.106 E23.65462
G1 X104.459 Y102.211 E24.06762
G1 X104.835 Y102.833 F7800.000
G1 X100.135 Y116.919 E24.52707 F1800.000
G1 X99.865 Y116.919 E24.53542
G1 X95.165 Y102.833 E24.99487
G1 X80.316 Y102.716 E25.45432
G1 X80.233 Y102.459 E25.46268
G1 X92.177 Y93.637 E25.92213
G1 X87.700 Y79.479 E26.38157
G1 X87.918 Y79.320 E26.38993
G1 X100.000 Y87.953 E26.84938
G1 X112.082 Y79.320 E27.30883
G1 X112.300 Y79.479 E27.31719
G1 X107.823 Y93.637 E27.77663
G1 X119.767 Y102.459 E28.23608
G1 X119.684 Y102.716 E28.24444
G1 X104.910 Y102.833 E28.70157
G1 X105.286 Y103.455 F7800.000
G1 X100.135 Y118.893 E29.20514 F1800.000
G1 X99.865 Y118.893 E29.21350
G1 X94.714 Y103.455 E29.71708
G1 X78.439 Y103.326 E30.22066
G1 X78.355 Y103.069 E30.22902
G1 X91.446 Y93.399 E30.73260
G1 X86.539 Y77.881 E31.23618
G1 X86.758 Y77.723 E31.24453
G1 X100.000 Y87.185 E31.74811
G1 X113.242 Y77.723 E32.25169
G1 X113.461 Y77.881 E32.26005
G1 X108.554 Y93.399 E32.76363
G1 X121.645 Y103.069 E33.26720
G1 X121.561 Y103.326 E33.27556
G1 X105.361 Y103.454 E33.77682
G1 X105.738 Y104.076 F7800.000
G1 X100.135 Y120.867 E34.32453 F1800.000
G1 X99.865 Y120.867 E34.33289
G1 X94.262 Y104.076 E34.88060
G1 X76.561 Y103.936 E35.42831
G1 X76.478 Y103.679 E35.43667
G1 X90.716 Y93.162 E35.98437
G1 X85.379 Y76.284 E36.53208
G1 X85.597 Y76.125 E36.54044
G1 X100.000 Y86.417 E37.08815
G1 X114.403 Y76.125 E37.63586
G1 X114.621 Y76.284 E37.64422
G1 X109.284 Y93.162 E38.19193
G1 X123.522 Y103.679 E38.73964
G1 X123.439 Y103.936 E38.74799
G1 X105.813 Y104.075 E39.29338
G1 X106.189 Y104.697 F7800.000
G1 X100.135 Y122.842 E39.88522 F1800.000
G1 X99.865 Y122.842 E39.89358
G1 X93.811 Y104.697 E40.48542
G1 X74.683 Y104.546 E41.07726
G1 X74.600 Y104.289 E41.08562
G1 X89.986 Y92.925 E41.67746
G1 X84.218 Y74.687 E42.26930
G1 X84.437 Y74.528 E42.27766
G1 X100.000 Y85.649 E42.86950
G1 X115.563 Y74.528 E43.46134
G1 X115.782 Y74.687 E43.46970
G1 X110.014 Y92.925 E44.06153
G1 X125.400 Y104.289 E44.65337
G1 X125.316 Y104.546 E44.66173
G1 X106.264 Y104.697 E45.25125
G1 X106.641 Y105.319 F7800.000
G1 X100.135 Y124.816 E45.88722 F1800.000
G1 X99.865 Y124.816 E45.89558
G1 X93.359 Y105.319 E46.53155
G1 X72.806 Y105.156 E47.16752
G1 X72.722 Y104.899 E47.17588
G1 X89.255 Y92.687 E47.81185
G1 X83.058 Y73.090 E48.44782
G1 X83.277 Y72.931 E48.45618
G1 X100.000 Y84.881 E49.09215
G1 X116.723 Y72.931 E49.72812
G1 X116.942 Y73.090 E49.73648
G1 X110.745 Y92.687 E50.37245
G1 X127.278 Y104.899 E51.00842
G1 X127.194 Y105.156 E51.01678
G1 X106.716 Y105.318 E51.65043
G1 X107.092 Y105.940 F7800.000
G1 X100.135 Y126.790 E52.33053 F1800.000
G1 X99.865 Y126.790 E52.33889
G1 X92.908 Y105.940 E53.01899
G1 X70.928 Y105.766 E53.69909
G1 X70.845 Y105.510 E53.70745
G1 X88.525 Y92.450 E54.38755
G1 X81.898 Y71.492 E55.06765
G1 X82.116 Y71.334 E55.07601
G1 X100.000 Y84.113 E55.75611
G1 X117.884 Y71.334 E56.43621
G1 X118.102 Y71.492 E56.44457
G1 X111.475 Y92.450 E57.12467
G1 X129.155 Y105.510 E57.80477
G1 X129.072 Y105.766 E57.81313
G1 X107.167 Y105.939 E58.49091
G1 X107.544 Y106.561 F7800.000
G1 X100.135 Y128.765 E59.21514 F1800.000
G1 X99.865 Y128.765 E59.22350
G1 X92.456 Y106.561 E59.94773
G1 X69.051 Y106.377 E60.67196
G1 X68.967 Y106.120 E60.68032
G1 X87.794 Y92.213 E61.40455
G1 X80.737 Y69.895 E62.12879
G1 X80.956 Y69.736 E62.13714
G1 X100.000 Y83.345 E62.86138
G1 X119.044 Y69.736 E63.58561
G1 X119.263 Y69.895 E63.59397
G1 X112.206 Y92.213 E64.31820
G1 X131.033 Y106.120 E65.04243
G1 X130.949 Y106.377 E65.05079
G1 X107.619 Y106.561 E65.77270
G1 X107.995 Y107.183 F7800.000
G1 X100.135 Y130.739 E66.54106 F1800.000
G1 X99.865 Y130.739 E66.54942
G1 X92.005 Y107.183 E67.31778
G1 X67.173 Y106.987 E68.08614
G1 X67.089 Y106.730 E68.09450
G1 X87.064 Y91.975 E68.86287
G1 X79.577 Y68.298 E69.63123
G1 X79.795 Y68.139 E69.63959
G1 X100.000 Y82.577 E70.40795
G1 X120.205 Y68.139 E71.17631
G1 X120.423 Y68.298 E71.18467
G1 X112.936 Y91.975 E71.95303
G1 X132.911 Y106.730 E72.72139
G1 X132.827 Y106.987 E72.72975
G1 X108.070 Y107.182 E73.49580
G1 X108.446 Y107.804 F7800.000
G1 X100.135 Y132.713 E74.30829 F1800.000
G1 X99.865 Y132.713 E74.31665
G1 X91.554 Y107.804 E75.12914
G1 X65.295 Y107.597 E75.94163
G1 X65.212 Y107.340 E75.94999
G1 X86.333 Y91.738 E76.76248
G1 X78.416 Y66.701 E77.57498
G1 X78.635 Y66.542 E77.58334
G1 X100.000 Y81.809 E78.39583
G1 X121.365 Y66.542 E79.20832
G1 X121.584 Y66.701 E79.21668
G1 X113.667 Y91.738 E80.02917
G1 X134.788 Y107.340 E80.84167
G1 X134.705 Y107.597 E80.85002
G1 X108.521 Y107.803 E81.66020
G1 X108.898 Y108.425 F7800.000
G1 X100.135 Y134.687 E82.51682 F1800.000
G1 X99.865 Y134.687 E82.52518
G1 X91.102 Y108.425 E83.38180
G1 X63.418 Y108.207 E84.23843
G1 X63.334 Y107.950 E84.24679
G1 X85.603 Y91.501 E85.10341
G1 X77.256 Y65.103 E85.96003
G1 X77.474 Y64.945 E85.96839
G1 X100.000 Y81.040 E86.82502
G1 X122.526 Y64.945 E87.68164
G1 X122.744 Y65.103 E87.69000
G1 X114.397 Y91.501 E88.54662
G1 X136.666 Y107.950 E89.40325
G1 X136.582 Y108.207 E89.41160
G1 X108.973 Y108.425 E90.26591
G1 X108.409 Y108.320 F7800.000
G1 Z0.650 F7800.000
G1 X100.871 Y95.895 F7800.000
G1 X101.880 Y96.640 E90.30074 F900.000
G1 X101.792 Y96.910 E90.30860
G1 X100.538 Y96.919 E90.34343
G1 X100.141 Y98.109 E90.37826
G1 X99.858 Y98.109 E90.38612
G1 X99.462 Y96.919 E90.42095
G1 X98.208 Y96.910 E90.45578
G1 X98.120 Y96.640 E90.46364
G1 X99.129 Y95.895 E90.49847
G1 X98.751 Y94.700 E90.53331
G1 X98.980 Y94.534 E90.54116
G1 X100.000 Y95.263 E90.57600
G1 X101.020 Y94.534 E90.61083
G1 X101.249 Y94.700 E90.61869
G1 X100.894 Y95.824 E90.65144
G1 X101.636 Y95.647 F7800.000
G1 X103.846 Y97.279 E90.72776 F900.000
G1 X103.759 Y97.549 E90.73562
G1 X101.011 Y97.570 E90.81195
G1 X100.141 Y100.177 E90.88828
G1 X99.859 Y100.177 E90.89614
G1 X98.989 Y97.570 E90.97246
G1 X96.241 Y97.549 E91.04879
G1 X96.154 Y97.279 E91.05665
G1 X98.364 Y95.647 E91.13298
G1 X97.535 Y93.027 E91.20930
G1 X97.764 Y92.861 E91.21716
G1 X100.000 Y94.458 E91.29349
G1 X102.236 Y92.861 E91.36982
G1 X102.465 Y93.027 E91.37768
G1 X101.659 Y95.575 E91.45192
G1 X102.401 Y95.398 F7800.000
G1 X105.813 Y97.918 E91.56974 F3600.000
G1 X105.725 Y98.188 E91.57760
G1 X101.484 Y98.221 E91.69543
G1 X100.141 Y102.245 E91.81325
G1 X99.859 Y102.245 E91.82111
G1 X98.516 Y98.221 E91.93893
G1 X94.274 Y98.188 E92.05676
G1 X94.187 Y97.918 E92.06462
G1 X97.599 Y95.398 E92.18244
G1 X96.320 Y91.354 E92.30026
G1 X96.549 Y91.188 E92.30812
G1 X100.000 Y93.654 E92.42594
G1 X103.451 Y91.188 E92.54377
G1 X103.680 Y91.354 E92.55163
G1 X102.424 Y95.327 E92.66737
G1 X103.166 Y95.150 F7800.000
G1 X107.780 Y98.557 E92.82668 F3600.000
G1 X107.692 Y98.827 E92.83454
G1 X101.957 Y98.872 E92.99386
G1 X100.141 Y104.312 E93.15318
G1 X99.859 Y104.312 E93.16104
G1 X98.043 Y98.872 E93.32036
G1 X92.308 Y98.827 E93.47968
G1 X92.220 Y98.557 E93.48754
G1 X96.834 Y95.150 E93.64686
G1 X95.105 Y89.681 E93.80618
G1 X95.333 Y89.515 E93.81404
G1 X100.000 Y92.849 E93.97336
G1 X104.667 Y89.515 E94.13267
G1 X104.895 Y89.681 E94.14053
G1 X103.189 Y95.078 E94.29777
G1 X103.931 Y94.901 F7800.000
G1 X109.746 Y99.196 E94.49858 F3600.000
G1 X109.659 Y99.466 E94.50644
G1 X102.430 Y99.523 E94.70726
G1 X100.141 Y106.380 E94.90807
G1 X99.859 Y106.380 E94.91593
G1 X97.570 Y99.523 E95.11675
G1 X90.341 Y99.466 E95.31756
G1 X90.254 Y99.196 E95.32542
G1 X96.069 Y94.901 E95.52624
G1 X93.889 Y88.008 E95.72705
G1 X94.118 Y87.842 E95.73491
G1 X100.000 Y92.045 E95.93572
G1 X105.882 Y87.842 E96.13654
G1 X106.111 Y88.008 E96.14440
G1 X103.954 Y94.830 E96.34313
G1 X104.696 Y94.653 F7800.000
G1 X111.713 Y99.835 E96.58544 F3600.000
G1 X111.625 Y100.105 E96.59330
G1 X102.902 Y100.173 E96.83561
G1 X100.141 Y108.448 E97.07792
G1 X99.859 Y108.448 E97.08578
G1 X97.097 Y100.173 E97.32809
G1 X88.375 Y100.105 E97.57040
G1 X88.287 Y99.835 E97.57826
G1 X95.304 Y94.653 E97.82057
G1 X92.674 Y86.335 E98.06288
G1 X92.903 Y86.169 E98.07074
G1 X100.000 Y91.240 E98.31305
G1 X107.097 Y86.169 E98.55536
G1 X107.326 Y86.335 E98.56322
G1 X104.719 Y94.581 E98.80345
G1 X105.461 Y94.404 F7800.000
G1 X113.679 Y100.474 E99.08725 F3600.000
G1 X113.592 Y100.744 E99.09511
G1 X103.375 Y100.824 E99.37892
G1 X100.141 Y110.516 E99.66273
G1 X99.859 Y110.516 E99.67059
G1 X96.625 Y100.824 E99.95439
G1 X86.408 Y100.744 E100.23820
G1 X86.321 Y100.474 E100.24606
G1 X94.539 Y94.404 E100.52987
G1 X91.458 Y84.662 E100.81367
G1 X91.687 Y84.496 E100.82153
G1 X100.000 Y90.436 E101.10534
G1 X108.313 Y84.496 E101.38914
G1 X108.542 Y84.662 E101.39700
G1 X105.484 Y94.332 E101.67873
G1 X106.226 Y94.155 F7800.000
G1 X115.646 Y101.113 E102.00403 F3600.000
G1 X115.559 Y101.383 E102.01189
G1 X103.848 Y101.475 E102.33719
G1 X100.141 Y112.584 E102.66249
G1 X99.859 Y112.584 E102.67035
G1 X96.152 Y101.475 E102.99566
G1 X84.441 Y101.383 E103.32096
G1 X84.354 Y101.113 E103.32882
G1 X93.774 Y94.155 E103.65412
G1 X90.243 Y82.989 E103.97942
G1 X90.472 Y82.823 E103.98728
G1 X100.000 Y89.632 E104.31258
G1 X109.528 Y82.823 E104.63788
G1 X109.757 Y82.989 E104.64574
G1 X106.249 Y94.084 E104.96896
G1 X106.991 Y93.907 F7800.000
G1 X117.613 Y101.752 E105.33576 F3600.000
G1 X117.525 Y102.022 E105.34362
G1 X104.321 Y102.126 E105.71042
G1 X100.141 Y114.652 E106.07722
G1 X99.859 Y114.652 E106.08508
G1 X95.679 Y102.126 E106.45188
G1 X82.475 Y102.022 E106.81867
G1 X82.387 Y101.752 E106.82653
G1 X93.009 Y93.907 E107.19333
G1 X89.027 Y81.317 E107.56013
G1 X89.256 Y81.150 E107.56799
G1 X100.000 Y88.827 E107.93479
