; generated by Slic3r 1.2.9 on 2017-03-14 at 09:39:03

; external perimeters extrusion width = 0.50mm
; perimeters extrusion width = 0.72mm
; infill extrusion width = 0.72mm
; solid infill extrusion width = 0.72mm
; top infill extrusion width = 0.72mm

M107
M104 S200 ; set temperature
G28 ; home all axes
G1 Z5 F5000 ; lift nozzle

M109 S200 ; wait for temperature to be reached
G21 ; set units to millimeters
G90 ; use absolute coordinates
M82 ; use absolute distances for extrusion
G92 E0
G1 Z0.350 F7800.000
G1 E-2.00000 F2400.00000
G92 E0
G1 X71.252 Y59.729 F7800.000
G1 E2.00000 F2400.00000
G1 X72.954 Y58.192 E2.07096 F1800.000
G1 X75.078 Y57.327 E2.14192
G1 X76.477 Y57.177 E2.18547
G1 X123.523 Y57.177 E3.64113
G1 X125.782 Y57.574 E3.71209
G1 X127.770 Y58.717 E3.78305 F1800.000
G1 X129.249 Y60.470 E3.85401
G1 X129.824 Y61.755 E3.89756
G1 X144.362 Y106.498 E5.35322
G1 X144.682 Y108.769 E5.42418
G1 X144.209 Y111.013 E5.49514
G1 X142.999 Y112.961 E5.56610
G1 X141.955 Y113.905 E5.60964
G1 X103.894 Y141.558 E7.06530
G1 X101.833 Y142.564 E7.13627
G1 X99.553 Y142.808 E7.20723
G1 X97.326 Y142.259 E7.27819
G1 X96.106 Y141.558 E7.32173
G1 X58.045 Y113.905 E8.77739
G1 X56.451 Y112.256 E8.84836
G1 X55.515 Y110.162 E8.91932
G1 X55.348 Y107.875 E8.99028
G1 X55.638 Y106.498 E9.03382
G1 X70.176 Y61.755 E10.48948
G1 X71.217 Y59.795 E10.55812
G1 E8.55812 F2400.00000
G92 E0
G1 X107.995 Y107.183 F7800.000
G1 E2.00000 F2400.00000
G1 X100.135 Y130.739 E2.76836 F1800.000
G1 X99.865 Y130.739 E2.77672
G1 X92.005 Y107.183 E3.54508
G1 X67.173 Y106.987 E4.31345
G1 X67.089 Y106.730 E4.32180
G1 X87.064 Y91.975 E5.09017
G1 X79.577 Y68.298 E5.85853
G1 X79.795 Y68.139 E5.86689
G1 X100.000 Y82.577 E6.63525
G1 X120.205 Y68.139 E7.40361
G1 X120.423 Y68.298 E7.41197
G1 X112.936 Y91.975 E8.18033
G1 X132.911 Y106.730 E8.94870
G1 X132.827 Y106.987 E8.95705
G1 X108.070 Y107.182 E9.72310
G1 X108.446 Y107.804 F7800.000
G1 X100.135 Y132.713 E10.53559 F1800.000
G1 X99.865 Y132.713 E10.54395
G1 X91.554 Y107.804 E11.35644
G1 X65.295 Y107.597 E12.16893
G1 X65.212 Y107.340 E12.17729
G1 X86.333 Y91.738 E12.98979
G1 X78.416 Y66.701 E13.80228
G1 X78.635 Y66.542 E13.81064
G1 X100.000 Y81.809 E14.62313
G1 X121.365 Y66.542 E15.43562
G1 X121.584 Y66.701 E15.44398
G1 X113.667 Y91.738 E16.25647
G1 X134.788 Y107.340 E17.06897
G1 X134.705 Y107.597 E17.07733
G1 X108.521 Y107.803 E17.88750
G1 X108.898 Y108.425 F7800.000
G1 X100.135 Y134.687 E18.74412 F1800.000
G1 X99.865 Y134.687 E18.75248
G1 X91.102 Y108.425 E19.60910
G1 X63.418 Y108.207 E20.46573
G1 X63.334 Y107.950 E20.47409
G1 X85.603 Y91.501 E21.33071
G1 X77.256 Y65.103 E22.18733
G1 X77.474 Y64.945 E22.19569
G1 X100.000 Y81.040 E23.05232
G1 X122.526 Y64.945 E23.90894
G1 X122.744 Y65.103 E23.91730
G1 X114.397 Y91.501 E24.77392
G1 X136.666 Y107.950 E25.63055
G1 X136.582 Y108.207 E25.63890
G1 X108.973 Y108.425 E26.49321
G1 X108.409 Y108.320 F7800.000
G1 X119.274 Y97.257 F7800.000
G1 X128.658 Y106.642 E26.90417 F1800.000
G1 X127.781 Y106.649 E26.93134
G1 X115.889 Y94.757 E27.45208
G1 X112.505 Y92.258 F7800.000
G1 X126.903 Y106.656 E28.08259 F1800.000
G1 X126.026 Y106.663 E28.10976
G1 X101.365 Y82.002 E29.18968
G1 X101.881 Y81.633 E29.20931
G1 X112.490 Y92.243 E29.67389
G1 X112.703 Y91.571 E29.69572
G1 X102.397 Y81.265 E30.14701
G1 X102.913 Y80.896 E30.16665
G1 X112.915 Y90.899 E30.60466
G1 X113.127 Y90.227 E30.62648
G1 X103.428 Y80.528 E31.05121
G1 X103.944 Y80.159 E31.07084
G1 X113.340 Y89.555 E31.48229
G1 X113.552 Y88.883 E31.50411
G1 X104.460 Y79.791 E31.90228
G1 X104.976 Y79.422 E31.92191
G1 X113.765 Y88.211 E32.30679
G1 X113.977 Y87.539 E32.32861
G1 X105.492 Y79.053 E32.70021
G1 X106.007 Y78.685 E32.71984
G1 X114.190 Y86.867 E33.07815
G1 X114.402 Y86.195 E33.09997
G1 X106.523 Y78.316 E33.44500
G1 X107.039 Y77.948 E33.46463
G1 X114.615 Y85.523 E33.79638
G1 X114.827 Y84.851 E33.81820
G1 X107.555 Y77.579 E34.13666
G1 X108.071 Y77.210 E34.15629
G1 X115.040 Y84.179 E34.46147
G1 X115.252 Y83.508 E34.48329
G1 X108.587 Y76.842 E34.77518
G1 X109.102 Y76.473 E34.79481
G1 X115.465 Y82.836 E35.07343
G1 X115.677 Y82.164 E35.09525
G1 X109.618 Y76.105 E35.36057
G1 X110.134 Y75.736 E35.38020
G1 X115.890 Y81.492 E35.63225
G1 X116.102 Y80.820 E35.65407
G1 X110.650 Y75.368 E35.89283
G1 X111.166 Y74.999 E35.91246
G1 X116.315 Y80.148 E36.13793
G1 X116.527 Y79.476 E36.15976
G1 X111.681 Y74.630 E36.37195
G1 X112.197 Y74.262 E36.39158
G1 X116.740 Y78.804 E36.59049
G1 X116.952 Y78.132 E36.61231
G1 X112.713 Y73.893 E36.79793
G1 X113.229 Y73.525 E36.81756
G1 X117.164 Y77.460 E36.98990
G1 X117.377 Y76.788 E37.01172
G1 X113.745 Y73.156 E37.17078
G1 X114.261 Y72.788 E37.19041
G1 X117.589 Y76.116 E37.33618
G1 X117.802 Y75.444 E37.35801
G1 X114.776 Y72.419 E37.49049
G1 X115.292 Y72.050 E37.51013
G1 X118.014 Y74.773 E37.62933
G1 X118.227 Y74.101 E37.65115
G1 X115.808 Y71.682 E37.75707
G1 X116.324 Y71.313 E37.77670
G1 X118.439 Y73.429 E37.86934
G1 X118.652 Y72.757 E37.89116
G1 X116.840 Y70.945 E37.97052
G1 X117.355 Y70.576 E37.99015
G1 X118.864 Y72.085 E38.05622
G1 X119.077 Y71.413 E38.07804
G1 X117.871 Y70.207 E38.13083
G1 X118.387 Y69.839 E38.15046
G1 X119.289 Y70.741 E38.18996
G1 X119.502 Y70.069 E38.21178
G1 X118.903 Y69.470 E38.23800
G1 X119.419 Y69.102 E38.25763
G1 X119.714 Y69.397 E38.27057
G1 X99.569 Y82.859 F7800.000
G1 X123.394 Y106.684 E39.31388 F1800.000
G1 X124.271 Y106.677 E39.34106
G1 X100.333 Y82.739 E40.38930
G1 X100.849 Y82.371 E40.40893
G1 X125.148 Y106.670 E41.47301
G1 X126.042 Y102.257 F7800.000
G1 X130.413 Y106.628 E41.66443 F1800.000
G1 X129.536 Y106.635 E41.69160
G1 X122.658 Y99.757 E41.99279
G1 X129.426 Y104.757 F7800.000
G1 X131.291 Y106.621 E42.07444 F1800.000
G1 E40.07444 F2400.00000
G92 E0
G1 X96.199 Y118.403 F7800.000
G1 E2.00000 F2400.00000
G1 X101.965 Y124.169 E2.25249 F1800.000
G1 X102.186 Y123.506 E2.27414
G1 X95.756 Y117.076 E2.55572
G1 X95.314 Y115.748 F7800.000
G1 X102.408 Y122.843 E2.86638 F1800.000
G1 X102.629 Y122.179 E2.88803
G1 X94.871 Y114.421 E3.22777
G1 X94.428 Y113.094 F7800.000
G1 X102.850 Y121.516 E3.59659 F1800.000
G1 X103.072 Y120.853 E3.61824
G1 X93.985 Y111.767 E4.01615
G1 X93.542 Y110.439 F7800.000
G1 X103.293 Y120.190 E4.44314 F1800.000
G1 X103.514 Y119.527 E4.46479
G1 X93.099 Y109.112 E4.92086
G1 X92.656 Y107.785 F7800.000
G1 X103.735 Y118.864 E5.40602 F1800.000
G1 X103.957 Y118.201 E5.42767
G1 X81.929 Y96.173 E6.39227
G1 X82.438 Y95.797 E6.41185
G1 X104.178 Y117.537 E7.36387
G1 X104.399 Y116.874 E7.38552
G1 X82.946 Y95.422 E8.32496
G1 X83.455 Y95.046 E8.34454
G1 X104.620 Y116.211 E9.27139
G1 X104.842 Y115.548 E9.29303
G1 X83.964 Y94.670 E10.20730
G1 X84.472 Y94.294 E10.22688
G1 X105.063 Y114.885 E11.12856
G1 X105.284 Y114.222 E11.15020
G1 X84.981 Y93.919 E12.03929
G1 X85.490 Y93.543 E12.05888
G1 X105.505 Y113.559 E12.93538
G1 X105.727 Y112.896 E12.95703
G1 X85.998 Y93.167 E13.82095
G1 X86.507 Y92.791 E13.84053
G1 X105.948 Y112.232 E14.69187
G1 X106.169 Y111.569 E14.71352
G1 X87.016 Y92.416 E15.55227
G1 X87.524 Y92.040 E15.57185
G1 X106.391 Y110.906 E16.39802
G1 X106.612 Y110.243 E16.41966
G1 X87.123 Y90.754 E17.27309
G1 X86.714 Y89.461 E17.31509
G1 X106.833 Y109.580 E18.19612
G1 X107.054 Y108.917 E18.21776
G1 X86.305 Y88.168 E19.12639
G1 X85.896 Y86.874 E19.16839
G1 X107.276 Y108.254 E20.10461
G1 X107.497 Y107.591 E20.12626
G1 X85.487 Y85.581 E21.09008
G1 X85.078 Y84.287 E21.13208
G1 X107.718 Y106.927 E22.12351
G1 X108.476 Y106.801 E22.14731
G1 X84.669 Y82.994 E23.18985
G1 X84.260 Y81.701 E23.23185
G1 X109.354 Y106.794 E24.33073
G1 X110.231 Y106.787 E24.35790
G1 X83.851 Y80.407 E25.51311
G1 X83.442 Y79.114 E25.55512
G1 X111.109 Y106.781 E26.76666
G1 X111.986 Y106.774 E26.79383
G1 X83.033 Y77.821 E28.06171
G1 X82.624 Y76.527 E28.10372
G1 X112.864 Y106.767 E29.42793
G1 X113.741 Y106.760 E29.45511
G1 X82.215 Y75.234 E30.83566
G1 X81.806 Y73.940 E30.87766
G1 X114.619 Y106.753 E32.31455
G1 X115.496 Y106.746 E32.34172
G1 X81.397 Y72.647 E33.83494
G1 X80.988 Y71.354 E33.87695
G1 X116.374 Y106.739 E35.42650
G1 X117.251 Y106.732 E35.45367
G1 X80.579 Y70.060 E37.05957
G1 X80.979 Y69.575 E37.07902
G1 X118.129 Y106.725 E38.70584
G1 X119.006 Y106.718 E38.73302
G1 X84.077 Y71.789 E40.26259
G1 X87.175 Y74.003 F7800.000
G1 X119.884 Y106.711 E41.69491 F1800.000
G1 X120.761 Y106.704 E41.72208
G1 X90.274 Y76.217 E43.05715
G1 X93.372 Y78.431 F7800.000
G1 X121.639 Y106.697 E44.29497 F1800.000
G1 X122.516 Y106.691 E44.32214
G1 X96.470 Y80.645 E45.46271
G1 X91.672 Y106.800 F7800.000
G1 X81.420 Y96.549 E45.91163 F1800.000
G1 X80.912 Y96.925 E45.93122
G1 X90.781 Y106.793 E46.36338
G1 X89.889 Y106.786 E46.39098
G1 X80.403 Y97.300 E46.80639
G1 X79.894 Y97.676 E46.82597
G1 X88.998 Y106.779 E47.22461
G1 X88.106 Y106.772 E47.25221
G1 X79.386 Y98.052 E47.63409
G1 X78.877 Y98.427 E47.65367
G1 X87.215 Y106.765 E48.01879
G1 X86.323 Y106.758 E48.04639
G1 X78.368 Y98.803 E48.39475
G1 X77.860 Y99.179 E48.41433
G1 X85.432 Y106.751 E48.74592
G1 X84.541 Y106.744 E48.77353
G1 X77.351 Y99.555 E49.08836
G1 X76.842 Y99.930 E49.10794
G1 X83.649 Y106.737 E49.40601
G1 X82.758 Y106.730 E49.43361
G1 X76.334 Y100.306 E49.71492
G1 X75.825 Y100.682 E49.73450
G1 X81.866 Y106.723 E49.99905
G1 X80.975 Y106.716 E50.02665
G1 X75.316 Y101.058 E50.27443
G1 X74.808 Y101.433 E50.29402
G1 X80.083 Y106.709 E50.52504
G1 X79.192 Y106.702 E50.55264
G1 X74.299 Y101.809 E50.76690
G1 X73.790 Y102.185 E50.78648
G1 X78.300 Y106.695 E50.98398
G1 X77.409 Y106.688 E51.01159
G1 X73.282 Y102.561 E51.19232
G1 X72.773 Y102.936 E51.21190
G1 X76.518 Y106.681 E51.37588
G1 X75.626 Y106.674 E51.40348
G1 X72.264 Y103.312 E51.55069
G1 X71.756 Y103.688 E51.57028
G1 X74.735 Y106.667 E51.70073
G1 X73.843 Y106.660 E51.72833
G1 X71.247 Y104.064 E51.84202
G1 X70.738 Y104.439 E51.86160
G1 X72.952 Y106.653 E51.95853
G1 X72.060 Y106.646 E51.98613
G1 X70.230 Y104.815 E52.06630
G1 X69.721 Y105.191 E52.08588
G1 X71.169 Y106.639 E52.14928
G1 X70.278 Y106.632 E52.17689
G1 X69.212 Y105.566 E52.22353
G1 X68.704 Y105.942 E52.24311
G1 X69.386 Y106.625 E52.27299
G1 X68.495 Y106.617 E52.30059
G1 X68.195 Y106.318 E52.31371
G1 E50.31371 F2400.00000
G92 E0
G1 X96.642 Y119.730 F7800.000
G1 E2.00000 F2400.00000
G1 X101.744 Y124.832 E2.22341 F1800.000
G1 X101.523 Y125.495 E2.24506
G1 X97.085 Y121.057 E2.43939
G1 X97.528 Y122.385 F7800.000
G1 X101.301 Y126.158 E2.60463 F1800.000
G1 X101.080 Y126.821 E2.62628
G1 X97.971 Y123.712 E2.76244
G1 X98.414 Y125.039 F7800.000
G1 X100.859 Y127.484 E2.86952 F1800.000
G1 X100.638 Y128.148 E2.89117
G1 X98.857 Y126.366 E2.96917
G1 X99.299 Y127.694 F7800.000
G1 X100.416 Y128.811 E3.01808 F1800.000
G1 X100.195 Y129.474 E3.03973
G1 X99.742 Y129.021 E3.05956
G1 Z0.650 F7800.000
G1 X108.104 Y107.332 F7800.000
G1 X100.141 Y131.194 E3.75832 F3600.000
G1 X99.859 Y131.194 E3.76618
G1 X91.896 Y107.332 E4.46495
G1 X66.742 Y107.133 E5.16371
G1 X66.654 Y106.864 E5.17157
G1 X86.888 Y91.918 E5.87034
G1 X79.304 Y67.933 E6.56910
G1 X79.533 Y67.767 E6.57696
G1 X100.000 Y82.392 E7.27573
G1 X120.467 Y67.767 E7.97449
G1 X120.696 Y67.933 E7.98235
G1 X113.112 Y91.918 E8.68112
G1 X133.346 Y106.864 E9.37988
G1 X133.258 Y107.133 E9.38774
G1 X108.179 Y107.331 E10.08442
G1 X108.576 Y107.983 F7800.000
G1 X100.141 Y133.262 E10.82468 F3600.000
G1 X99.859 Y133.262 E10.83254
G1 X91.424 Y107.983 E11.57281
G1 X64.775 Y107.772 E12.31307
G1 X64.688 Y107.503 E12.32093
G1 X86.123 Y91.670 E13.06119
G1 X78.088 Y66.260 E13.80145
G1 X78.317 Y66.094 E13.80931
G1 X100.000 Y81.587 E14.54957
G1 X121.683 Y66.094 E15.28983
G1 X121.912 Y66.260 E15.29769
G1 X113.877 Y91.670 E16.03795
G1 X135.312 Y107.503 E16.77821
G1 X135.225 Y107.772 E16.78607
G1 X108.651 Y107.982 E17.52425
G1 X108.970 Y108.525 F7800.000
G1 X100.118 Y135.055 E18.04133 F1800.000
G1 X99.882 Y135.055 E18.04569
G1 X91.030 Y108.525 E18.56277
G1 X63.063 Y108.304 E19.07985
G1 X62.990 Y108.080 E19.08421
G1 X85.486 Y91.463 E19.60129
G1 X77.054 Y64.796 E20.11838
G1 X77.244 Y64.657 E20.12273
G1 X100.000 Y80.918 E20.63982
G1 X122.756 Y64.657 E21.15690
G1 X122.946 Y64.796 E21.16126
G1 X114.514 Y91.463 E21.67834
G1 X137.010 Y108.080 E22.19542
G1 X136.937 Y108.304 E22.19978
G1 X109.045 Y108.524 E22.71548
G1 X108.481 Y108.420 F7800.000
G1 X107.454 Y107.862 F7800.000
G1 X96.206 Y119.110 E23.16046 F1200.000
G1 X95.973 Y118.411 E23.18107
G1 X118.247 Y96.137 E24.06229
G1 X117.711 Y95.741 E24.08094
G1 X95.740 Y117.712 E24.95017
G1 X95.507 Y117.013 E24.97079
G1 X117.175 Y95.345 E25.82804
G1 X116.639 Y94.949 E25.84668
G1 X95.274 Y116.314 E26.69195
G1 X95.040 Y115.615 E26.71256
G1 X116.102 Y94.553 E27.54584
G1 X115.566 Y94.157 E27.56449
G1 X94.807 Y114.916 E28.38579
G1 X94.574 Y114.217 E28.40640
G1 X115.030 Y93.761 E29.21571
G1 X114.494 Y93.365 E29.23436
G1 X94.341 Y113.518 E30.03169
G1 X94.107 Y112.819 E30.05230
G1 X113.958 Y92.968 E30.83764
G1 X113.422 Y92.572 E30.85629
G1 X93.874 Y112.120 E31.62965
G1 X93.641 Y111.421 E31.65026
G1 X112.886 Y92.176 E32.41164
G1 X112.844 Y91.285 F7800.000
G1 X93.408 Y110.722 E33.18061 F1200.000
G1 X93.175 Y110.023 E33.20122
G1 X113.275 Y89.922 E33.99647
G1 X113.707 Y88.559 E34.03647
G1 X92.941 Y109.324 E34.85801
G1 X92.708 Y108.625 E34.87862
G1 X114.138 Y87.196 E35.72644
G1 X114.569 Y85.832 E35.76644
G1 X92.475 Y107.926 E36.64054
G1 X92.242 Y107.227 E36.66115
G1 X115.000 Y84.469 E37.56153
G1 X115.431 Y83.106 E37.60153
G1 X91.603 Y106.933 E38.54422
G1 X90.678 Y106.926 E38.57009
G1 X115.862 Y81.743 E39.56643
G1 X116.293 Y80.379 E39.60643
G1 X89.754 Y106.919 E40.65641
G1 X88.829 Y106.911 E40.68229
G1 X116.724 Y79.016 E41.78592
G1 X117.155 Y77.653 E41.82592
G1 X87.904 Y106.904 E42.98319
G1 X86.979 Y106.897 E43.00907
G1 X117.586 Y76.289 E44.21999
G1 X118.017 Y74.926 E44.25999
G1 X86.054 Y106.890 E45.52455
G1 X85.129 Y106.882 E45.55043
G1 X118.448 Y73.563 E46.86864
G1 X118.880 Y72.200 E46.90864
G1 X84.204 Y106.875 E48.28050
G1 X83.279 Y106.868 E48.30638
G1 X119.311 Y70.836 E49.73189
G1 X118.467 Y69.816 F7800.000
G1 X81.430 Y106.853 E51.19718 F1200.000
G1 X82.355 Y106.860 E51.22306
G1 X119.742 Y69.473 E52.70221
G1 X115.201 Y72.150 F7800.000
G1 X80.505 Y106.846 E54.07490 F1200.000
G1 X79.580 Y106.838 E54.10077
G1 X111.935 Y74.483 E55.38085
G1 X108.670 Y76.817 F7800.000
G1 X78.655 Y106.831 E56.56832 F1200.000
G1 X77.730 Y106.824 E56.59420
G1 X105.404 Y79.150 E57.68906
G1 X102.138 Y81.484 F7800.000
G1 X76.805 Y106.817 E58.69131 F1200.000
G1 X75.880 Y106.809 E58.71718
G1 X99.928 Y82.762 E59.66858
G1 X99.384 Y82.373 E59.68727
G1 X74.955 Y106.802 E60.65375
G1 X74.031 Y106.795 E60.67963
G1 X98.841 Y81.985 E61.66119
G1 X98.297 Y81.596 E61.67988
G1 X73.106 Y106.787 E62.67653
G1 X72.181 Y106.780 E62.70240
G1 X85.067 Y93.894 E63.21221
G1 X87.214 Y91.747 F7800.000
G1 X97.753 Y81.208 E63.62918 F1200.000
G1 X97.210 Y80.819 E63.64788
G1 X86.990 Y91.039 E64.05220
G1 X86.766 Y90.331 E64.07298
G1 X96.666 Y80.431 E64.46465
G1 X96.122 Y80.042 E64.48335
G1 X86.542 Y89.622 E64.86237
G1 X86.318 Y88.914 E64.88315
G1 X95.579 Y79.654 E65.24953
G1 X95.035 Y79.265 E65.26822
G1 X86.094 Y88.206 E65.62195
G1 X85.870 Y87.498 E65.64273
G1 X94.491 Y78.877 E65.98380
G1 X93.947 Y78.488 E66.00249
G1 X85.646 Y86.789 E66.33092
G1 X85.422 Y86.081 E66.35170
G1 X93.404 Y78.100 E66.66747
G1 X92.860 Y77.711 E66.68617
G1 X85.198 Y85.373 E66.98929
G1 X84.974 Y84.665 E67.01007
G1 X92.316 Y77.323 E67.30055
G1 X91.773 Y76.934 E67.31924
G1 X84.750 Y83.957 E67.59707
G1 X84.526 Y83.248 E67.61785
G1 X91.229 Y76.546 E67.88303
G1 X90.685 Y76.157 E67.90172
G1 X84.302 Y82.540 E68.15425
G1 X84.078 Y81.832 E68.17503
G1 X90.142 Y75.769 E68.41490
G1 X89.598 Y75.380 E68.43360
