; generated by Slic3r 1.2.9 on 2017-03-14 at 09:21:19

; external perimeters extrusion width = 0.50mm
; perimeters extrusion width = 0.72mm
; infill extrusion width = 0.72mm
; solid infill extrusion width = 0.72mm
; top infill extrusion width = 0.72mm

M107
M104 S200 ; set temperature
G28 ; home all axes
G1 Z5 F5000 ; lift nozzle

M109 S200 ; wait for temperature to be reached
G21 ; set units to millimeters
G90 ; use absolute coordinates
M82 ; use absolute distances for extrusion
G92 E0
G1 Z0.350 F7800.000
G1 E-2.00000 F2400.00000
G92 E0
G1 X82.215 Y83.053 F7800.000
G1 E2.00000 F2400.00000
G1 X83.968 Y81.574 E2.07096 F1800.000
G1 X86.120 Y80.781 E2.14192
G1 X87.300 Y80.675 E2.17858
G1 X112.700 Y80.675 E2.96448
G1 X114.959 Y81.072 E3.03545
G1 X116.947 Y82.215 E3.10641 F1800.000
G1 X118.426 Y83.968 E3.17737
G1 X119.219 Y86.120 E3.24833
G1 X119.325 Y87.300 E3.28499
G1 X119.325 Y112.700 E4.07089
G1 X118.928 Y114.959 E4.14186
G1 X117.785 Y116.947 E4.21282
G1 X116.032 Y118.426 E4.28378
G1 X113.880 Y119.219 E4.35474
G1 X112.700 Y119.325 E4.39139
G1 X87.300 Y119.325 E5.17730
G1 X85.041 Y118.928 E5.24827
G1 X83.053 Y117.785 E5.31923
G1 X81.574 Y116.032 E5.39019
G1 X80.781 Y113.880 E5.46115
G1 X80.675 Y112.700 E5.49780
G1 X80.675 Y87.300 E6.28371
G1 X81.072 Y85.041 E6.35468
G1 X82.178 Y83.118 E6.42332
G1 E4.42332 F2400.00000
G92 E0
G1 X106.726 Y106.726 F7800.000
G1 E2.00000 F2400.00000
G1 X93.274 Y106.726 E2.41622 F1800.000
G1 X93.274 Y93.274 E2.83245
G1 X106.726 Y93.274 E3.24867
G1 X106.726 Y106.651 E3.66257
G1 X107.351 Y107.351 F7800.000
G1 X92.649 Y107.351 E4.11746 F1800.000
G1 X92.649 Y92.649 E4.57235
G1 X107.351 Y92.649 E5.02725
G1 X107.351 Y107.276 E5.47982
G1 X107.976 Y107.976 F7800.000
G1 X92.024 Y107.976 E5.97338 F1800.000
G1 X92.024 Y92.024 E6.46694
G1 X107.976 Y92.024 E6.96050
G1 X107.976 Y107.901 E7.45175
G1 X108.601 Y108.601 F7800.000
G1 X91.399 Y108.601 E7.98398 F1800.000
G1 X91.399 Y91.399 E8.51621
G1 X108.601 Y91.399 E9.04844
G1 X108.601 Y108.526 E9.57835
G1 X109.226 Y109.226 F7800.000
G1 X90.774 Y109.226 E10.14925 F1800.000
G1 X90.774 Y90.774 E10.72016
G1 X109.226 Y90.774 E11.29106
G1 X109.226 Y109.151 E11.85964
G1 X109.850 Y109.850 F7800.000
G1 X90.150 Y109.850 E12.46921 F1800.000
G1 X90.150 Y90.150 E13.07878
G1 X109.850 Y90.150 E13.68835
G1 X109.850 Y109.775 E14.29560
G1 X110.475 Y110.475 F7800.000
G1 X89.525 Y110.475 E14.94384 F1800.000
G1 X89.525 Y89.525 E15.59208
G1 X110.475 Y89.525 E16.24033
G1 X110.475 Y110.400 E16.88625
G1 X111.100 Y111.100 F7800.000
G1 X88.900 Y111.100 E17.57316 F1800.000
G1 X88.900 Y88.900 E18.26007
G1 X111.100 Y88.900 E18.94698
G1 X111.100 Y111.025 E19.63157
G1 X111.725 Y111.725 F7800.000
G1 X88.275 Y111.725 E20.35715 F1800.000
G1 X88.275 Y88.275 E21.08273
G1 X111.725 Y88.275 E21.80831
G1 X111.725 Y111.650 E22.53157
G1 X112.350 Y112.350 F7800.000
G1 X87.650 Y112.350 E23.29582 F1800.000
G1 X87.650 Y87.650 E24.06007
G1 X112.350 Y87.650 E24.82432
G1 X112.350 Y112.275 E25.58625
G1 X111.917 Y112.100 F7800.000
G1 X106.347 Y93.958 F7800.000
G1 X106.042 Y93.653 E25.59962 F1800.000
G1 X105.157 Y93.653 E25.62704
G1 X106.347 Y94.843 E25.67919
G1 X106.347 Y95.728 E25.70661
G1 X104.272 Y93.653 E25.79754
G1 X103.387 Y93.653 E25.82496
G1 X106.347 Y96.613 E25.95467
G1 X106.347 Y97.498 E25.98209
G1 X102.502 Y93.653 E26.15058
G1 X101.617 Y93.653 E26.17800
G1 X106.347 Y98.383 E26.38527
G1 X106.347 Y99.268 E26.41269
G1 X100.732 Y93.653 E26.65874
G1 X99.847 Y93.653 E26.68616
G1 X106.347 Y100.153 E26.97099
G1 X106.347 Y101.038 E26.99841
G1 X98.962 Y93.653 E27.32202
G1 X98.077 Y93.653 E27.34944
G1 X106.347 Y101.923 E27.71183
G1 X106.347 Y102.808 E27.73925
G1 X97.192 Y93.653 E28.14042
G1 X96.308 Y93.653 E28.16784
G1 X106.347 Y103.692 E28.60778
G1 X106.347 Y104.577 E28.63520
G1 X95.423 Y93.653 E29.11393
G1 X94.538 Y93.653 E29.14135
G1 X106.347 Y105.462 E29.65886
G1 X106.327 Y106.327 E29.68567
G1 X93.673 Y93.673 E30.24020
G1 X93.653 Y94.538 E30.26701
G1 X105.462 Y106.347 E30.78451
G1 X104.577 Y106.347 E30.81193
G1 X93.653 Y95.423 E31.29066
G1 X93.653 Y96.308 E31.31808
G1 X103.692 Y106.347 E31.75802
G1 X102.807 Y106.347 E31.78545
G1 X93.653 Y97.193 E32.18661
G1 X93.653 Y98.077 E32.21403
G1 X101.923 Y106.347 E32.57642
G1 X101.038 Y106.347 E32.60384
G1 X93.653 Y98.962 E32.92745
G1 X93.653 Y99.847 E32.95487
G1 X100.153 Y106.347 E33.23970
G1 X99.268 Y106.347 E33.26712
G1 X93.653 Y100.732 E33.51316
G1 X93.653 Y101.617 E33.54059
G1 X98.383 Y106.347 E33.74785
G1 X97.498 Y106.347 E33.77527
G1 X93.653 Y102.502 E33.94376
G1 X93.653 Y103.387 E33.97118
G1 X96.613 Y106.347 E34.10089
G1 X95.728 Y106.347 E34.12831
G1 X93.653 Y104.272 E34.21924
G1 X93.653 Y105.157 E34.24666
G1 X94.843 Y106.347 E34.29881
G1 X93.958 Y106.347 E34.32623
G1 X93.653 Y106.042 E34.33960
G1 Z0.650 F7800.000
G1 X106.669 Y106.669 F7800.000
G1 X93.331 Y106.669 E34.71010 F3600.000
G1 X93.331 Y93.331 E35.08060
G1 X106.669 Y93.331 E35.45110
G1 X106.669 Y106.594 E35.81951
G1 X107.323 Y107.323 F7800.000
G1 X92.677 Y107.323 E36.22637 F3600.000
G1 X92.677 Y92.677 E36.63323
G1 X107.323 Y92.677 E37.04009
G1 X107.323 Y107.248 E37.44486
G1 X107.978 Y107.978 F7800.000
G1 X92.022 Y107.978 E37.88808 F3600.000
G1 X92.022 Y92.022 E38.33130
G1 X107.978 Y92.022 E38.77452
G1 X107.978 Y107.903 E39.21566
G1 X108.632 Y108.632 F7800.000
G1 X91.368 Y108.632 E39.69524 F3600.000
G1 X91.368 Y91.368 E40.17482
G1 X108.632 Y91.368 E40.65440
G1 X108.632 Y108.557 E41.13190
G1 X109.287 Y109.287 F7800.000
G1 X90.713 Y109.287 E41.64784 F3600.000
G1 X90.713 Y90.713 E42.16378
G1 X109.287 Y90.713 E42.67972
G1 X109.287 Y109.212 E43.19358
G1 X109.941 Y109.941 F7800.000
G1 X90.059 Y109.941 E43.74588 F3600.000
G1 X90.059 Y90.059 E44.29818
G1 X109.941 Y90.059 E44.85049
G1 X109.941 Y109.866 E45.40071
G1 X110.596 Y110.596 F7800.000
G1 X89.404 Y110.596 E45.98937 F3600.000
G1 X89.404 Y89.404 E46.57803
G1 X110.596 Y89.404 E47.16670
G1 X110.596 Y110.521 E47.75328
G1 X111.250 Y111.250 F7800.000
G1 X88.750 Y111.250 E48.37830 F3600.000
G1 X88.750 Y88.750 E49.00333
G1 X111.250 Y88.750 E49.62835
G1 X111.250 Y111.175 E50.25129
G1 X111.905 Y111.905 F7800.000
G1 X88.095 Y111.905 E50.91268 F3600.000
G1 X88.095 Y88.095 E51.57406
G1 X111.905 Y88.095 E52.23545
G1 X111.905 Y111.830 E52.89475
G1 X112.450 Y112.450 F7800.000
G1 X87.550 Y112.450 E53.35511 F1800.000
G1 X87.550 Y87.550 E53.81547
G1 X112.450 Y87.550 E54.27582
G1 X112.450 Y112.375 E54.73479
G1 X112.017 Y112.200 F7800.000
G1 X105.954 Y106.271 F7800.000
G1 X106.271 Y105.954 E54.74747 F1200.000
G1 X106.271 Y105.013 E54.77401
G1 X105.013 Y106.271 E54.82423
G1 X104.073 Y106.271 E54.85077
G1 X106.271 Y104.073 E54.93851
G1 X106.271 Y103.133 E54.96505
G1 X103.133 Y106.271 E55.09034
G1 X102.192 Y106.271 E55.11688
G1 X106.271 Y102.192 E55.27969
G1 X106.271 Y101.252 E55.30623
G1 X101.252 Y106.271 E55.50658
G1 X100.311 Y106.271 E55.53312
G1 X106.271 Y100.311 E55.77100
G1 X106.271 Y99.371 E55.79754
G1 X99.371 Y106.271 E56.07296
G1 X98.431 Y106.271 E56.09950
G1 X106.271 Y98.431 E56.41245
G1 X106.271 Y97.490 E56.43899
G1 X97.490 Y106.271 E56.78947
G1 X96.550 Y106.271 E56.81601
G1 X106.271 Y96.550 E57.20403
G1 X106.271 Y95.609 E57.23057
G1 X95.609 Y106.271 E57.65612
G1 X94.669 Y106.271 E57.68266
G1 X106.271 Y94.669 E58.14575
G1 X106.251 Y93.748 E58.17173
G1 X93.748 Y106.251 E58.67075
G1 X93.728 Y105.331 E58.69673
G1 X105.331 Y93.729 E59.15982
G1 X104.391 Y93.729 E59.18636
G1 X93.728 Y104.391 E59.61191
G1 X93.728 Y103.450 E59.63845
G1 X103.450 Y93.729 E60.02646
G1 X102.510 Y93.729 E60.05300
G1 X93.728 Y102.510 E60.40349
G1 X93.728 Y101.569 E60.43003
G1 X101.569 Y93.729 E60.74298
G1 X100.629 Y93.729 E60.76952
G1 X93.728 Y100.629 E61.04493
G1 X93.728 Y99.689 E61.07147
G1 X99.689 Y93.729 E61.30935
G1 X98.748 Y93.729 E61.33589
G1 X93.728 Y98.748 E61.53624
G1 X93.728 Y97.808 E61.56278
G1 X97.808 Y93.729 E61.72560
G1 X96.867 Y93.729 E61.75214
G1 X93.728 Y96.867 E61.87742
G1 X93.728 Y95.927 E61.90396
G1 X95.927 Y93.729 E61.99170
G1 X94.987 Y93.729 E62.01824
G1 X93.728 Y94.987 E62.06846
G1 X93.728 Y94.046 E62.09500
G1 X94.046 Y93.729 E62.10768
G1 Z0.950 F7800.000
G1 X106.669 Y106.669 F7800.000
G1 X93.331 Y106.669 E62.47817 F3600.000
G1 X93.331 Y93.331 E62.84867
G1 X106.669 Y93.331 E63.21917
G1 X106.669 Y106.594 E63.58758
G1 X107.323 Y107.323 F7800.000
G1 X92.677 Y107.323 E63.99444 F3600.000
G1 X92.677 Y92.677 E64.40130
G1 X107.323 Y92.677 E64.80816
G1 X107.323 Y107.248 E65.21293
G1 X107.978 Y107.978 F7800.000
G1 X92.022 Y107.978 E65.65615 F3600.000
G1 X92.022 Y92.022 E66.09937
G1 X107.978 Y92.022 E66.54259
G1 X107.978 Y107.903 E66.98373
G1 X108.632 Y108.632 F7800.000
G1 X91.368 Y108.632 E67.46331 F3600.000
G1 X91.368 Y91.368 E67.94289
G1 X108.632 Y91.368 E68.42247
G1 X108.632 Y108.557 E68.89997
G1 X109.287 Y109.287 F7800.000
G1 X90.713 Y109.287 E69.41591 F3600.000
G1 X90.713 Y90.713 E69.93185
G1 X109.287 Y90.713 E70.44779
G1 X109.287 Y109.212 E70.96165
G1 X109.941 Y109.941 F7800.000
G1 X90.059 Y109.941 E71.51395 F3600.000
G1 X90.059 Y90.059 E72.06626
G1 X109.941 Y90.059 E72.61856
G1 X109.941 Y109.866 E73.16878
G1 X110.596 Y110.596 F7800.000
G1 X89.404 Y110.596 E73.75744 F3600.000
G1 X89.404 Y89.404 E74.34610
G1 X110.596 Y89.404 E74.93477
G1 X110.596 Y110.521 E75.52135
G1 X111.250 Y111.250 F7800.000
G1 X88.750 Y111.250 E76.14637 F3600.000
G1 X88.750 Y88.750 E76.77140
G1 X111.250 Y88.750 E77.39642
G1 X111.250 Y111.175 E78.01936
G1 X111.905 Y111.905 F7800.000
G1 X88.095 Y111.905 E78.68075 F3600.000
G1 X88.095 Y88.095 E79.34213
G1 X111.905 Y88.095 E80.00352
G1 X111.905 Y111.830 E80.66282
G1 X112.450 Y112.450 F7800.000
G1 X87.550 Y112.450 E81.12318 F1800.000
G1 X87.550 Y87.550 E81.58354
G1 X112.450 Y87.550 E82.04389
G1 X112.450 Y112.375 E82.50287
G1 X112.017 Y112.200 F7800.000
G1 X106.271 Y94.046 F7800.000
G1 X105.954 Y93.728 E82.51555 F1200.000
G1 X105.013 Y93.728 E82.54209
G1 X106.271 Y94.987 E82.59230
G1 X106.271 Y95.927 E82.61884
G1 X104.073 Y93.728 E82.70659
G1 X103.133 Y93.728 E82.73313
G1 X106.271 Y96.867 E82.85841
G1 X106.271 Y97.808 E82.88495
G1 X102.192 Y93.728 E83.04776
G1 X101.252 Y93.728 E83.07430
G1 X106.271 Y98.748 E83.27465
G1 X106.271 Y99.689 E83.30119
G1 X100.311 Y93.728 E83.53907
G1 X99.371 Y93.729 E83.56561
G1 X106.271 Y100.629 E83.84103
G1 X106.271 Y101.569 E83.86757
G1 X98.431 Y93.729 E84.18052
G1 X97.490 Y93.729 E84.20706
G1 X106.271 Y102.510 E84.55754
G1 X106.271 Y103.450 E84.58408
G1 X96.550 Y93.729 E84.97210
G1 X95.609 Y93.729 E84.99864
G1 X106.271 Y104.391 E85.42419
G1 X106.271 Y105.331 E85.45073
G1 X94.669 Y93.729 E85.91382
G1 X93.748 Y93.749 E85.93980
G1 X106.251 Y106.251 E86.43882
G1 X105.331 Y106.271 E86.46480
G1 X93.729 Y94.669 E86.92789
G1 X93.729 Y95.609 E86.95443
G1 X104.391 Y106.271 E87.37998
G1 X103.450 Y106.271 E87.40652
G1 X93.729 Y96.550 E87.79454
G1 X93.729 Y97.490 E87.82108
G1 X102.510 Y106.271 E88.17156
G1 X101.569 Y106.271 E88.19810
G1 X93.729 Y98.431 E88.51105
G1 X93.729 Y99.371 E88.53759
G1 X100.629 Y106.271 E88.81300
G1 X99.689 Y106.271 E88.83954
G1 X93.729 Y100.311 E89.07743
G1 X93.729 Y101.252 E89.10397
G1 X98.748 Y106.271 E89.30431
G1 X97.808 Y106.271 E89.33085
G1 X93.729 Y102.192 E89.49367
G1 X93.729 Y103.133 E89.52021
G1 X96.867 Y106.271 E89.64549
G1 X95.927 Y106.271 E89.67203
G1 X93.729 Y104.073 E89.75978
G1 X93.729 Y105.013 E89.78632
G1 X94.987 Y106.271 E89.83653
G1 X94.046 Y106.271 E89.86307
G1 X93.729 Y105.954 E89.87575
M106 S219.3
G1 Z1.250 F7800.000
G1 X106.669 Y106.669 F7800.000
G1 X93.331 Y106.669 E90.24624 F3600.000
G1 X93.331 Y93.331 E90.61674
G1 X106.669 Y93.331 E90.98724
G1 X106.669 Y106.594 E91.35565
G1 X107.323 Y107.323 F7800.000
G1 X92.677 Y107.323 E91.76251 F3600.000
G1 X92.677 Y92.677 E92.16937
G1 X107.323 Y92.677 E92.57623
G1 X107.323 Y107.248 E92.98101
G1 X107.978 Y107.978 F7800.000
G1 X92.022 Y107.978 E93.42423 F3600.000
G1 X92.022 Y92.022 E93.86744
G1 X107.978 Y92.022 E94.31066
G1 X107.978 Y107.903 E94.75180
G1 X108.632 Y108.632 F7800.000
G1 X91.368 Y108.632 E95.23138 F3600.000
G1 X91.368 Y91.368 E95.71096
G1 X108.632 Y91.368 E96.19054
G1 X108.632 Y108.557 E96.66804
G1 X109.287 Y109.287 F7800.000
G1 X90.713 Y109.287 E97.18398 F3600.000
G1 X90.713 Y90.713 E97.69992
G1 X109.287 Y90.713 E98.21586
G1 X109.287 Y109.212 E98.72972
G1 X109.941 Y109.941 F7800.000
G1 X90.059 Y109.941 E99.28203 F3600.000
G1 X90.059 Y90.059 E99.83433
G1 X109.941 Y90.059 E100.38663
G1 X109.941 Y109.866 E100.93685
G1 X110.596 Y110.596 F7800.000
G1 X89.404 Y110.596 E101.52551 F3600.000
G1 X89.404 Y89.404 E102.11418
G1 X110.596 Y89.404 E102.70284
G1 X110.596 Y110.521 E103.28942
G1 X111.250 Y111.250 F7800.000
G1 X88.750 Y111.250 E103.91444 F3600.000
G1 X88.750 Y88.750 E104.53947
G1 X111.250 Y88.750 E105.16449
G1 X111.250 Y111.175 E105.78743
G1 X111.905 Y111.905 F7800.000
G1 X88.095 Y111.905 E106.44882 F3600.000
G1 X88.095 Y88.095 E107.11021
G1 X111.905 Y88.095 E107.77159
G1 X111.905 Y111.830 E108.43089
G1 X112.450 Y112.450 F7800.000
G1 X87.550 Y112.450 E108.89125 F1800.000
G1 X87.550 Y87.550 E109.35161
G1 X112.450 Y87.550 E109.81197
G1 X112.450 Y112.375 E110.27094
G1 X112.017 Y112.200 F7800.000
G1 X105.584 Y106.271 F7800.000
G1 X106.271 Y105.584 E110.29795 F4800.000
G1 X106.271 Y103.733 E110.34937
G1 X103.733 Y106.271 E110.44910
G1 X101.882 Y106.271 E110.50052
G1 X106.271 Y101.882 E110.67298
G1 X106.271 Y100.030 E110.72440
G1 X100.030 Y106.271 E110.96957
G1 X98.179 Y106.271 E111.02100
G1 X106.271 Y98.179 E111.33889
G1 X106.271 Y96.328 E111.39032
G1 X96.328 Y106.271 E111.78094
G1 X94.477 Y106.271 E111.83236
G1 X106.271 Y94.477 E112.29570
G1 X105.168 Y93.729 E112.33272
G1 X93.729 Y105.168 E112.78213
G1 X93.729 Y103.317 E112.83355
G1 X103.317 Y93.729 E113.21023
G1 X101.466 Y93.729 E113.26166
G1 X93.729 Y101.466 E113.56562
G1 X93.729 Y99.615 E113.61704
G1 X99.615 Y93.729 E113.84828
G1 X97.764 Y93.729 E113.89970
G1 X93.729 Y97.764 E114.05822
G1 X93.729 Y95.912 E114.10964
G1 X95.912 Y93.729 E114.19543
G1 X94.061 Y93.729 E114.24686
G1 X93.729 Y94.061 E114.25993
G1 Z1.550 F7800.000
G1 X106.669 Y106.669 F7800.000
G1 X93.331 Y106.669 E114.63043 F3600.000
G1 X93.331 Y93.331 E115.00092
G1 X106.669 Y93.331 E115.37142
G1 X106.669 Y106.594 E115.73984
G1 X107.323 Y107.323 F7800.000
G1 X92.677 Y107.323 E116.14669 F3600.000
G1 X92.677 Y92.677 E116.55355
G1 X107.323 Y92.677 E116.96041
G1 X107.323 Y107.248 E117.36519
G1 X107.978 Y107.978 F7800.000
G1 X92.022 Y107.978 E117.80841 F3600.000
G1 X92.022 Y92.022 E118.25163
G1 X107.978 Y92.022 E118.69485
G1 X107.978 Y107.903 E119.13598
G1 X108.632 Y108.632 F7800.000
G1 X91.368 Y108.632 E119.61556 F3600.000
G1 X91.368 Y91.368 E120.09514
G1 X108.632 Y91.368 E120.57472
G1 X108.632 Y108.557 E121.05222
G1 X109.287 Y109.287 F7800.000
G1 X90.713 Y109.287 E121.56816 F3600.000
G1 X90.713 Y90.713 E122.08410
G1 X109.287 Y90.713 E122.60005
G1 X109.287 Y109.212 E123.11390
G1 X109.941 Y109.941 F7800.000
G1 X90.059 Y109.941 E123.66621 F3600.000
G1 X90.059 Y90.059 E124.21851
G1 X109.941 Y90.059 E124.77081
G1 X109.941 Y109.866 E125.32103
G1 X110.596 Y110.596 F7800.000
G1 X89.404 Y110.596 E125.90969 F3600.000
G1 X89.404 Y89.404 E126.49836
G1 X110.596 Y89.404 E127.08702
G1 X110.596 Y110.521 E127.67360
G1 X111.250 Y111.250 F7800.000
G1 X88.750 Y111.250 E128.29863 F3600.000
G1 X88.750 Y88.750 E128.92365
G1 X111.250 Y88.750 E129.54867
G1 X111.250 Y111.175 E130.17162
G1 X111.905 Y111.905 F7800.000
G1 X88.095 Y111.905 E130.83300 F3600.000
G1 X88.095 Y88.095 E131.49439
G1 X111.905 Y88.095 E132.15577
G1 X111.905 Y111.830 E132.81507
G1 X112.450 Y112.450 F7800.000
G1 X87.550 Y112.450 E133.27543 F1800.000
