; generated by Slic3r 1.2.9 on 2017-03-14 at 13:15:19

; external perimeters extrusion width = 0.50mm
; perimeters extrusion width = 0.72mm
; infill extrusion width = 0.72mm
; solid infill extrusion width = 0.72mm
; top infill extrusion width = 0.72mm

M107
M104 S200 ; set temperature
G28 ; home all axes
G1 Z5 F5000 ; lift nozzle

M109 S200 ; wait for temperature to be reached
G21 ; set units to millimeters
G90 ; use absolute coordinates
M82 ; use absolute distances for extrusion
G92 E0
G1 Z0.350 F7800.000
G1 E-2.00000 F2400.00000
G92 E0
G1 X86.662 Y86.026 F7800.000
G1 E2.00000 F2400.00000
G1 X87.219 Y85.515 E2.02340 F1800.000
G1 X88.341 Y84.597 E2.06827
G1 X88.953 Y84.152 E2.09167
G1 X90.173 Y83.368 E2.13654
G1 X90.832 Y82.996 E2.15994
G1 X92.133 Y82.357 E2.20481
G1 X92.830 Y82.062 E2.22822
G1 X94.196 Y81.575 E2.27309
G1 X94.921 Y81.362 E2.29649
G1 X96.334 Y81.033 E2.34135
G1 X97.079 Y80.904 E2.36476
G1 X98.520 Y80.739 E2.40964
G1 X99.085 Y80.699 E2.42717
G1 X100.193 Y80.678 E2.46146
G1 X100.914 Y80.699 E2.48377 F1800.000
G1 X101.480 Y80.739 E2.50133
G1 X102.921 Y80.904 E2.54620
G1 X103.666 Y81.033 E2.56960
G1 X105.079 Y81.362 E2.61447
G1 X105.804 Y81.575 E2.63787
G1 X107.171 Y82.062 E2.68276
G1 X107.867 Y82.357 E2.70614
G1 X109.168 Y82.996 E2.75101
G1 X109.827 Y83.368 E2.77441
G1 X111.047 Y84.152 E2.81928
G1 X111.659 Y84.597 E2.84268
G1 X112.781 Y85.515 E2.88755
G1 X113.338 Y86.026 E2.91095
G1 X114.342 Y87.059 E2.95551
G1 X114.844 Y87.638 E2.97923
G1 X115.730 Y88.786 E3.02410
G1 X116.157 Y89.410 E3.04750
G1 X116.906 Y90.652 E3.09236
G1 X117.259 Y91.321 E3.11577
G1 X117.861 Y92.640 E3.16064
G1 X118.135 Y93.345 E3.18404
G1 X118.583 Y94.724 E3.22891
G1 X118.776 Y95.456 E3.25231
G1 X119.064 Y96.878 E3.29720
G1 X119.171 Y97.626 E3.32058
G1 X119.295 Y99.060 E3.36514
G1 X119.317 Y99.827 E3.38885
G1 X119.276 Y101.276 E3.43373
G1 X119.211 Y102.030 E3.45712
G1 X119.005 Y103.465 E3.50199
G1 X118.854 Y104.206 E3.52540
G1 X118.486 Y105.609 E3.57026
G1 X118.252 Y106.328 E3.59367
G1 X117.726 Y107.679 E3.63853
G1 X117.412 Y108.367 E3.66194
G1 X116.735 Y109.650 E3.70680
G1 X116.344 Y110.298 E3.73021
G1 X115.525 Y111.495 E3.77509
G1 X115.064 Y112.094 E3.79848
G1 X114.114 Y113.189 E3.84335
G1 X113.587 Y113.732 E3.86675
G1 X112.519 Y114.712 E3.91162
G1 X111.933 Y115.191 E3.93502
G1 X110.760 Y116.044 E3.97989
G1 X110.124 Y116.453 E4.00329
G1 X108.861 Y117.166 E4.04816
G1 X108.182 Y117.499 E4.07156
G1 X106.847 Y118.064 E4.11643
G1 X106.134 Y118.318 E4.13983
G1 X104.742 Y118.727 E4.18473
G1 X104.006 Y118.898 E4.20811
G1 X102.577 Y119.145 E4.25297
G1 X101.826 Y119.231 E4.27638
G1 X100.378 Y119.314 E4.32125
G1 X99.622 Y119.314 E4.34465
G1 X98.174 Y119.231 E4.38951
G1 X97.423 Y119.145 E4.41292
G1 X95.994 Y118.898 E4.45779
G1 X95.257 Y118.726 E4.48119
G1 X93.866 Y118.318 E4.52606
G1 X93.153 Y118.064 E4.54946
G1 X91.817 Y117.499 E4.59434
G1 X91.139 Y117.166 E4.61773
G1 X89.876 Y116.453 E4.66260
G1 X89.240 Y116.044 E4.68600
G1 X88.067 Y115.191 E4.73087
G1 X87.481 Y114.712 E4.75427
G1 X86.412 Y113.732 E4.79916
G1 X85.886 Y113.189 E4.82255
G1 X84.936 Y112.094 E4.86742
G1 X84.474 Y111.495 E4.89082
G1 X83.656 Y110.298 E4.93568
G1 X83.265 Y109.650 E4.95909
G1 X82.588 Y108.367 E5.00397
G1 X82.274 Y107.679 E5.02736
G1 X81.748 Y106.328 E5.07222
G1 X81.514 Y105.609 E5.09563
G1 X81.146 Y104.206 E5.14051
G1 X80.995 Y103.465 E5.16390
G1 X80.789 Y102.030 E5.20877
G1 X80.724 Y101.276 E5.23217
G1 X80.683 Y99.826 E5.27704
G1 X80.705 Y99.070 E5.30044
G1 X80.829 Y97.625 E5.34533
G1 X80.936 Y96.877 E5.36871
G1 X81.222 Y95.466 E5.41327
G1 X81.417 Y94.724 E5.43698
G1 X81.865 Y93.345 E5.48186
G1 X82.139 Y92.640 E5.50526
G1 X82.742 Y91.321 E5.55014
G1 X83.094 Y90.652 E5.57353
G1 X83.843 Y89.410 E5.61839
G1 X84.270 Y88.786 E5.64180
G1 X85.156 Y87.638 E5.68666
G1 X85.651 Y87.066 E5.71007
G1 X86.609 Y86.080 E5.75262
G1 E3.75262 F2400.00000
G92 E0
G1 X100.777 Y100.755 F7800.000
G1 E2.00000 F2400.00000
G1 X100.586 Y100.911 E2.00764 F1800.000
G1 X100.478 Y100.972 E2.01147
G1 X100.245 Y101.055 E2.01911
G1 X100.000 Y101.083 E2.02675
G1 X99.755 Y101.055 E2.03439
G1 X99.522 Y100.972 E2.04203
G1 X99.314 Y100.838 E2.04967
G1 X99.142 Y100.661 E2.05731
G1 X99.073 Y100.559 E2.06113
G1 X98.970 Y100.335 E2.06877
G1 X98.922 Y100.098 E2.07624
G1 X98.928 Y99.846 E2.08405
G1 X98.991 Y99.607 E2.09169
G1 X99.109 Y99.385 E2.09947
G1 X99.181 Y99.291 E2.10315
G1 X99.363 Y99.124 E2.11079
G1 X99.578 Y99.002 E2.11843
G1 X99.815 Y98.933 E2.12607
G1 X100.000 Y98.912 E2.13183
G1 X100.185 Y98.933 E2.13758
G1 X100.422 Y99.002 E2.14522 F1800.000
G1 X100.637 Y99.124 E2.15286
G1 X100.819 Y99.291 E2.16050
G1 X100.958 Y99.495 E2.16814
G1 X101.009 Y99.607 E2.17196
G1 X101.072 Y99.846 E2.17960
G1 X101.083 Y99.969 E2.18343
G1 X101.062 Y100.210 E2.19090
G1 X100.985 Y100.450 E2.19871
G1 X100.826 Y100.698 E2.20783
G1 X101.249 Y101.164 F7800.000
G1 X101.082 Y101.323 E2.21497 F1800.000
G1 X100.924 Y101.438 E2.22101
G1 X100.574 Y101.610 E2.23306
G1 X100.195 Y101.698 E2.24512
G1 X100.000 Y101.709 E2.25116
G1 X99.613 Y101.665 E2.26321
G1 X99.246 Y101.534 E2.27527
G1 X98.918 Y101.323 E2.28732
G1 X98.647 Y101.044 E2.29938
G1 X98.445 Y100.710 E2.31143
G1 X98.375 Y100.528 E2.31747
G1 X98.298 Y100.152 E2.32935
G1 X98.308 Y99.757 E2.34158
G1 X98.407 Y99.380 E2.35363
G1 X98.592 Y99.032 E2.36582
G1 X98.708 Y98.881 E2.37172
G1 X98.995 Y98.617 E2.38378
G1 X99.335 Y98.426 E2.39583
G1 X99.709 Y98.316 E2.40789
G1 X100.000 Y98.283 E2.41696
G1 X100.291 Y98.316 E2.42604
G1 X100.665 Y98.426 E2.43810 F1800.000
G1 X101.004 Y98.617 E2.45015
G1 X101.292 Y98.881 E2.46221
G1 X101.511 Y99.202 E2.47426
G1 X101.593 Y99.380 E2.48030
G1 X101.692 Y99.757 E2.49235
G1 X101.708 Y99.951 E2.49839
G1 X101.676 Y100.334 E2.51027
G1 X101.555 Y100.710 E2.52250
G1 X101.463 Y100.883 E2.52854
G1 X101.298 Y101.107 E2.53717
G1 X101.721 Y101.573 F7800.000
G1 X101.478 Y101.808 E2.54762 F1800.000
G1 X101.262 Y101.964 E2.55587
G1 X101.030 Y102.095 E2.56412
G1 X100.785 Y102.199 E2.57237
G1 X100.529 Y102.274 E2.58062
G1 X100.266 Y102.320 E2.58887
G1 X100.000 Y102.335 E2.59711
G1 X99.734 Y102.320 E2.60536
G1 X99.471 Y102.274 E2.61361
G1 X99.215 Y102.199 E2.62186
G1 X98.970 Y102.095 E2.63011
G1 X98.738 Y101.964 E2.63836
G1 X98.522 Y101.808 E2.64661
G1 X98.326 Y101.627 E2.65485
G1 X98.151 Y101.426 E2.66310
G1 X98.001 Y101.206 E2.67135
G1 X97.876 Y100.970 E2.67960
G1 X97.779 Y100.722 E2.68785
G1 X97.712 Y100.464 E2.69610
G1 X97.675 Y100.206 E2.70416
G1 X97.666 Y99.929 E2.71272
G1 X97.689 Y99.668 E2.72084
G1 X97.742 Y99.406 E2.72909
G1 X97.824 Y99.153 E2.73734
G1 X97.932 Y98.916 E2.74540
G1 X98.075 Y98.679 E2.75396
G1 X98.235 Y98.471 E2.76208
G1 X98.421 Y98.280 E2.77033
G1 X98.628 Y98.111 E2.77858
G1 X98.852 Y97.967 E2.78683
G1 X99.091 Y97.849 E2.79508
G1 X99.342 Y97.760 E2.80333
G1 X99.602 Y97.699 E2.81158
G1 X100.000 Y97.654 E2.82397
G1 X100.398 Y97.699 E2.83637
G1 X100.658 Y97.760 E2.84462 F1800.000
G1 X100.909 Y97.849 E2.85287
G1 X101.148 Y97.967 E2.86112
G1 X101.372 Y98.111 E2.86937
G1 X101.579 Y98.280 E2.87762
G1 X101.765 Y98.471 E2.88587
G1 X101.927 Y98.682 E2.89411
G1 X102.065 Y98.910 E2.90236
G1 X102.176 Y99.153 E2.91061
G1 X102.258 Y99.406 E2.91886
G1 X102.311 Y99.668 E2.92711
G1 X102.334 Y99.933 E2.93536
G1 X102.326 Y100.200 E2.94361
G1 X102.289 Y100.458 E2.95167
G1 X102.219 Y100.725 E2.96023
G1 X102.124 Y100.970 E2.96835
G1 X101.999 Y101.206 E2.97660
G1 X101.770 Y101.517 E2.98855
G1 X102.193 Y101.982 F7800.000
G1 X101.874 Y102.292 E3.00231 F1800.000
G1 X101.601 Y102.491 E3.01277
G1 X101.306 Y102.657 E3.02323
G1 X100.995 Y102.789 E3.03369
G1 X100.671 Y102.884 E3.04415
G1 X100.337 Y102.941 E3.05461
G1 X100.000 Y102.961 E3.06507
G1 X99.662 Y102.941 E3.07553
G1 X99.329 Y102.884 E3.08599
G1 X99.005 Y102.789 E3.09645
G1 X98.694 Y102.657 E3.10691
G1 X98.399 Y102.491 E3.11737
G1 X98.126 Y102.292 E3.12783
G1 X97.877 Y102.063 E3.13829
G1 X97.655 Y101.808 E3.14875
G1 X97.465 Y101.529 E3.15921
G1 X97.307 Y101.230 E3.16967
G1 X97.184 Y100.915 E3.18013
G1 X97.098 Y100.588 E3.19059
G1 X97.051 Y100.259 E3.20086
G1 X97.041 Y99.912 E3.21162
G1 X97.069 Y99.579 E3.22196
G1 X97.136 Y99.247 E3.23242
G1 X97.241 Y98.926 E3.24288
G1 X97.379 Y98.624 E3.25315
G1 X97.558 Y98.326 E3.26392
G1 X97.762 Y98.061 E3.27426
G1 X97.998 Y97.819 E3.28472
G1 X98.260 Y97.605 E3.29518
G1 X98.544 Y97.422 E3.30564
G1 X98.847 Y97.273 E3.31610
G1 X99.166 Y97.159 E3.32656
G1 X99.495 Y97.083 E3.33702
G1 X100.031 Y97.028 E3.35368
G1 X100.505 Y97.083 E3.36844 F1800.000
G1 X100.834 Y97.159 E3.37891
G1 X101.153 Y97.273 E3.38936
G1 X101.456 Y97.422 E3.39982
G1 X101.740 Y97.605 E3.41028
G1 X102.002 Y97.819 E3.42075
G1 X102.238 Y98.061 E3.43120
G1 X102.444 Y98.329 E3.44166
G1 X102.619 Y98.618 E3.45212
G1 X102.759 Y98.926 E3.46258
G1 X102.864 Y99.247 E3.47304
G1 X102.931 Y99.579 E3.48350
G1 X102.960 Y99.915 E3.49396
G1 X102.950 Y100.253 E3.50442
G1 X102.903 Y100.582 E3.51469
G1 X102.814 Y100.918 E3.52546
G1 X102.693 Y101.230 E3.53580
G1 X102.535 Y101.529 E3.54626
G1 X102.243 Y101.926 E3.56152
G1 X102.666 Y102.392 F7800.000
G1 X102.270 Y102.777 E3.57859 F1800.000
G1 X101.939 Y103.017 E3.59126
G1 X101.583 Y103.219 E3.60394
G1 X101.205 Y103.378 E3.61661
G1 X100.812 Y103.493 E3.62928
G1 X100.409 Y103.563 E3.64195
G1 X100.000 Y103.587 E3.65462
G1 X99.591 Y103.563 E3.66729
G1 X99.188 Y103.493 E3.67996
G1 X98.795 Y103.378 E3.69263
G1 X98.417 Y103.219 E3.70530
G1 X98.061 Y103.017 E3.71798
G1 X97.730 Y102.777 E3.73065
G1 X97.428 Y102.500 E3.74332
G1 X97.160 Y102.190 E3.75599
G1 X96.929 Y101.852 E3.76866
G1 X96.737 Y101.490 E3.78133
G1 X96.589 Y101.108 E3.79400
G1 X96.485 Y100.712 E3.80667
G1 X96.427 Y100.313 E3.81915
G1 X96.415 Y99.894 E3.83212
G1 X96.450 Y99.490 E3.84469
G1 X96.531 Y99.088 E3.85736
G1 X96.658 Y98.699 E3.87003
G1 X96.825 Y98.332 E3.88250
G1 X97.041 Y97.973 E3.89548
G1 X97.289 Y97.651 E3.90804
G1 X97.575 Y97.358 E3.92071
G1 X97.892 Y97.098 E3.93338
G1 X98.236 Y96.877 E3.94605
G1 X98.604 Y96.696 E3.95872
G1 X98.990 Y96.559 E3.97139
G1 X99.388 Y96.466 E3.98406
G1 X99.923 Y96.405 E4.00071
G1 X100.075 Y96.404 E4.00543
G1 X100.612 Y96.466 E4.02213 F1800.000
G1 X101.010 Y96.559 E4.03480
G1 X101.396 Y96.696 E4.04747
G1 X101.764 Y96.877 E4.06014
G1 X102.108 Y97.098 E4.07281
G1 X102.425 Y97.358 E4.08549
G1 X102.711 Y97.651 E4.09816
G1 X102.961 Y97.975 E4.11083
G1 X103.172 Y98.326 E4.12350
G1 X103.342 Y98.699 E4.13617
G1 X103.469 Y99.088 E4.14884
G1 X103.550 Y99.490 E4.16151
G1 X103.585 Y99.898 E4.17418
G1 X103.574 Y100.307 E4.18685
G1 X103.516 Y100.706 E4.19933
G1 X103.410 Y101.112 E4.21230
G1 X103.263 Y101.490 E4.22487
G1 X103.071 Y101.852 E4.23754
G1 X102.840 Y102.190 E4.25021
G1 X102.715 Y102.335 E4.25614
G1 X103.138 Y102.801 F7800.000
G1 X103.021 Y102.936 E4.26166 F1800.000
G1 X102.667 Y103.261 E4.27655
G1 X102.278 Y103.544 E4.29143
G1 X101.859 Y103.780 E4.30631
G1 X101.416 Y103.968 E4.32119
G1 X100.954 Y104.103 E4.33607
G1 X100.480 Y104.185 E4.35096
G1 X100.000 Y104.213 E4.36584
G1 X99.520 Y104.185 E4.38072
G1 X99.046 Y104.103 E4.39560
G1 X98.584 Y103.968 E4.41049
G1 X98.141 Y103.780 E4.42537
G1 X97.722 Y103.544 E4.44025
G1 X97.333 Y103.261 E4.45513
G1 X96.979 Y102.936 E4.47002
G1 X96.664 Y102.572 E4.48490
G1 X96.393 Y102.175 E4.49978
G1 X96.168 Y101.750 E4.51466
G1 X95.994 Y101.302 E4.52954
G1 X95.871 Y100.837 E4.54443
G1 X95.804 Y100.367 E4.55910
G1 X95.789 Y99.876 E4.57429
G1 X95.830 Y99.400 E4.58907
G1 X95.926 Y98.929 E4.60395
G1 X96.074 Y98.472 E4.61884
G1 X96.271 Y98.040 E4.63351
G1 X96.525 Y97.620 E4.64870
G1 X96.816 Y97.241 E4.66348
G1 X97.152 Y96.896 E4.67836
G1 X97.524 Y96.592 E4.69325
G1 X97.929 Y96.332 E4.70813
G1 X98.360 Y96.120 E4.72301
G1 X98.813 Y95.958 E4.73789
G1 X99.282 Y95.849 E4.75278
G1 X99.878 Y95.781 E4.77136
G1 X100.120 Y95.780 E4.77884
G1 X100.718 Y95.849 E4.79747 F1800.000
G1 X101.187 Y95.958 E4.81235
G1 X101.640 Y96.120 E4.82724
G1 X102.071 Y96.332 E4.84212
G1 X102.476 Y96.592 E4.85700
G1 X102.848 Y96.896 E4.87188
G1 X103.184 Y97.241 E4.88676
G1 X103.477 Y97.622 E4.90165
G1 X103.726 Y98.034 E4.91653
G1 X103.926 Y98.472 E4.93141
G1 X104.074 Y98.929 E4.94629
G1 X104.170 Y99.400 E4.96118
G1 X104.211 Y99.880 E4.97606
G1 X104.197 Y100.361 E4.99094
G1 X104.130 Y100.830 E5.00562
G1 X104.005 Y101.305 E5.02081
G1 X103.832 Y101.750 E5.03559
G1 X103.607 Y102.175 E5.05047
G1 X103.336 Y102.572 E5.06535
G1 X103.187 Y102.744 E5.07238
G1 X103.610 Y103.210 F7800.000
G1 X103.470 Y103.372 E5.07902 F1800.000
G1 X103.063 Y103.746 E5.09611
G1 X102.616 Y104.070 E5.11320
G1 X102.135 Y104.342 E5.13030
G1 X101.626 Y104.557 E5.14739
G1 X101.096 Y104.713 E5.16448
G1 X100.552 Y104.807 E5.18158
G1 X100.000 Y104.839 E5.19867
G1 X99.448 Y104.807 E5.21577
G1 X98.904 Y104.713 E5.23286
G1 X98.374 Y104.557 E5.24995
G1 X97.865 Y104.342 E5.26705
G1 X97.384 Y104.070 E5.28414
G1 X96.937 Y103.746 E5.30123
G1 X96.530 Y103.372 E5.31833
G1 X96.168 Y102.955 E5.33542
G1 X95.857 Y102.499 E5.35251
G1 X95.599 Y102.010 E5.36961
G1 X95.398 Y101.495 E5.38670
G1 X95.258 Y100.961 E5.40379
G1 X95.180 Y100.421 E5.42067
G1 X95.164 Y99.859 E5.43807
G1 X95.211 Y99.311 E5.45507
G1 X95.320 Y98.770 E5.47217
G1 X95.491 Y98.245 E5.48926
G1 X95.718 Y97.748 E5.50614
G1 X96.008 Y97.266 E5.52354
G1 X96.343 Y96.831 E5.54054
G1 X96.728 Y96.435 E5.55763
G1 X97.156 Y96.086 E5.57473
G1 X97.621 Y95.787 E5.59182
G1 X98.117 Y95.543 E5.60891
G1 X98.637 Y95.357 E5.62601
G1 X99.175 Y95.232 E5.64310
G1 X99.834 Y95.157 E5.66362
G1 X100.165 Y95.157 E5.67386
G1 X100.825 Y95.232 E5.69443 F1800.000
G1 X101.363 Y95.357 E5.71152
G1 X101.883 Y95.543 E5.72861
G1 X102.379 Y95.787 E5.74571
G1 X102.844 Y96.086 E5.76280
G1 X103.272 Y96.435 E5.77989
G1 X103.657 Y96.831 E5.79699
G1 X103.994 Y97.269 E5.81408
G1 X104.279 Y97.742 E5.83117
G1 X104.509 Y98.245 E5.84827
G1 X104.680 Y98.770 E5.86536
G1 X104.789 Y99.311 E5.88245
G1 X104.837 Y99.862 E5.89955
G1 X104.821 Y100.414 E5.91664
G1 X104.743 Y100.954 E5.93352
G1 X104.601 Y101.498 E5.95092
G1 X104.401 Y102.010 E5.96792
G1 X104.143 Y102.499 E5.98501
G1 X103.832 Y102.955 E6.00211
G1 X103.659 Y103.153 E6.01025
G1 X104.082 Y103.619 F7800.000
G1 X103.919 Y103.808 E6.01799 F1800.000
G1 X103.459 Y104.230 E6.03729
G1 X102.954 Y104.597 E6.05659
G1 X102.411 Y104.904 E6.07590
G1 X101.836 Y105.147 E6.09520
G1 X101.238 Y105.322 E6.11451
G1 X100.623 Y105.429 E6.13381
G1 X100.000 Y105.464 E6.15312
G1 X99.377 Y105.429 E6.17242
G1 X98.762 Y105.322 E6.19173
G1 X98.164 Y105.147 E6.21103
G1 X97.589 Y104.904 E6.23034
G1 X97.046 Y104.597 E6.24964
G1 X96.541 Y104.230 E6.26895
G1 X96.081 Y103.808 E6.28825
G1 X95.673 Y103.337 E6.30756
G1 X95.321 Y102.822 E6.32686
G1 X95.029 Y102.270 E6.34617
G1 X94.803 Y101.689 E6.36547
G1 X94.644 Y101.085 E6.38477
G1 X94.557 Y100.475 E6.40386
G1 X94.538 Y99.841 E6.42347
G1 X94.591 Y99.222 E6.44269
G1 X94.715 Y98.611 E6.46199
G1 X94.908 Y98.017 E6.48130
G1 X95.164 Y97.456 E6.50038
G1 X95.491 Y96.913 E6.51999
G1 X95.870 Y96.422 E6.53921
G1 X96.305 Y95.974 E6.55851
G1 X96.788 Y95.579 E6.57782
G1 X97.313 Y95.242 E6.59712
G1 X97.873 Y94.967 E6.61643
G1 X98.460 Y94.757 E6.63573
G1 X99.068 Y94.616 E6.65504
G1 X99.789 Y94.533 E6.67750
G1 X100.209 Y94.533 E6.69049
G1 X100.932 Y94.616 E6.71299 F1800.000
G1 X101.540 Y94.757 E6.73230
G1 X102.127 Y94.967 E6.75160
G1 X102.687 Y95.242 E6.77091
G1 X103.212 Y95.579 E6.79021
G1 X103.695 Y95.974 E6.80952
G1 X104.130 Y96.422 E6.82882
G1 X104.511 Y96.916 E6.84813
G1 X104.833 Y97.450 E6.86743
G1 X105.092 Y98.017 E6.88674
G1 X105.285 Y98.611 E6.90604
G1 X105.409 Y99.222 E6.92534
G1 X105.462 Y99.844 E6.94465
G1 X105.444 Y100.468 E6.96396
