;FLAVOR:Repetier
;TIME:30992
;Generated with Cura_SteamEngine 2.5.0
M104 S200
M109 S200
G28 ;Home
G1 Z15.0 F6000 ;Move the platform down 15mm
;Prime the extruder
G92 E0
G1 F200 E3
G92 E0
;LAYER_COUNT:62
;LAYER:0
M107
G0 F3600 X98.283 Y97.937 Z0.6
;TYPE:WALL-INNER
G1 F360 X98.837 Y97.47 E0.92255
G1 X99.288 Y97.09 E1.67344
G1 X99.741 Y96.788 E2.36664
G1 X100.445 Y96.317 E3.44511
G1 X100.753 Y96.155 E3.88821
G1 X101.777 Y95.616 E5.36159
G1 X102.008 Y95.528 E5.67633
G1 X103.05 Y95.127 E7.0979
G1 X103.47 Y95.045 E7.64275
G1 X104.144 Y94.912 E8.51747
G1 X104.864 Y94.897 E9.4344
G1 X105.214 Y94.889 E9.88015
G1 X106.033 Y94.976 E10.9288
G1 X106.366 Y95.012 E11.35526
G1 X107.096 Y95.191 E12.31226
G1 X107.487 Y95.288 E12.82518
G1 X107.676 Y95.367 E13.086
G1 X107.479 Y95.332
G1 X107.08 Y95.26
G1 X106.356 Y95.225 E13.29343
G1 X106.009 Y95.208
G1 X105.211 Y95.199 E13.66535
G1 X104.871 Y95.194 E13.72064
G1 X104.188 Y95.275 E14.1946
G1 X103.531 Y95.353 E14.66362
G1 X103.165 Y95.473 E14.85844
G1 X102.12 Y95.816 E15.63906
G1 X101.911 Y95.91 E15.72397
G1 X100.873 Y96.379 E16.41568
G1 X100.568 Y96.543 E16.50774
G1 X99.839 Y96.934 E16.87958
G1 X99.401 Y97.247 E16.96122
G1 X98.932 Y97.582 E17.16259
G1 X98.451 Y98.095 E17.43483
G1 X98.182 Y98.382 E17.93567
G1 X97.816 Y98.977 E18.8251
G1 X97.607 Y99.317 E19.33325
G1 X97.339 Y99.925 E20.17925
G1 X97.13 Y100.397 E20.8365
G1 X97.036 Y100.672 E21.20653
G1 X96.718 Y101.597 E22.45193
G1 X96.319 Y102.986 E24.29198
G1 X96.09 Y104.694 E26.48613
G1 X96.205 Y106.68 E29.01902
G1 X96.643 Y108.782 E31.75285
G1 X97.391 Y110.903 E34.61641
G1 X98.392 Y112.974 E37.54515
G1 X99.497 Y114.76 E40.2192
G1 X100.892 Y116.566 E43.12477
G1 X102.657 Y118.546 E46.50201
G1 X104.677 Y120.509 E50.08834
G1 X106.845 Y122.25 E53.62861
G1 X109.312 Y123.668 E57.2516
G1 X112.127 Y124.607 E61.02991
G1 X115.02 Y125.165 E64.78129
G1 X117.82 Y125.473 E68.36786
G1 X120.579 Y125.74 E71.89714
G1 X123.414 Y126.171 E75.54825
G1 X126.339 Y126.802 E79.35815
G1 X129.296 Y127.661 E83.27876
G1 X131.996 Y128.682 E86.95409
G1 X134.202 Y129.82 E90.11457
G1 X136.119 Y130.929 E92.93437
G1 X137.98 Y131.846 E95.57591
G1 X139.835 Y132.435 E98.05397
G1 X141.637 Y132.487 E100.34931
G1 X142.956 Y132.206 E102.0664
G1 X143.328 Y132.117 E102.55341
G1 X144.966 Y131.529 E104.76928
G1 X146.459 Y130.842 E106.86182
G1 X147.589 Y130.19 E108.5229
G1 X148.525 Y129.53 E109.98113
G1 X149.447 Y128.811 E111.46981
G1 X150.721 Y127.769 E113.56538
G1 X152.724 Y126.107 E116.87929
G1 X153.717 Y125.154 E118.63168
G1 X154.883 Y124.014 E120.70794
G1 X156.501 Y121.752 E124.24896
G1 X157.486 Y119.362 E127.54031
G1 X157.693 Y117.011 E130.54527
G1 X157.447 Y114.974 E133.15771
G1 X157.355 Y114.539 E133.72382
G1 X157.047 Y113.192 E135.48313
G1 X156.345 Y111.503 E137.81199
G1 X155.272 Y109.901 E140.26698
G1 X154.112 Y108.516 E142.56722
G1 X153.061 Y107.383 E144.53489
G1 X150.361 Y104.664 E149.41374
G1 X148.6 Y102.941 E152.55063
G1 X146.783 Y101.24 E155.71966
G1 X145.09 Y99.561 E158.75555
G1 X143.526 Y97.744 E161.80803
G1 X142.175 Y95.882 E164.73711
G1 X141.122 Y94.09 E167.38351
G1 X140.348 Y92.321 E169.84203
G1 X139.871 Y90.615 E172.09748
G1 X139.705 Y88.691 E174.55629
G1 X139.857 Y86.872 E176.88039
G1 X139.858 Y86.856 E176.9008
G1 X139.907 Y86.282 E177.6343
G1 X140.306 Y84.798 E179.59089
G1 X140.546 Y83.909 E180.76332
G1 X141.212 Y82.761 E182.45317
G1 X141.695 Y81.93 E183.67697
G1 X142.532 Y80.992 E185.27761
G1 X143.172 Y80.274 E186.50226
G1 X144.08 Y79.524 E188.00175
G1 X144.69 Y79.021 E189.00842
G1 X145.822 Y78.407 E190.64809
G1 X146.257 Y78.171 E191.27821
G1 X147.717 Y77.737 E193.21753
G1 X147.977 Y77.659 E193.56315
G1 X149.659 Y77.548 E195.7094
G1 X149.82 Y77.537 E195.91487
G1 X151.486 Y77.813 E198.065
G1 X151.825 Y77.87 E198.50268
G1 X153.099 Y78.304 E200.21633
G1 X153.652 Y78.492 E200.96001
G1 X154.506 Y78.969 E202.20547
G1 X154.892 Y79.185 E202.76866
G1 X155.683 Y79.87 E204.10095
G1 X155.801 Y79.972 E204.29954
G1 X156.603 Y80.898 E205.85929
G1 X156.615 Y80.917 E205.8879
G1 X157.14 Y81.769 E207.16211
G1 X156.545 Y80.961 E207.23973
G1 X155.683 Y80.088 E207.49894
G1 X155.583 Y79.987
G1 X154.742 Y79.4 E207.83775
G1 X154.4 Y79.161
G1 X153.529 Y78.758 E208.35254
G1 X153.024 Y78.525 E208.65363
G1 X151.743 Y78.166 E209.32744
G1 X151.442 Y78.081 E209.34359
G1 X149.781 Y77.914 E210.4524
G1 X149.683 Y77.904 E210.51361
G1 X148.015 Y78.058 E211.80287
G1 X147.818 Y78.077 E211.94385
G1 X146.36 Y78.514 E213.0164
G1 X145.948 Y78.638 E213.18233
G1 X144.823 Y79.26 E213.91236
G1 X144.164 Y79.625 E214.22218
G1 X143.302 Y80.416 E214.61941
G1 X142.604 Y81.056 E214.90201
G1 X141.953 Y82.091 E215.40947
G1 X141.446 Y82.896 E215.98556
G1 X141.023 Y84.079 E217.00649
G1 X140.725 Y84.91 E217.88078
G1 X140.454 Y86.905 E220.44422
G1 X140.454 Y86.922 E220.46584
G1 X140.505 Y88.694 E222.72295
G1 X140.772 Y90.181 E224.64654
G1 X141.329 Y91.521 E226.4942
G1 X142.155 Y92.773 E228.40397
G1 X143.172 Y94.031 E230.46365
G1 X144.412 Y95.485 E232.89674
G1 X145.853 Y96.963 E235.52498
G1 X147.371 Y98.19 E238.01019
G1 X149.063 Y99.367 E240.63448
G1 X151.107 Y100.762 E243.78532
G1 X153.161 Y102.185 E246.96686
G1 X154.838 Y103.421 E249.61936
G1 X156.451 Y104.717 E252.25389
G1 X158.116 Y106.161 E255.06003
G1 X159.866 Y107.923 E258.22196
G1 X161.643 Y110.089 E261.78914
G1 X163.124 Y112.577 E265.47572
G1 X164.057 Y115.399 E269.26008
G1 X164.517 Y118.379 E273.09927
G1 X164.562 Y121.291 E276.80739
G1 X164.318 Y123.944 E280.19955
G1 X163.913 Y126.288 E283.22825
G1 X163.59 Y128.288 E285.80772
G1 X163.75 Y130.128 E288.15932
G1 X165.139 Y131.533 E290.67485
G1 X167.391 Y132.711 E293.91078
G1 X170.062 Y133.68 E297.52848
G1 X172.679 Y134.194 E300.92421
G1 X175.067 Y134.301 E303.96776
G1 X177.024 Y134.022 E306.48468
G1 X178.564 Y133.495 E308.5571
G1 X179.781 Y132.846 E310.3132
G1 X180.802 Y131.999 E312.00227
G1 X181.766 Y130.904 E313.85977
G1 X182.613 Y129.513 E315.93335
G1 X183.226 Y127.868 E318.16852
G1 X183.63 Y126.067 E320.51861
G1 X183.865 Y124.167 E322.9562
G1 X184.06 Y122.037 E325.67954
G1 X184.34 Y119.416 E329.03569
G1 X184.562 Y116.449 E332.82396
G1 X184.575 Y113.386 E336.72392
G1 X184.559 Y110.348 E340.59208
G1 X184.581 Y109.842 E341.23695
G1 X184.593 Y109.555 E341.60269
G1 X184.686 Y107.454 E344.28038
G1 X184.753 Y106.813 E345.10097
G1 X184.961 Y104.832 E347.63713
G1 X185.058 Y104.371 E348.23694
G1 X185.373 Y102.888 E350.16728
G1 X185.521 Y102.461 E350.74269
G1 X185.901 Y101.365 E352.21965
G1 X186.103 Y100.944 E352.8142
G1 X186.544 Y100.026 E354.11091
G1 X186.801 Y99.644 E354.69711
G1 X187.287 Y98.92 E355.80737
G1 X187.614 Y98.571 E356.4163
G1 X188.177 Y97.969 E357.46576
G1 X188.513 Y97.708 E358.00747
G1 X189.232 Y97.148 E359.16784
G1 X189.512 Y96.986 E359.57972
G1 X190.492 Y96.421 E361.02001
G1 X190.629 Y96.366 E361.20798
G1 X191.868 Y95.865 E362.90961
G1 X191.884 Y95.861 E362.93061
G1 X193.348 Y95.505 E364.84895
G1 X193.368 Y95.5 E364.8752
G1 X194.801 Y95.353 E366.70933
G1 X194.854 Y95.357 E366.777
G1 X194.804 Y95.364
G1 X193.376 Y95.566 E366.8847
G1 X193.363 Y95.568
G1 X191.911 Y95.969 E367.15611
G1 X190.662 Y96.445 E367.43709
G1 X190.541 Y96.51
G1 X189.549 Y97.048 E367.6426
G1 X189.306 Y97.24
G1 X188.589 Y97.805 E367.87603
G1 X188.328 Y98.101
G1 X187.778 Y98.723 E368.25115
G1 X187.538 Y99.085 E368.38075
G1 X187.055 Y99.813 E368.94189
G1 X186.87 Y100.187 E369.15523
G1 X186.419 Y101.094 E369.91865
G1 X186.278 Y101.496 E370.19252
G1 X185.892 Y102.589 E371.16515
G1 X185.81 Y102.979 E371.47093
G1 X185.496 Y104.462 E372.9074
G1 X185.452 Y104.883 E373.32309
G1 X185.243 Y106.863 E375.40403
G1 X185.227 Y107.468 E376.06401
G1 X185.167 Y109.58 E378.56403
G1 X185.18 Y109.866 E378.92064
G1 X185.299 Y112.363 E382.10353
G1 X185.522 Y115.12 E385.62531
G1 X185.725 Y117.842 E389.10069
G1 X185.947 Y120.463 E392.4498
G1 X186.221 Y122.844 E395.50139
G1 X186.386 Y124.949 E398.18979
G1 X186.325 Y126.985 E400.78326
G1 X186 Y129.007 E403.3908
G1 X185.352 Y131.185 E406.28405
G1 X184.678 Y132.637 E408.32226
G1 X184.43 Y133.155 E409.05349
G1 X183.245 Y134.742 E411.57527
G1 X181.588 Y136.247 E414.42536
G1 X179.314 Y137.863 E417.97734
G1 X176.663 Y139.336 E421.83875
G1 X173.788 Y140.48 E425.77846
G1 X171.208 Y141.372 E429.25421
G1 X169.222 Y142.229 E432.00825
G1 X167.934 Y144.325 E435.14057
G1 X167.747 Y144.631 E435.59717
G1 X168.081 Y144.76 E435.87796
G1 X169.568 Y145.337 E437.9088
G1 X170.569 Y145.667 E439.25079
G1 X171.145 Y145.845 E440.01839
G1 X172.458 Y146.223 E441.75806
G1 X173.7 Y146.79 E443.49641
G1 X174.542 Y147.186 E444.68113
G1 X176.718 Y148.523 E447.93289
G1 X177.549 Y149.197 E449.29522
G1 X178.812 Y150.197 E451.34635
G1 X179.53 Y150.792 E452.53364
G1 X180.928 Y151.913 E454.81521
G1 X181.561 Y152.313 E455.7686
G1 X182.97 Y153.173 E457.87036
G1 X183.507 Y153.415 E458.62031
G1 X184.868 Y154.006 E460.50952
G1 X186.634 Y154.506 E462.84645
G1 X188.452 Y154.64 E465.16747
G1 X190.452 Y154.396 E467.73283
G1 X192.576 Y153.666 E470.59246
G1 X194.674 Y152.4 E473.71238
G1 X196.506 Y151.049 E476.61063
G1 X197.429 Y150.338 E478.09407
G1 X197.961 Y149.928 E478.94925
G1 X198.918 Y149.119 E480.54479
G1 X199.254 Y148.835 E481.10494
G1 X200.519 Y147.637 E483.32324
G1 X200.62 Y147.536 E483.5051
G1 X202.753 Y145.4 E487.34856
G1 X203.221 Y144.931 E488.19215
G1 X204.701 Y143.598 E490.7282
G1 X206.137 Y142.575 E492.97308
G1 X207.7 Y141.763 E495.21569
G1 X209.499 Y141.115 E497.65031
G1 X210.859 Y140.914 E499.40073
G1 X211.495 Y140.82 E500.2193
G1 X211.797 Y140.849 E500.60559
G1 X213.756 Y141.04 E503.11169
G1 X214.108 Y141.152 E503.58201
G1 X216.007 Y141.761 E506.12119
G1 X216.338 Y141.966 E506.61691
G1 X217.968 Y142.973 E509.0564
G1 X218.29 Y143.272 E509.61588
G1 X219.531 Y144.422 E511.7701
G1 X219.823 Y144.819 E512.39758
G1 X220.535 Y145.788 E513.92859
G1 X220.567 Y145.853 E514.02084
G1 X220.525 Y145.796
G1 X219.809 Y144.83 E514.05784
G1 X219.45 Y144.517
G1 X218.17 Y143.403 E514.60168
G1 X217.833 Y143.203 E514.658
G1 X216.181 Y142.222 E515.81352
G1 X215.889 Y142.127 E515.9451
G1 X213.995 Y141.508 E517.54508
G1 X213.722 Y141.488 E517.6854
G1 X211.751 Y141.336 E519.65397
G1 X211.614 Y141.365 E519.78096
G1 X210.986 Y141.501 E520.56977
G1 X209.714 Y141.777 E522.22702
G1 X208.05 Y142.464 E524.51916
G1 X206.662 Y143.131 E526.47988
G1 X205.331 Y143.969 E528.48247
G1 X204.018 Y145.057 E530.6536
G1 X203.177 Y145.825 E532.1037
G1 X200.948 Y147.861 E535.50232
G1 X200.829 Y147.971 E535.64074
G1 X199.547 Y149.153 E537.282
G1 X199.211 Y149.463 E537.71334
G1 X198.327 Y150.309 E538.98095
G1 X197.842 Y150.773 E539.78436
G1 X197.675 Y150.933 E540.07883
G1 X196.137 Y152.326 E542.72088
G1 X194.408 Y153.686 E545.52173
G1 X192.551 Y154.919 E548.35987
G1 X190.656 Y155.91 E551.08267
G1 X188.771 Y156.618 E553.64643
G1 X186.95 Y157.008 E556.01758
G1 X185.131 Y157.125 E558.33839
G1 X183.304 Y156.991 E560.67085
G1 X181.591 Y156.656 E562.89322
G1 X180.159 Y156.175 E564.81661
G1 X176.017 Y154.367 E570.57089
G1 X173.394 Y153.436 E574.11473
G1 X171.265 Y153.261 E576.8346
G1 X169.733 Y153.615 E578.8366
G1 X168.515 Y154.287 E580.60778
G1 X167.838 Y155.728 E582.63492
G1 X168.082 Y156.337 E583.47024
G1 X168.274 Y157.001 E584.35031
G1 X168.529 Y157.288 E584.83913
G1 X168.896 Y157.792 E585.63294
G1 X169.108 Y157.978 E585.99203
G1 X169.458 Y158.312 E586.60802
G1 X170.453 Y159.426 E588.50981
G1 X172.438 Y162.016 E592.66461
G1 X174.907 Y165.256 E597.85118
G1 X176.686 Y167.487 E601.48431
G1 X177.342 Y168.291 E602.80551
G1 X179.089 Y170.243 E606.14089
G1 X179.892 Y171.116 E607.65113
G1 X181.614 Y172.735 E610.66052
G1 X182.697 Y173.723 E612.52703
G1 X184.484 Y175.1 E615.39945
G1 X185.588 Y175.966 E617.18597
G1 X188.453 Y177.779 E621.50284
G1 X191.145 Y179.185 E625.36973
G1 X193.476 Y180.185 E628.59924
G1 X195.568 Y181.11 E631.51161
G1 X197.671 Y182.342 E634.61488
G1 X199.494 Y183.631 E637.45762
G1 X200.676 Y184.679 E639.46894
G1 X201.446 Y185.64 E641.03685
G1 X202.069 Y186.753 E642.66086
G1 X202.553 Y187.961 E644.3178
G1 X202.891 Y189.173 E645.91985
G1 X203.111 Y190.545 E647.68905
G1 X203.171 Y191.289 E648.63942
G1 X203.212 Y191.804 E649.29721
G1 X203.257 Y192.353 E649.99856
G1 X203.232 Y193.435 E651.37657
G1 X203.213 Y194.251 E652.41582
G1 X203.051 Y195.125 E653.54759
G1 X202.885 Y196.019 E654.70532
G1 X202.68 Y196.621 E655.51503
G1 X202.31 Y197.705 E656.97341
G1 X202.17 Y197.991 E657.37884
G1 X201.557 Y199.236 E659.14575
G1 X201.488 Y199.335 E659.2994
G1 X200.686 Y200.488 E661.08766
G1 X200.593 Y200.575 E661.24981
G1 X199.751 Y201.368 E662.72249
G1 X199.49 Y201.536 E663.11769
G1 X198.962 Y201.877 E663.91798
G1 X199.488 Y201.534 E663.91804
G1 X199.708 Y201.325
G1 X200.546 Y200.526 E664.07463
G1 X200.611 Y200.435
G1 X201.427 Y199.293 E664.31926
G1 X201.476 Y199.196
G1 X202.104 Y197.96 E664.55646
G1 X202.204 Y197.669
G1 X202.576 Y196.586 E664.82428
G1 X202.674 Y195.985 E665.02113
G1 X202.823 Y195.083 E665.45382
G1 X202.829 Y194.249 E665.98315
G1 X202.835 Y193.426 E666.66672
G1 X202.736 Y192.404 E667.66114
G1 X202.682 Y191.847 E668.28759
G1 X202.573 Y191.342 E668.90763
G1 X202.4 Y190.545 E669.94603
G1 X201.975 Y189.385 E671.519
G1 X201.383 Y188.148 E673.26507
G1 X200.501 Y186.887 E675.22439
G1 X199.295 Y185.816 E677.27801
G1 X197.766 Y184.898 E679.54873
G1 X195.807 Y183.974 E682.30653
G1 X193.509 Y183.152 E685.41399
G1 X191.145 Y182.604 E688.50374
G1 X188.519 Y181.956 E691.94756
G1 X185.326 Y180.836 E696.25586
G1 X181.839 Y179.353 E701.08049
G1 X180.01 Y178.447 E703.6793
G1 X178.403 Y177.623 E705.9787
G1 X177.169 Y176.957 E707.7641
G1 X174.417 Y175.439 E711.76577
G1 X172.477 Y174.391 E714.57322
G1 X170.712 Y173.631 E717.01997
G1 X170.01 Y173.311 E718.00227
G1 X167.709 Y172.944 E720.96903
G1 X167.333 Y173.034 E721.46129
G1 X165.655 Y173.35 E723.63534
G1 X165.391 Y173.554 E724.06013
G1 X163.99 Y174.351 E726.11239
G1 X163.817 Y174.59 E726.48804
G1 X162.741 Y175.741 E728.49419
G1 X161.791 Y177.45 E730.98375
G1 X161.107 Y179.008 E733.15021
G1 X160.561 Y180.177 E734.79297
G1 X160.038 Y181.005 E736.03991
G1 X159.322 Y181.726 E737.33367
G1 X158.43 Y182.365 E738.73075
G1 X157.403 Y182.893 E740.20106
G1 X156.375 Y183.306 E741.61163
G1 X155.533 Y183.594 E742.74468
G1 X154.533 Y183.833 E744.05377
G1 X152.783 Y184.127 E746.31317
G1 X151.327 Y184.695 E748.30308
G1 X150.663 Y184.919 E749.19532
G1 X149.558 Y186.859 E752.03799
G1 X149.352 Y188.666 E754.35363
G1 X149.395 Y190.149 E756.24264
G1 X149.692 Y191.624 E758.15836
G1 X150.236 Y193.178 E760.25471
G1 X150.974 Y194.761 E762.47852
G1 X151.853 Y196.307 E764.74287
G1 X152.704 Y197.67 E766.78877
G1 X153.414 Y198.777 E768.46324
G1 X154.211 Y199.83 E770.1447
G1 X155.235 Y200.907 E772.03686
G1 X156.339 Y202.003 E774.01757
G1 X157.43 Y203.139 E776.02299
G1 X158.458 Y204.359 E778.05427
G1 X159.305 Y205.599 E779.96625
G1 X159.915 Y206.954 E781.85825
G1 X160.263 Y208.596 E783.99535
G1 X160.337 Y210.716 E786.69626
G1 X160.099 Y213.273 E789.96601
G1 X160.057 Y213.434 E790.17786
G1 X159.675 Y214.906 E792.11415
G1 X159.447 Y215.781 E793.26544
G1 X158.767 Y217.002 E795.04489
G1 X158.287 Y217.864 E796.30111
G1 X157.458 Y218.835 E797.92672
G1 X156.81 Y219.595 E799.19837
G1 X155.919 Y220.361 E800.69443
G1 X155.284 Y220.907 E801.76072
G1 X154.187 Y221.527 E803.36511
G1 X153.722 Y221.79 E804.0453
G1 X152.295 Y222.234 E805.94813
G1 X152.002 Y222.326 E806.33915
G1 X150.341 Y222.45 E808.45988
G1 X150.17 Y222.463 E808.67823
G1 X148.481 Y222.19 E810.85665
G1 X148.166 Y222.138 E811.26315
G1 X146.836 Y221.69 E813.05004
G1 X146.298 Y221.508 E813.77318
G1 X145.39 Y221.014 E815.08931
G1 X145.005 Y220.805 E815.64707
G1 X144.165 Y220.118 E817.02874
