; generated by Slic3r 1.2.9 on 2017-03-14 at 09:20:35

; external perimeters extrusion width = 0.50mm
; perimeters extrusion width = 0.72mm
; infill extrusion width = 0.72mm
; solid infill extrusion width = 0.72mm
; top infill extrusion width = 0.72mm

M107
M104 S200 ; set temperature
G28 ; home all axes
G1 Z5 F5000 ; lift nozzle

M109 S200 ; wait for temperature to be reached
G21 ; set units to millimeters
G90 ; use absolute coordinates
M82 ; use absolute distances for extrusion
G92 E0
G1 Z0.350 F7800.000
G1 E-2.00000 F2400.00000
G92 E0
G1 X82.215 Y83.053 F7800.000
G1 E2.00000 F2400.00000
G1 X83.968 Y81.574 E2.07096 F1800.000
G1 X86.120 Y80.781 E2.14192
G1 X87.300 Y80.675 E2.17858
G1 X112.700 Y80.675 E2.96448
G1 X114.959 Y81.072 E3.03545
G1 X116.947 Y82.215 E3.10641 F1800.000
G1 X118.426 Y83.968 E3.17737
G1 X119.219 Y86.120 E3.24833
G1 X119.325 Y87.300 E3.28499
G1 X119.325 Y112.700 E4.07089
G1 X118.928 Y114.959 E4.14186
G1 X117.785 Y116.947 E4.21282
G1 X116.032 Y118.426 E4.28378
G1 X113.880 Y119.219 E4.35474
G1 X112.700 Y119.325 E4.39139
G1 X87.300 Y119.325 E5.17730
G1 X85.041 Y118.928 E5.24827
G1 X83.053 Y117.785 E5.31923
G1 X81.574 Y116.032 E5.39019
G1 X80.781 Y113.880 E5.46115
G1 X80.675 Y112.700 E5.49780
G1 X80.675 Y87.300 E6.28371
G1 X81.072 Y85.041 E6.35468
G1 X82.178 Y83.118 E6.42332
G1 E4.42332 F2400.00000
G92 E0
G1 X100.477 Y100.477 F7800.000
G1 E2.00000 F2400.00000
G1 X99.523 Y100.477 E2.02953 F1800.000
G1 X99.523 Y99.523 E2.05905
G1 X100.477 Y99.523 E2.08858
G1 X100.477 Y100.402 E2.11578
G1 X101.102 Y101.102 F7800.000
G1 X98.898 Y101.102 E2.18397 F1800.000
G1 X98.898 Y98.898 E2.25217
G1 X101.102 Y98.898 E2.32036
G1 X101.102 Y101.027 E2.38624
G1 X101.727 Y101.727 F7800.000
G1 X98.273 Y101.727 E2.49310 F1800.000
G1 X98.273 Y98.273 E2.59997
G1 X101.727 Y98.273 E2.70683
G1 X101.727 Y101.652 E2.81138
G1 X102.352 Y102.352 F7800.000
G1 X97.648 Y102.352 E2.95691 F1800.000
G1 X97.648 Y97.648 E3.10245
G1 X102.352 Y97.648 E3.24798
G1 X102.352 Y102.277 E3.39119
G1 X102.977 Y102.977 F7800.000
G1 X97.023 Y102.977 E3.57540 F1800.000
G1 X97.023 Y97.023 E3.75960
G1 X102.977 Y97.023 E3.94381
G1 X102.977 Y102.902 E4.12569
G1 X103.602 Y103.602 F7800.000
G1 X96.398 Y103.602 E4.34856 F1800.000
G1 X96.398 Y96.398 E4.57144
G1 X103.602 Y96.398 E4.79431
G1 X103.602 Y103.527 E5.01486
G1 X104.226 Y104.226 F7800.000
G1 X95.774 Y104.226 E5.27641 F1800.000
G1 X95.774 Y95.774 E5.53795
G1 X104.226 Y95.774 E5.79949
G1 X104.226 Y104.151 E6.05872
G1 X104.851 Y104.851 F7800.000
G1 X95.149 Y104.851 E6.35893 F1800.000
G1 X95.149 Y95.149 E6.65914
G1 X104.851 Y95.149 E6.95936
G1 X104.851 Y104.776 E7.25725
G1 X105.476 Y105.476 F7800.000
G1 X94.524 Y105.476 E7.59613 F1800.000
G1 X94.524 Y94.524 E7.93502
G1 X105.476 Y94.524 E8.27390
G1 X105.476 Y105.401 E8.61046
G1 X106.101 Y106.101 F7800.000
G1 X93.899 Y106.101 E8.98802 F1800.000
G1 X93.899 Y93.899 E9.36557
G1 X106.101 Y93.899 E9.74312
G1 X106.101 Y106.026 E10.11835
G1 X106.726 Y106.726 F7800.000
G1 X93.274 Y106.726 E10.53458 F1800.000
G1 X93.274 Y93.274 E10.95080
G1 X106.726 Y93.274 E11.36702
G1 X106.726 Y106.651 E11.78092
G1 X107.351 Y107.351 F7800.000
G1 X92.649 Y107.351 E12.23582 F1800.000
G1 X92.649 Y92.649 E12.69071
G1 X107.351 Y92.649 E13.14560
G1 X107.351 Y107.276 E13.59817
G1 X107.976 Y107.976 F7800.000
G1 X92.024 Y107.976 E14.09173 F1800.000
G1 X92.024 Y92.024 E14.58530
G1 X107.976 Y92.024 E15.07886
G1 X107.976 Y107.901 E15.57010
G1 X108.601 Y108.601 F7800.000
G1 X91.399 Y108.601 E16.10233 F1800.000
G1 X91.399 Y91.399 E16.63456
G1 X108.601 Y91.399 E17.16679
G1 X108.601 Y108.526 E17.69671
G1 X109.226 Y109.226 F7800.000
G1 X90.774 Y109.226 E18.26761 F1800.000
G1 X90.774 Y90.774 E18.83851
G1 X109.226 Y90.774 E19.40941
G1 X109.226 Y109.151 E19.97799
G1 X109.850 Y109.850 F7800.000
G1 X90.150 Y109.850 E20.58756 F1800.000
G1 X90.150 Y90.150 E21.19713
G1 X109.850 Y90.150 E21.80670
G1 X109.850 Y109.775 E22.41396
G1 X110.475 Y110.475 F7800.000
G1 X89.525 Y110.475 E23.06220 F1800.000
G1 X89.525 Y89.525 E23.71044
G1 X110.475 Y89.525 E24.35868
G1 X110.475 Y110.400 E25.00460
G1 X111.100 Y111.100 F7800.000
G1 X88.900 Y111.100 E25.69151 F1800.000
G1 X88.900 Y88.900 E26.37842
G1 X111.100 Y88.900 E27.06533
G1 X111.100 Y111.025 E27.74992
G1 X111.725 Y111.725 F7800.000
G1 X88.275 Y111.725 E28.47550 F1800.000
G1 X88.275 Y88.275 E29.20108
G1 X111.725 Y88.275 E29.92666
G1 X111.725 Y111.650 E30.64992
G1 X112.350 Y112.350 F7800.000
G1 X87.650 Y112.350 E31.41417 F1800.000
G1 X87.650 Y87.650 E32.17842
G1 X112.350 Y87.650 E32.94267
G1 X112.350 Y112.275 E33.70460
G1 X111.917 Y112.100 F7800.000
G1 Z0.650 F7800.000
G1 X100.778 Y100.778 F7800.000
G1 X99.222 Y100.778 E33.74785 F900.000
G1 X99.222 Y99.222 E33.79110
G1 X100.778 Y99.222 E33.83435
G1 X100.778 Y100.703 E33.87552
G1 X101.433 Y101.433 F7800.000
G1 X98.567 Y101.433 E33.95513 F900.000
G1 X98.567 Y98.567 E34.03474
G1 X101.433 Y98.567 E34.11435
G1 X101.433 Y101.358 E34.19187
G1 X102.087 Y102.087 F7800.000
G1 X97.913 Y102.087 E34.30784 F900.000
G1 X97.913 Y97.913 E34.42381
G1 X102.087 Y97.913 E34.53979
G1 X102.087 Y102.012 E34.65367
G1 X102.742 Y102.742 F7800.000
G1 X97.258 Y102.742 E34.80600 F900.000
G1 X97.258 Y97.258 E34.95834
G1 X102.742 Y97.258 E35.11067
G1 X102.742 Y102.667 E35.26092
G1 X103.396 Y103.396 F7800.000
G1 X96.604 Y103.396 E35.44961 F900.000
G1 X96.604 Y96.604 E35.63830
G1 X103.396 Y96.604 E35.82700
G1 X103.396 Y103.321 E36.01360
G1 X104.051 Y104.051 F7800.000
G1 X95.949 Y104.051 E36.23866 F900.000
G1 X95.949 Y95.949 E36.46371
G1 X104.051 Y95.949 E36.68877
G1 X104.051 Y103.976 E36.91174
G1 X104.705 Y104.705 F7800.000
G1 X95.295 Y104.705 E37.17315 F900.000
G1 X95.295 Y95.295 E37.43457
G1 X104.705 Y95.295 E37.69598
G1 X104.705 Y104.630 E37.95531
G1 X105.360 Y105.360 F7800.000
G1 X94.640 Y105.360 E38.25309 F3600.000
G1 X94.640 Y94.640 E38.55086
G1 X105.360 Y94.640 E38.84864
G1 X105.360 Y105.285 E39.14433
G1 X106.014 Y106.014 F7800.000
G1 X93.986 Y106.014 E39.47847 F3600.000
G1 X93.986 Y93.986 E39.81261
G1 X106.014 Y93.986 E40.14674
G1 X106.014 Y105.939 E40.47880
G1 X106.669 Y106.669 F7800.000
G1 X93.331 Y106.669 E40.84929 F3600.000
G1 X93.331 Y93.331 E41.21979
G1 X106.669 Y93.331 E41.59029
G1 X106.669 Y106.594 E41.95870
G1 X107.323 Y107.323 F7800.000
G1 X92.677 Y107.323 E42.36556 F3600.000
G1 X92.677 Y92.677 E42.77242
G1 X107.323 Y92.677 E43.17928
G1 X107.323 Y107.248 E43.58405
G1 X107.978 Y107.978 F7800.000
G1 X92.022 Y107.978 E44.02727 F3600.000
G1 X92.022 Y92.022 E44.47049
G1 X107.978 Y92.022 E44.91371
G1 X107.978 Y107.903 E45.35485
G1 X108.632 Y108.632 F7800.000
G1 X91.368 Y108.632 E45.83443 F3600.000
G1 X91.368 Y91.368 E46.31401
G1 X108.632 Y91.368 E46.79359
G1 X108.632 Y108.557 E47.27109
G1 X109.287 Y109.287 F7800.000
G1 X90.713 Y109.287 E47.78703 F3600.000
G1 X90.713 Y90.713 E48.30297
G1 X109.287 Y90.713 E48.81891
G1 X109.287 Y109.212 E49.33277
G1 X109.941 Y109.941 F7800.000
G1 X90.059 Y109.941 E49.88507 F3600.000
G1 X90.059 Y90.059 E50.43738
G1 X109.941 Y90.059 E50.98968
G1 X109.941 Y109.866 E51.53990
G1 X110.596 Y110.596 F7800.000
G1 X89.404 Y110.596 E52.12856 F3600.000
G1 X89.404 Y89.404 E52.71723
G1 X110.596 Y89.404 E53.30589
G1 X110.596 Y110.521 E53.89247
G1 X111.250 Y111.250 F7800.000
G1 X88.750 Y111.250 E54.51749 F3600.000
G1 X88.750 Y88.750 E55.14252
G1 X111.250 Y88.750 E55.76754
G1 X111.250 Y111.175 E56.39048
G1 X111.905 Y111.905 F7800.000
G1 X88.095 Y111.905 E57.05187 F3600.000
G1 X88.095 Y88.095 E57.71325
G1 X111.905 Y88.095 E58.37464
G1 X111.905 Y111.830 E59.03394
G1 X112.450 Y112.450 F7800.000
G1 X87.550 Y112.450 E59.49430 F1800.000
G1 X87.550 Y87.550 E59.95466
G1 X112.450 Y87.550 E60.41502
G1 X112.450 Y112.375 E60.87399
G1 X112.017 Y112.200 F7800.000
G1 X100.381 Y100.063 F7800.000
G1 X100.063 Y100.381 E60.88647 F1200.000
G1 Z0.950 F7800.000
G1 X100.778 Y100.778 F7800.000
G1 X99.222 Y100.778 E60.92971 F900.000
G1 X99.222 Y99.222 E60.97296
G1 X100.778 Y99.222 E61.01621
G1 X100.778 Y100.703 E61.05738
G1 X101.433 Y101.433 F7800.000
G1 X98.567 Y101.433 E61.13699 F900.000
G1 X98.567 Y98.567 E61.21660
G1 X101.433 Y98.567 E61.29621
G1 X101.433 Y101.358 E61.37373
G1 X102.087 Y102.087 F7800.000
G1 X97.913 Y102.087 E61.48971 F900.000
G1 X97.913 Y97.913 E61.60568
G1 X102.087 Y97.913 E61.72165
G1 X102.087 Y102.012 E61.83553
G1 X102.742 Y102.742 F7800.000
G1 X97.258 Y102.742 E61.98787 F900.000
G1 X97.258 Y97.258 E62.14020
G1 X102.742 Y97.258 E62.29253
G1 X102.742 Y102.667 E62.44278
G1 X103.396 Y103.396 F7800.000
G1 X96.604 Y103.396 E62.63147 F900.000
G1 X96.604 Y96.604 E62.82016
G1 X103.396 Y96.604 E63.00886
G1 X103.396 Y103.321 E63.19547
G1 X104.051 Y104.051 F7800.000
G1 X95.949 Y104.051 E63.42052 F900.000
G1 X95.949 Y95.949 E63.64557
G1 X104.051 Y95.949 E63.87063
G1 X104.051 Y103.976 E64.09360
G1 X104.705 Y104.705 F7800.000
G1 X95.295 Y104.705 E64.35501 F900.000
G1 X95.295 Y95.295 E64.61643
G1 X104.705 Y95.295 E64.87784
G1 X104.705 Y104.630 E65.13717
G1 X105.360 Y105.360 F7800.000
G1 X94.640 Y105.360 E65.43495 F3600.000
G1 X94.640 Y94.640 E65.73273
G1 X105.360 Y94.640 E66.03050
G1 X105.360 Y105.285 E66.32619
G1 X106.014 Y106.014 F7800.000
G1 X93.986 Y106.014 E66.66033 F3600.000
G1 X93.986 Y93.986 E66.99447
G1 X106.014 Y93.986 E67.32860
G1 X106.014 Y105.939 E67.66066
G1 X106.669 Y106.669 F7800.000
G1 X93.331 Y106.669 E68.03116 F3600.000
G1 X93.331 Y93.331 E68.40165
G1 X106.669 Y93.331 E68.77215
G1 X106.669 Y106.594 E69.14057
G1 X107.323 Y107.323 F7800.000
G1 X92.677 Y107.323 E69.54742 F3600.000
G1 X92.677 Y92.677 E69.95428
G1 X107.323 Y92.677 E70.36114
G1 X107.323 Y107.248 E70.76592
G1 X107.978 Y107.978 F7800.000
G1 X92.022 Y107.978 E71.20914 F3600.000
G1 X92.022 Y92.022 E71.65236
G1 X107.978 Y92.022 E72.09558
G1 X107.978 Y107.903 E72.53671
G1 X108.632 Y108.632 F7800.000
G1 X91.368 Y108.632 E73.01629 F3600.000
G1 X91.368 Y91.368 E73.49587
G1 X108.632 Y91.368 E73.97545
G1 X108.632 Y108.557 E74.45295
G1 X109.287 Y109.287 F7800.000
G1 X90.713 Y109.287 E74.96889 F3600.000
G1 X90.713 Y90.713 E75.48483
G1 X109.287 Y90.713 E76.00078
G1 X109.287 Y109.212 E76.51463
G1 X109.941 Y109.941 F7800.000
G1 X90.059 Y109.941 E77.06694 F3600.000
G1 X90.059 Y90.059 E77.61924
G1 X109.941 Y90.059 E78.17154
G1 X109.941 Y109.866 E78.72176
G1 X110.596 Y110.596 F7800.000
G1 X89.404 Y110.596 E79.31042 F3600.000
G1 X89.404 Y89.404 E79.89909
G1 X110.596 Y89.404 E80.48775
G1 X110.596 Y110.521 E81.07433
G1 X111.250 Y111.250 F7800.000
G1 X88.750 Y111.250 E81.69936 F3600.000
G1 X88.750 Y88.750 E82.32438
G1 X111.250 Y88.750 E82.94940
G1 X111.250 Y111.175 E83.57235
G1 X111.905 Y111.905 F7800.000
G1 X88.095 Y111.905 E84.23373 F3600.000
G1 X88.095 Y88.095 E84.89512
G1 X111.905 Y88.095 E85.55650
G1 X111.905 Y111.830 E86.21580
G1 X112.450 Y112.450 F7800.000
G1 X87.550 Y112.450 E86.67616 F1800.000
G1 X87.550 Y87.550 E87.13652
G1 X112.450 Y87.550 E87.59688
G1 X112.450 Y112.375 E88.05585
G1 X112.017 Y112.200 F7800.000
G1 X100.381 Y99.937 F7800.000
G1 X100.063 Y99.619 E88.06833 F1200.000
M106 S188.7
G1 Z1.250 F7800.000
G1 X100.778 Y100.778 F7800.000
G1 X99.222 Y100.778 E88.11158 F900.000
G1 X99.222 Y99.222 E88.15483
G1 X100.778 Y99.222 E88.19807
G1 X100.778 Y100.703 E88.23924
G1 X101.433 Y101.433 F7800.000
G1 X98.567 Y101.433 E88.31885 F900.000
G1 X98.567 Y98.567 E88.39846
G1 X101.433 Y98.567 E88.47807
G1 X101.433 Y101.358 E88.55560
G1 X102.087 Y102.087 F7800.000
G1 X97.913 Y102.087 E88.67157 F900.000
G1 X97.913 Y97.913 E88.78754
G1 X102.087 Y97.913 E88.90351
G1 X102.087 Y102.012 E89.01740
G1 X102.742 Y102.742 F7800.000
G1 X97.258 Y102.742 E89.16973 F900.000
G1 X97.258 Y97.258 E89.32206
G1 X102.742 Y97.258 E89.47439
G1 X102.742 Y102.667 E89.62464
G1 X103.396 Y103.396 F7800.000
G1 X96.604 Y103.396 E89.81333 F900.000
G1 X96.604 Y96.604 E90.00203
G1 X103.396 Y96.604 E90.19072
G1 X103.396 Y103.321 E90.37733
G1 X104.051 Y104.051 F7800.000
G1 X95.949 Y104.051 E90.60238 F900.000
G1 X95.949 Y95.949 E90.82744
G1 X104.051 Y95.949 E91.05249
G1 X104.051 Y103.976 E91.27546
G1 X104.705 Y104.705 F7800.000
G1 X95.295 Y104.705 E91.53688 F900.000
G1 X95.295 Y95.295 E91.79829
G1 X104.705 Y95.295 E92.05971
G1 X104.705 Y104.630 E92.31904
G1 X105.360 Y105.360 F7800.000
G1 X94.640 Y105.360 E92.61681 F3600.000
G1 X94.640 Y94.640 E92.91459
G1 X105.360 Y94.640 E93.21236
G1 X105.360 Y105.285 E93.50806
G1 X106.014 Y106.014 F7800.000
G1 X93.986 Y106.014 E93.84219 F3600.000
G1 X93.986 Y93.986 E94.17633
G1 X106.014 Y93.986 E94.51047
G1 X106.014 Y105.939 E94.84252
G1 X106.669 Y106.669 F7800.000
G1 X93.331 Y106.669 E95.21302 F3600.000
G1 X93.331 Y93.331 E95.58352
G1 X106.669 Y93.331 E95.95401
G1 X106.669 Y106.594 E96.32243
G1 X107.323 Y107.323 F7800.000
G1 X92.677 Y107.323 E96.72929 F3600.000
G1 X92.677 Y92.677 E97.13614
G1 X107.323 Y92.677 E97.54300
G1 X107.323 Y107.248 E97.94778
G1 X107.978 Y107.978 F7800.000
G1 X92.022 Y107.978 E98.39100 F3600.000
G1 X92.022 Y92.022 E98.83422
G1 X107.978 Y92.022 E99.27744
G1 X107.978 Y107.903 E99.71857
G1 X108.632 Y108.632 F7800.000
G1 X91.368 Y108.632 E100.19815 F3600.000
G1 X91.368 Y91.368 E100.67773
G1 X108.632 Y91.368 E101.15732
G1 X108.632 Y108.557 E101.63481
G1 X109.287 Y109.287 F7800.000
G1 X90.713 Y109.287 E102.15075 F3600.000
G1 X90.713 Y90.713 E102.66670
G1 X109.287 Y90.713 E103.18264
G1 X109.287 Y109.212 E103.69650
G1 X109.941 Y109.941 F7800.000
G1 X90.059 Y109.941 E104.24880 F3600.000
G1 X90.059 Y90.059 E104.80110
G1 X109.941 Y90.059 E105.35340
G1 X109.941 Y109.866 E105.90362
G1 X110.596 Y110.596 F7800.000
G1 X89.404 Y110.596 E106.49229 F3600.000
G1 X89.404 Y89.404 E107.08095
G1 X110.596 Y89.404 E107.66961
G1 X110.596 Y110.521 E108.25619
G1 X111.250 Y111.250 F7800.000
G1 X88.750 Y111.250 E108.88122 F3600.000
G1 X88.750 Y88.750 E109.50624
G1 X111.250 Y88.750 E110.13127
G1 X111.250 Y111.175 E110.75421
G1 X111.905 Y111.905 F7800.000
G1 X88.095 Y111.905 E111.41559 F3600.000
G1 X88.095 Y88.095 E112.07698
G1 X111.905 Y88.095 E112.73836
G1 X111.905 Y111.830 E113.39767
G1 X112.450 Y112.450 F7800.000
G1 X87.550 Y112.450 E113.85802 F1800.000
G1 X87.550 Y87.550 E114.31838
G1 X112.450 Y87.550 E114.77874
G1 X112.450 Y112.375 E115.23771
G1 X112.017 Y112.200 F7800.000
G1 X100.381 Y100.063 F7800.000
G1 X100.063 Y100.381 E115.25019 F1200.000
G1 Z1.550 F7800.000
G1 X100.778 Y100.778 F7800.000
G1 X99.222 Y100.778 E115.29344 F900.000
G1 X99.222 Y99.222 E115.33669
G1 X100.778 Y99.222 E115.37994
G1 X100.778 Y100.703 E115.42110
G1 X101.433 Y101.433 F7800.000
G1 X98.567 Y101.433 E115.50071 F900.000
G1 X98.567 Y98.567 E115.58032
G1 X101.433 Y98.567 E115.65993
G1 X101.433 Y101.358 E115.73746
G1 X102.087 Y102.087 F7800.000
G1 X97.913 Y102.087 E115.85343 F900.000
G1 X97.913 Y97.913 E115.96940
G1 X102.087 Y97.913 E116.08537
G1 X102.087 Y102.012 E116.19926
G1 X102.742 Y102.742 F7800.000
G1 X97.258 Y102.742 E116.35159 F900.000
G1 X97.258 Y97.258 E116.50392
G1 X102.742 Y97.258 E116.65625
G1 X102.742 Y102.667 E116.80650
G1 X103.396 Y103.396 F7800.000
G1 X96.604 Y103.396 E116.99520 F900.000
G1 X96.604 Y96.604 E117.18389
G1 X103.396 Y96.604 E117.37258
G1 X103.396 Y103.321 E117.55919
G1 X104.051 Y104.051 F7800.000
G1 X95.949 Y104.051 E117.78424 F900.000
G1 X95.949 Y95.949 E118.00930
G1 X104.051 Y95.949 E118.23435
G1 X104.051 Y103.976 E118.45732
G1 X104.705 Y104.705 F7800.000
G1 X95.295 Y104.705 E118.71874 F900.000
G1 X95.295 Y95.295 E118.98015
G1 X104.705 Y95.295 E119.24157
G1 X104.705 Y104.630 E119.50090
G1 X105.360 Y105.360 F7800.000
G1 X94.640 Y105.360 E119.79867 F3600.000
G1 X94.640 Y94.640 E120.09645
G1 X105.360 Y94.640 E120.39423
G1 X105.360 Y105.285 E120.68992
G1 X106.014 Y106.014 F7800.000
