; generated by Slic3r 1.2.9 on 2017-03-14 at 09:18:13

; external perimeters extrusion width = 0.50mm
; perimeters extrusion width = 0.72mm
; infill extrusion width = 0.72mm
; solid infill extrusion width = 0.72mm
; top infill extrusion width = 0.72mm

M107
M104 S200 ; set temperature
G28 ; home all axes
G1 Z5 F5000 ; lift nozzle

M109 S200 ; wait for temperature to be reached
G21 ; set units to millimeters
G90 ; use absolute coordinates
M82 ; use absolute distances for extrusion
G92 E0
G1 Z0.350 F7800.000
G1 E-2.00000 F2400.00000
G92 E0
G1 X82.215 Y83.053 F7800.000
G1 E2.00000 F2400.00000
G1 X83.968 Y81.574 E2.07096 F1800.000
G1 X86.120 Y80.781 E2.14192
G1 X87.300 Y80.675 E2.17858
G1 X112.700 Y80.675 E2.96448
G1 X114.959 Y81.072 E3.03545
G1 X116.947 Y82.215 E3.10641 F1800.000
G1 X118.426 Y83.968 E3.17737
G1 X119.219 Y86.120 E3.24833
G1 X119.325 Y87.300 E3.28499
G1 X119.325 Y112.700 E4.07089
G1 X118.928 Y114.959 E4.14186
G1 X117.785 Y116.947 E4.21282
G1 X116.032 Y118.426 E4.28378
G1 X113.880 Y119.219 E4.35474
G1 X112.700 Y119.325 E4.39139
G1 X87.300 Y119.325 E5.17730
G1 X85.041 Y118.928 E5.24827
G1 X83.053 Y117.785 E5.31923
G1 X81.574 Y116.032 E5.39019
G1 X80.781 Y113.880 E5.46115
G1 X80.675 Y112.700 E5.49780
G1 X80.675 Y87.300 E6.28371
G1 X81.072 Y85.041 E6.35468
G1 X82.178 Y83.118 E6.42332
G1 E4.42332 F2400.00000
G92 E0
G1 X111.100 Y111.100 F7800.000
G1 E2.00000 F2400.00000
G1 X88.900 Y111.100 E2.68691 F1800.000
G1 X88.900 Y88.900 E3.37382
G1 X111.100 Y88.900 E4.06073
G1 X111.100 Y111.025 E4.74532
G1 X111.725 Y111.725 F7800.000
G1 X88.275 Y111.725 E5.47090 F1800.000
G1 X88.275 Y88.275 E6.19648
G1 X111.725 Y88.275 E6.92206
G1 X111.725 Y111.650 E7.64532
G1 X112.350 Y112.350 F7800.000
G1 X87.650 Y112.350 E8.40957 F1800.000
G1 X87.650 Y87.650 E9.17382
G1 X112.350 Y87.650 E9.93807
G1 X112.350 Y112.275 E10.70000
G1 X111.917 Y112.100 F7800.000
G1 X110.722 Y89.583 F7800.000
G1 X110.417 Y89.278 E10.71359 F1800.000
G1 X109.517 Y89.278 E10.74192
G1 X110.722 Y90.483 E10.79557
G1 X110.722 Y91.382 E10.82390
G1 X108.618 Y89.278 E10.91762
G1 X107.718 Y89.278 E10.94594
G1 X110.722 Y92.282 E11.07972
G1 X110.722 Y93.181 E11.10805
G1 X106.819 Y89.278 E11.28189
G1 X105.919 Y89.278 E11.31022
G1 X110.722 Y94.081 E11.52412
G1 X110.722 Y94.980 E11.55244
G1 X105.020 Y89.278 E11.80641
G1 X104.120 Y89.278 E11.83474
G1 X110.722 Y95.880 E12.12876
G1 X110.722 Y96.779 E12.15709
G1 X103.221 Y89.278 E12.49118
G1 X102.321 Y89.278 E12.51950
G1 X110.722 Y97.679 E12.89365
G1 X110.722 Y98.578 E12.92198
G1 X101.422 Y89.278 E13.33619
G1 X100.522 Y89.278 E13.36452
G1 X110.722 Y99.478 E13.81880
G1 X110.722 Y100.377 E13.84712
G1 X99.623 Y89.278 E14.34146
G1 X98.723 Y89.278 E14.36979
G1 X110.722 Y101.277 E14.90419
G1 X110.722 Y102.176 E14.93252
G1 X97.824 Y89.278 E15.50698
G1 X96.924 Y89.278 E15.53530
G1 X110.722 Y103.076 E16.14983
G1 X110.722 Y103.975 E16.17816
G1 X96.025 Y89.278 E16.83274
G1 X95.125 Y89.278 E16.86107
G1 X110.722 Y104.875 E17.55572
G1 X110.722 Y105.774 E17.58404
G1 X94.226 Y89.278 E18.31875
G1 X93.326 Y89.278 E18.34708
G1 X110.722 Y106.674 E19.12185
G1 X110.722 Y107.573 E19.15018
G1 X92.427 Y89.278 E19.96502
G1 X91.527 Y89.278 E19.99334
G1 X110.722 Y108.473 E20.84824
G1 X110.722 Y109.372 E20.87657
G1 X90.628 Y89.278 E21.77153
G1 X89.728 Y89.278 E21.79986
G1 X110.722 Y110.272 E22.73488
G1 X110.272 Y110.722 E22.75491
G1 X89.278 Y89.728 E23.68993
G1 X89.278 Y90.628 E23.71825
G1 X109.372 Y110.722 E24.61321
G1 X108.473 Y110.722 E24.64154
G1 X89.278 Y91.527 E25.49644
G1 X89.278 Y92.427 E25.52476
G1 X107.573 Y110.722 E26.33960
G1 X106.674 Y110.722 E26.36792
G1 X89.278 Y93.326 E27.14270
G1 X89.278 Y94.226 E27.17102
G1 X105.774 Y110.722 E27.90573
G1 X104.875 Y110.722 E27.93406
G1 X89.278 Y95.125 E28.62871
G1 X89.278 Y96.025 E28.65703
G1 X103.975 Y110.722 E29.31162
G1 X103.076 Y110.722 E29.33995
G1 X89.278 Y96.924 E29.95447
G1 X89.278 Y97.824 E29.98280
G1 X102.176 Y110.722 E30.55726
G1 X101.277 Y110.722 E30.58558
G1 X89.278 Y98.723 E31.11998
G1 X89.278 Y99.623 E31.14831
G1 X100.377 Y110.722 E31.64265
G1 X99.478 Y110.722 E31.67097
G1 X89.278 Y100.522 E32.12525
G1 X89.278 Y101.422 E32.15357
G1 X98.578 Y110.722 E32.56779
G1 X97.679 Y110.722 E32.59611
G1 X89.278 Y102.321 E32.97026
G1 X89.278 Y103.221 E32.99859
G1 X96.779 Y110.722 E33.33268
G1 X95.880 Y110.722 E33.36100
G1 X89.278 Y104.120 E33.65503
G1 X89.278 Y105.020 E33.68336
G1 X94.980 Y110.722 E33.93732
G1 X94.081 Y110.722 E33.96565
G1 X89.278 Y105.919 E34.17955
G1 X89.278 Y106.819 E34.20787
G1 X93.181 Y110.722 E34.38171
G1 X92.282 Y110.722 E34.41004
G1 X89.278 Y107.718 E34.54381
G1 X89.278 Y108.618 E34.57214
G1 X91.382 Y110.722 E34.66586
G1 X90.483 Y110.722 E34.69418
G1 X89.278 Y109.517 E34.74783
G1 X89.278 Y110.417 E34.77616
G1 X89.583 Y110.722 E34.78975
G1 Z0.650 F7800.000
G1 X111.250 Y111.250 F7800.000
G1 X88.750 Y111.250 E35.41478 F3600.000
G1 X88.750 Y88.750 E36.03980
G1 X111.250 Y88.750 E36.66482
G1 X111.250 Y111.175 E37.28777
G1 X111.905 Y111.905 F7800.000
G1 X88.095 Y111.905 E37.94915 F3600.000
G1 X88.095 Y88.095 E38.61054
G1 X111.905 Y88.095 E39.27192
G1 X111.905 Y111.830 E39.93122
G1 X112.450 Y112.450 F7800.000
G1 X87.550 Y112.450 E40.39158 F1800.000
G1 X87.550 Y87.550 E40.85194
G1 X112.450 Y87.550 E41.31230
G1 X112.450 Y112.375 E41.77127
G1 X112.017 Y112.200 F7800.000
G1 X110.535 Y110.853 F7800.000
G1 X110.853 Y110.535 E41.78381 F1200.000
G1 X110.853 Y109.605 E41.80976
G1 X109.605 Y110.853 E41.85900
G1 X108.675 Y110.853 E41.88495
G1 X110.853 Y108.675 E41.97089
G1 X110.853 Y107.746 E41.99684
G1 X107.746 Y110.853 E42.11949
G1 X106.816 Y110.853 E42.14544
G1 X110.853 Y106.816 E42.30478
G1 X110.853 Y105.886 E42.33073
G1 X105.886 Y110.853 E42.52678
G1 X104.956 Y110.853 E42.55273
G1 X110.853 Y104.956 E42.78548
G1 X110.853 Y104.026 E42.81143
G1 X104.026 Y110.853 E43.08088
G1 X103.096 Y110.853 E43.10683
G1 X110.853 Y103.096 E43.41298
G1 X110.853 Y102.166 E43.43894
G1 X102.166 Y110.853 E43.78179
G1 X101.236 Y110.853 E43.80774
G1 X110.853 Y101.236 E44.18730
G1 X110.853 Y100.306 E44.21325
G1 X100.306 Y110.853 E44.62950
G1 X99.376 Y110.853 E44.65546
G1 X110.853 Y99.376 E45.10841
G1 X110.853 Y98.446 E45.13437
G1 X98.446 Y110.853 E45.62402
G1 X97.516 Y110.853 E45.64998
G1 X110.853 Y97.516 E46.17634
G1 X110.853 Y96.586 E46.20229
G1 X96.586 Y110.853 E46.76535
G1 X95.656 Y110.853 E46.79130
G1 X110.853 Y95.656 E47.39107
G1 X110.853 Y94.727 E47.41702
G1 X94.727 Y110.853 E48.05349
G1 X93.797 Y110.853 E48.07944
G1 X110.853 Y93.797 E48.75260
G1 X110.853 Y92.867 E48.77856
G1 X92.867 Y110.853 E49.48843
G1 X91.937 Y110.853 E49.51438
G1 X110.853 Y91.937 E50.26095
G1 X110.853 Y91.007 E50.28690
G1 X91.007 Y110.853 E51.07017
G1 X90.077 Y110.853 E51.09612
G1 X110.853 Y90.077 E51.91610
G1 X110.833 Y89.167 E51.94150
G1 X89.167 Y110.833 E52.79659
G1 X89.147 Y109.923 E52.82199
G1 X109.923 Y89.147 E53.64197
G1 X108.993 Y89.147 E53.66792
G1 X89.147 Y108.993 E54.45119
G1 X89.147 Y108.063 E54.47714
G1 X108.063 Y89.147 E55.22371
G1 X107.133 Y89.147 E55.24966
G1 X89.147 Y107.133 E55.95953
G1 X89.147 Y106.203 E55.98548
G1 X106.203 Y89.147 E56.65865
G1 X105.273 Y89.147 E56.68460
G1 X89.147 Y105.273 E57.32106
G1 X89.147 Y104.343 E57.34702
G1 X104.343 Y89.147 E57.94678
G1 X103.414 Y89.147 E57.97273
G1 X89.147 Y103.414 E58.53579
G1 X89.147 Y102.484 E58.56174
G1 X102.484 Y89.147 E59.08810
G1 X101.554 Y89.147 E59.11406
G1 X89.147 Y101.554 E59.60371
G1 X89.147 Y100.624 E59.62967
G1 X100.624 Y89.147 E60.08262
G1 X99.694 Y89.147 E60.10857
G1 X89.147 Y99.694 E60.52483
G1 X89.147 Y98.764 E60.55078
G1 X98.764 Y89.147 E60.93033
G1 X97.834 Y89.147 E60.95628
G1 X89.147 Y97.834 E61.29914
G1 X89.147 Y96.904 E61.32509
G1 X96.904 Y89.147 E61.63124
G1 X95.974 Y89.147 E61.65719
G1 X89.147 Y95.974 E61.92664
G1 X89.147 Y95.044 E61.95259
G1 X95.044 Y89.147 E62.18534
G1 X94.114 Y89.147 E62.21129
G1 X89.147 Y94.114 E62.40733
G1 X89.147 Y93.184 E62.43329
G1 X93.184 Y89.147 E62.59263
G1 X92.254 Y89.147 E62.61858
G1 X89.147 Y92.254 E62.74122
G1 X89.147 Y91.325 E62.76717
G1 X91.325 Y89.147 E62.85311
G1 X90.395 Y89.147 E62.87907
G1 X89.147 Y90.395 E62.92830
G1 X89.147 Y89.465 E62.95426
G1 X89.465 Y89.147 E62.96679
G1 Z0.950 F7800.000
G1 X111.250 Y111.250 F7800.000
G1 X88.750 Y111.250 E63.59182 F3600.000
G1 X88.750 Y88.750 E64.21684
G1 X111.250 Y88.750 E64.84187
G1 X111.250 Y111.175 E65.46481
G1 X111.905 Y111.905 F7800.000
G1 X88.095 Y111.905 E66.12619 F3600.000
G1 X88.095 Y88.095 E66.78758
G1 X111.905 Y88.095 E67.44896
G1 X111.905 Y111.830 E68.10827
G1 X112.450 Y112.450 F7800.000
G1 X87.550 Y112.450 E68.56862 F1800.000
G1 X87.550 Y87.550 E69.02898
G1 X112.450 Y87.550 E69.48934
G1 X112.450 Y112.375 E69.94831
G1 X112.017 Y112.200 F7800.000
G1 X110.853 Y89.465 F7800.000
G1 X110.535 Y89.147 E69.96085 F1200.000
G1 X109.605 Y89.147 E69.98680
G1 X110.853 Y90.395 E70.03604
G1 X110.853 Y91.325 E70.06199
G1 X108.675 Y89.147 E70.14793
G1 X107.746 Y89.147 E70.17389
G1 X110.853 Y92.254 E70.29653
G1 X110.853 Y93.184 E70.32248
G1 X106.816 Y89.147 E70.48182
G1 X105.886 Y89.147 E70.50778
G1 X110.853 Y94.114 E70.70382
G1 X110.853 Y95.044 E70.72977
G1 X104.956 Y89.147 E70.96252
G1 X104.026 Y89.147 E70.98847
G1 X110.853 Y95.974 E71.25792
G1 X110.853 Y96.904 E71.28388
G1 X103.096 Y89.147 E71.59003
G1 X102.166 Y89.147 E71.61598
G1 X110.853 Y97.834 E71.95883
G1 X110.853 Y98.764 E71.98478
G1 X101.236 Y89.147 E72.36434
G1 X100.306 Y89.147 E72.39029
G1 X110.853 Y99.694 E72.80655
G1 X110.853 Y100.624 E72.83250
G1 X99.376 Y89.147 E73.28546
G1 X98.446 Y89.147 E73.31141
G1 X110.853 Y101.554 E73.80107
G1 X110.853 Y102.484 E73.82702
G1 X97.516 Y89.147 E74.35338
G1 X96.586 Y89.147 E74.37933
G1 X110.853 Y103.414 E74.94239
G1 X110.853 Y104.344 E74.96835
G1 X95.656 Y89.147 E75.56811
G1 X94.727 Y89.147 E75.59406
G1 X110.853 Y105.273 E76.23053
G1 X110.853 Y106.203 E76.25648
G1 X93.797 Y89.147 E76.92965
G1 X92.867 Y89.147 E76.95560
G1 X110.853 Y107.133 E77.66547
G1 X110.853 Y108.063 E77.69142
G1 X91.937 Y89.147 E78.43799
G1 X91.007 Y89.147 E78.46394
G1 X110.853 Y108.993 E79.24721
G1 X110.853 Y109.923 E79.27317
G1 X90.077 Y89.147 E80.09314
G1 X89.167 Y89.167 E80.11854
G1 X110.833 Y110.833 E80.97363
G1 X109.923 Y110.853 E80.99903
G1 X89.147 Y90.077 E81.81901
G1 X89.147 Y91.007 E81.84496
G1 X108.993 Y110.853 E82.62823
G1 X108.063 Y110.853 E82.65418
G1 X89.147 Y91.937 E83.40075
G1 X89.147 Y92.867 E83.42670
G1 X107.133 Y110.853 E84.13657
G1 X106.203 Y110.853 E84.16252
G1 X89.147 Y93.797 E84.83569
G1 X89.147 Y94.727 E84.86164
G1 X105.273 Y110.853 E85.49811
G1 X104.343 Y110.853 E85.52406
G1 X89.147 Y95.657 E86.12382
G1 X89.147 Y96.586 E86.14977
G1 X103.414 Y110.853 E86.71283
G1 X102.484 Y110.853 E86.73879
G1 X89.147 Y97.516 E87.26515
G1 X89.147 Y98.446 E87.29110
G1 X101.554 Y110.853 E87.78076
G1 X100.624 Y110.853 E87.80671
G1 X89.147 Y99.376 E88.25966
G1 X89.147 Y100.306 E88.28562
G1 X99.694 Y110.853 E88.70187
G1 X98.764 Y110.853 E88.72782
G1 X89.147 Y101.236 E89.10737
G1 X89.147 Y102.166 E89.13333
G1 X97.834 Y110.853 E89.47618
G1 X96.904 Y110.853 E89.50213
G1 X89.147 Y103.096 E89.80828
G1 X89.147 Y104.026 E89.83423
G1 X95.974 Y110.853 E90.10368
G1 X95.044 Y110.853 E90.12963
G1 X89.147 Y104.956 E90.36238
G1 X89.147 Y105.886 E90.38833
G1 X94.114 Y110.853 E90.58438
G1 X93.184 Y110.853 E90.61033
G1 X89.147 Y106.816 E90.76967
G1 X89.147 Y107.746 E90.79562
G1 X92.254 Y110.853 E90.91826
G1 X91.325 Y110.853 E90.94422
G1 X89.147 Y108.675 E91.03016
G1 X89.147 Y109.605 E91.05611
G1 X90.395 Y110.853 E91.10535
G1 X89.465 Y110.853 E91.13130
G1 X89.147 Y110.535 E91.14384
M106 S234.6
G1 Z1.250 F7800.000
G1 X111.250 Y111.250 F7800.000
G1 X88.750 Y111.250 E91.76886 F3600.000
G1 X88.750 Y88.750 E92.39388
G1 X111.250 Y88.750 E93.01891
G1 X111.250 Y111.175 E93.64185
G1 X111.905 Y111.905 F7800.000
G1 X88.095 Y111.905 E94.30324 F3600.000
G1 X88.095 Y88.095 E94.96462
G1 X111.905 Y88.095 E95.62601
G1 X111.905 Y111.830 E96.28531
G1 X112.450 Y112.450 F7800.000
G1 X87.550 Y112.450 E96.74567 F1800.000
G1 X87.550 Y87.550 E97.20602
G1 X112.450 Y87.550 E97.66638
G1 X112.450 Y112.375 E98.12535
G1 X112.017 Y112.200 F7800.000
G1 X110.258 Y110.853 F7800.000
G1 X110.853 Y110.258 E98.14871 F4800.000
G1 X110.853 Y108.407 E98.20013
G1 X108.407 Y110.853 E98.29621
G1 X106.556 Y110.853 E98.34763
G1 X110.853 Y106.556 E98.51643
G1 X110.853 Y104.705 E98.56785
G1 X104.705 Y110.853 E98.80937
G1 X102.854 Y110.853 E98.86079
G1 X110.853 Y102.854 E99.17504
G1 X110.853 Y101.002 E99.22646
G1 X101.002 Y110.853 E99.61342
G1 X99.151 Y110.853 E99.66485
G1 X110.853 Y99.151 E100.12453
G1 X110.853 Y97.300 E100.17596
G1 X97.300 Y110.853 E100.70837
G1 X95.449 Y110.853 E100.75979
G1 X110.853 Y95.449 E101.36492
G1 X110.853 Y93.598 E101.41634
G1 X93.598 Y110.853 E102.09420
G1 X91.746 Y110.853 E102.14562
G1 X110.853 Y91.746 E102.89619
G1 X110.853 Y89.895 E102.94762
G1 X89.895 Y110.853 E103.77091
G1 X89.147 Y109.750 E103.80794
G1 X109.750 Y89.147 E104.61730
G1 X107.899 Y89.147 E104.66872
G1 X89.147 Y107.899 E105.40535
G1 X89.147 Y106.048 E105.45678
G1 X106.048 Y89.147 E106.12069
G1 X104.196 Y89.147 E106.17211
G1 X89.147 Y104.196 E106.76331
G1 X89.147 Y102.345 E106.81473
G1 X102.345 Y89.147 E107.33320
G1 X100.494 Y89.147 E107.38462
G1 X89.147 Y100.494 E107.83037
G1 X89.147 Y98.643 E107.88180
G1 X98.643 Y89.147 E108.25482
G1 X96.792 Y89.147 E108.30625
G1 X89.147 Y96.792 E108.60655
G1 X89.147 Y94.940 E108.65797
G1 X94.940 Y89.147 E108.88556
G1 X93.089 Y89.147 E108.93698
G1 X89.147 Y93.089 E109.09184
G1 X89.147 Y91.238 E109.14326
G1 X91.238 Y89.147 E109.22540
G1 Z1.550 F7800.000
G1 X111.250 Y111.250 F7800.000
G1 X88.750 Y111.250 E109.85043 F3600.000
G1 X88.750 Y88.750 E110.47545
G1 X111.250 Y88.750 E111.10047
G1 X111.250 Y111.175 E111.72342
G1 X111.905 Y111.905 F7800.000
G1 X88.095 Y111.905 E112.38480 F3600.000
G1 X88.095 Y88.095 E113.04619
G1 X111.905 Y88.095 E113.70757
G1 X111.905 Y111.830 E114.36687
G1 X112.450 Y112.450 F7800.000
G1 X87.550 Y112.450 E114.82723 F1800.000
G1 X87.550 Y87.550 E115.28759
G1 X112.450 Y87.550 E115.74795
G1 X112.450 Y112.375 E116.20692
G1 X112.017 Y112.200 F7800.000
G1 X110.853 Y89.742 F7800.000
G1 X110.258 Y89.147 E116.23027 F4800.000
G1 X108.407 Y89.147 E116.28170
G1 X110.853 Y91.593 E116.37777
G1 X110.853 Y93.444 E116.42920
G1 X106.556 Y89.147 E116.59799
G1 X104.705 Y89.147 E116.64942
G1 X110.853 Y95.295 E116.89094
G1 X110.853 Y97.146 E116.94236
G1 X102.854 Y89.147 E117.25660
G1 X101.002 Y89.147 E117.30803
G1 X110.853 Y98.998 E117.69499
G1 X110.853 Y100.849 E117.74641
G1 X99.151 Y89.147 E118.20610
G1 X97.300 Y89.147 E118.25752
G1 X110.853 Y102.700 E118.78993
G1 X110.853 Y104.551 E118.84135
G1 X95.449 Y89.147 E119.44649
G1 X93.598 Y89.147 E119.49791
G1 X110.853 Y106.402 E120.17576
G1 X110.853 Y108.254 E120.22718
G1 X91.746 Y89.147 E120.97776
G1 X89.895 Y89.147 E121.02918
G1 X110.853 Y110.105 E121.85248
G1 X109.750 Y110.853 E121.88950
G1 X89.147 Y90.250 E122.69886
G1 X89.147 Y92.101 E122.75028
G1 X107.899 Y110.853 E123.48692
G1 X106.048 Y110.853 E123.53834
G1 X89.147 Y93.952 E124.20226
G1 X89.147 Y95.804 E124.25368
G1 X104.196 Y110.853 E124.84487
G1 X102.345 Y110.853 E124.89630
G1 X89.147 Y97.655 E125.41477
G1 X89.147 Y99.506 E125.46619
G1 X100.494 Y110.853 E125.91194
G1 X98.643 Y110.853 E125.96336
G1 X89.147 Y101.357 E126.33639
G1 X89.147 Y103.208 E126.38781
G1 X96.792 Y110.853 E126.68812
G1 X94.940 Y110.853 E126.73954
G1 X89.147 Y105.060 E126.96712
G1 X89.147 Y106.911 E127.01854
G1 X93.089 Y110.853 E127.17341
G1 X91.238 Y110.853 E127.22483
G1 X89.147 Y108.762 E127.30697
G1 Z1.850 F7800.000
