; generated by Slic3r 1.2.9 on 2017-03-14 at 15:18:02

; external perimeters extrusion width = 0.50mm
; perimeters extrusion width = 0.72mm
; infill extrusion width = 0.72mm
; solid infill extrusion width = 0.72mm
; top infill extrusion width = 0.72mm

M107
M104 S200 ; set temperature
G28 ; home all axes
G1 Z5 F5000 ; lift nozzle

M109 S200 ; wait for temperature to be reached
G21 ; set units to millimeters
G90 ; use absolute coordinates
M82 ; use absolute distances for extrusion
G92 E0
G1 Z0.350 F7800.000
G1 E-2.00000 F2400.00000
G92 E0
G1 X86.662 Y86.026 F7800.000
G1 E2.00000 F2400.00000
G1 X87.219 Y85.515 E2.02340 F1800.000
G1 X88.341 Y84.597 E2.06827
G1 X88.953 Y84.152 E2.09167
G1 X90.173 Y83.368 E2.13654
G1 X90.832 Y82.996 E2.15994
G1 X92.133 Y82.357 E2.20481
G1 X92.830 Y82.062 E2.22822
G1 X94.196 Y81.575 E2.27309
G1 X94.921 Y81.362 E2.29649
G1 X96.334 Y81.033 E2.34135
G1 X97.079 Y80.904 E2.36476
G1 X98.520 Y80.739 E2.40964
G1 X99.085 Y80.699 E2.42717
G1 X100.193 Y80.678 E2.46146
G1 X100.914 Y80.699 E2.48377 F1800.000
G1 X101.480 Y80.739 E2.50133
G1 X102.921 Y80.904 E2.54620
G1 X103.666 Y81.033 E2.56960
G1 X105.079 Y81.362 E2.61447
G1 X105.804 Y81.575 E2.63787
G1 X107.171 Y82.062 E2.68276
G1 X107.867 Y82.357 E2.70614
G1 X109.168 Y82.996 E2.75101
G1 X109.827 Y83.368 E2.77441
G1 X111.047 Y84.152 E2.81928
G1 X111.659 Y84.597 E2.84268
G1 X112.781 Y85.515 E2.88755
G1 X113.338 Y86.026 E2.91095
G1 X114.342 Y87.059 E2.95551
G1 X114.844 Y87.638 E2.97923
G1 X115.730 Y88.786 E3.02410
G1 X116.157 Y89.410 E3.04750
G1 X116.906 Y90.652 E3.09236
G1 X117.259 Y91.321 E3.11577
G1 X117.861 Y92.640 E3.16064
G1 X118.135 Y93.345 E3.18404
G1 X118.583 Y94.724 E3.22891
G1 X118.776 Y95.456 E3.25231
G1 X119.064 Y96.878 E3.29720
G1 X119.171 Y97.626 E3.32058
G1 X119.295 Y99.060 E3.36514
G1 X119.317 Y99.827 E3.38885
G1 X119.276 Y101.276 E3.43373
G1 X119.211 Y102.030 E3.45712
G1 X119.005 Y103.465 E3.50199
G1 X118.854 Y104.206 E3.52540
G1 X118.486 Y105.609 E3.57026
G1 X118.252 Y106.328 E3.59367
G1 X117.726 Y107.679 E3.63853
G1 X117.412 Y108.367 E3.66194
G1 X116.735 Y109.650 E3.70680
G1 X116.344 Y110.298 E3.73021
G1 X115.525 Y111.495 E3.77509
G1 X115.064 Y112.094 E3.79848
G1 X114.114 Y113.189 E3.84335
G1 X113.587 Y113.732 E3.86675
G1 X112.519 Y114.712 E3.91162
G1 X111.933 Y115.191 E3.93502
G1 X110.760 Y116.044 E3.97989
G1 X110.124 Y116.453 E4.00329
G1 X108.861 Y117.166 E4.04816
G1 X108.182 Y117.499 E4.07156
G1 X106.847 Y118.064 E4.11643
G1 X106.134 Y118.318 E4.13983
G1 X104.742 Y118.727 E4.18473
G1 X104.006 Y118.898 E4.20811
G1 X102.577 Y119.145 E4.25297
G1 X101.826 Y119.231 E4.27638
G1 X100.378 Y119.314 E4.32125
G1 X99.622 Y119.314 E4.34465
G1 X98.174 Y119.231 E4.38951
G1 X97.423 Y119.145 E4.41292
G1 X95.994 Y118.898 E4.45779
G1 X95.257 Y118.726 E4.48119
G1 X93.866 Y118.318 E4.52606
G1 X93.153 Y118.064 E4.54946
G1 X91.817 Y117.499 E4.59434
G1 X91.139 Y117.166 E4.61773
G1 X89.876 Y116.453 E4.66260
G1 X89.240 Y116.044 E4.68600
G1 X88.067 Y115.191 E4.73087
G1 X87.481 Y114.712 E4.75427
G1 X86.412 Y113.732 E4.79916
G1 X85.886 Y113.189 E4.82255
G1 X84.936 Y112.094 E4.86742
G1 X84.474 Y111.495 E4.89082
G1 X83.656 Y110.298 E4.93568
G1 X83.265 Y109.650 E4.95909
G1 X82.588 Y108.367 E5.00397
G1 X82.274 Y107.679 E5.02736
G1 X81.748 Y106.328 E5.07222
G1 X81.514 Y105.609 E5.09563
G1 X81.146 Y104.206 E5.14051
G1 X80.995 Y103.465 E5.16390
G1 X80.789 Y102.030 E5.20877
G1 X80.724 Y101.276 E5.23217
G1 X80.683 Y99.826 E5.27704
G1 X80.705 Y99.070 E5.30044
G1 X80.829 Y97.625 E5.34533
G1 X80.936 Y96.877 E5.36871
G1 X81.222 Y95.466 E5.41327
G1 X81.417 Y94.724 E5.43698
G1 X81.865 Y93.345 E5.48186
G1 X82.139 Y92.640 E5.50526
G1 X82.742 Y91.321 E5.55014
G1 X83.094 Y90.652 E5.57353
G1 X83.843 Y89.410 E5.61839
G1 X84.270 Y88.786 E5.64180
G1 X85.156 Y87.638 E5.68666
G1 X85.651 Y87.066 E5.71007
G1 X86.609 Y86.080 E5.75262
G1 E3.75262 F2400.00000
G92 E0
G1 X105.265 Y105.117 F7800.000
G1 E2.00000 F2400.00000
G1 X104.648 Y105.684 E2.02594 F1800.000
G1 X103.969 Y106.177 E2.05188
G1 X103.239 Y106.589 E2.07782
G1 X102.467 Y106.915 E2.10375
G1 X101.663 Y107.151 E2.12969
G1 X100.837 Y107.294 E2.15563
G1 X100.000 Y107.342 E2.18157
G1 X99.163 Y107.294 E2.20751
G1 X98.337 Y107.151 E2.23345
G1 X97.533 Y106.915 E2.25938
G1 X96.760 Y106.589 E2.28532
G1 X96.031 Y106.177 E2.31126
G1 X95.352 Y105.684 E2.33720
G1 X94.735 Y105.117 E2.36314
G1 X94.186 Y104.483 E2.38908
G1 X93.713 Y103.791 E2.41501
G1 X93.321 Y103.050 E2.44095
G1 X93.017 Y102.269 E2.46689
G1 X92.804 Y101.458 E2.49283
G1 X92.686 Y100.636 E2.51852
G1 X92.661 Y99.788 E2.54477
G1 X92.733 Y98.955 E2.57064
G1 X92.899 Y98.133 E2.59658
G1 X93.158 Y97.336 E2.62252
G1 X93.503 Y96.581 E2.64821
G1 X93.941 Y95.854 E2.67446
G1 X94.451 Y95.192 E2.70033
G1 X95.035 Y94.591 E2.72627
G1 X95.684 Y94.060 E2.75221
G1 X96.390 Y93.607 E2.77815
G1 X97.142 Y93.237 E2.80409
G1 X97.931 Y92.955 E2.83002
G1 X98.748 Y92.765 E2.85596
G1 X99.656 Y92.661 E2.88424
G1 X100.343 Y92.661 E2.90550
G1 X101.252 Y92.765 E2.93381 F1800.000
G1 X102.069 Y92.955 E2.95975
G1 X102.858 Y93.237 E2.98569
G1 X103.610 Y93.607 E3.01162
G1 X104.316 Y94.060 E3.03756
G1 X104.965 Y94.591 E3.06350
G1 X105.549 Y95.192 E3.08944
G1 X106.061 Y95.856 E3.11538
G1 X106.494 Y96.574 E3.14132
G1 X106.842 Y97.336 E3.16725
G1 X107.101 Y98.133 E3.19319
G1 X107.267 Y98.955 E3.21913
G1 X107.339 Y99.790 E3.24507
G1 X107.315 Y100.628 E3.27101
G1 X107.197 Y101.450 E3.29670
G1 X106.982 Y102.271 E3.32295
G1 X106.679 Y103.050 E3.34882
G1 X106.287 Y103.791 E3.37476
G1 X105.814 Y104.483 E3.40070
G1 X105.314 Y105.060 E3.42432
G1 X105.738 Y105.526 F7800.000
G1 X105.044 Y106.168 E3.45356 F1800.000
G1 X104.308 Y106.703 E3.48171
G1 X103.516 Y107.151 E3.50986
G1 X102.678 Y107.505 E3.53801
G1 X101.805 Y107.761 E3.56616
G1 X100.908 Y107.916 E3.59431
G1 X100.000 Y107.968 E3.62246
G1 X99.092 Y107.916 E3.65061
G1 X98.195 Y107.761 E3.67876
G1 X97.322 Y107.505 E3.70691
G1 X96.484 Y107.151 E3.73506
G1 X95.692 Y106.703 E3.76321
G1 X94.956 Y106.168 E3.79136
G1 X94.286 Y105.553 E3.81951
G1 X93.690 Y104.866 E3.84766
G1 X93.177 Y104.115 E3.87581
G1 X92.752 Y103.310 E3.90396
G1 X92.422 Y102.462 E3.93211
G1 X92.191 Y101.582 E3.96026
G1 X92.062 Y100.690 E3.98815
G1 X92.035 Y99.771 E4.01661
G1 X92.113 Y98.866 E4.04470
G1 X92.294 Y97.974 E4.07285
G1 X92.575 Y97.109 E4.10100
G1 X92.949 Y96.289 E4.12890
G1 X93.424 Y95.501 E4.15736
G1 X93.978 Y94.782 E4.18545
G1 X94.612 Y94.130 E4.21360
G1 X95.316 Y93.554 E4.24175
G1 X96.082 Y93.062 E4.26990
G1 X96.898 Y92.660 E4.29805
G1 X97.755 Y92.355 E4.32620
G1 X98.641 Y92.149 E4.35435
G1 X99.611 Y92.037 E4.38456
G1 X100.388 Y92.037 E4.40858
G1 X101.359 Y92.149 E4.43882 F1800.000
G1 X102.245 Y92.355 E4.46697
G1 X103.102 Y92.660 E4.49512
G1 X103.918 Y93.062 E4.52327
G1 X104.684 Y93.554 E4.55142
G1 X105.388 Y94.130 E4.57957
G1 X106.022 Y94.782 E4.60772
G1 X106.577 Y95.502 E4.63587
G1 X107.047 Y96.282 E4.66402
G1 X107.425 Y97.109 E4.69217
G1 X107.706 Y97.974 E4.72032
G1 X107.887 Y98.866 E4.74847
G1 X107.965 Y99.772 E4.77662
G1 X107.939 Y100.682 E4.80477
G1 X107.811 Y101.574 E4.83267
G1 X107.577 Y102.464 E4.86112
G1 X107.248 Y103.310 E4.88922
G1 X106.823 Y104.115 E4.91736
G1 X106.310 Y104.866 E4.94551
G1 X105.787 Y105.470 E4.97024
G1 X106.210 Y105.935 F7800.000
G1 X105.440 Y106.653 E5.00280 F1800.000
G1 X104.646 Y107.230 E5.03316
G1 X103.792 Y107.712 E5.06352
G1 X102.888 Y108.094 E5.09388
G1 X101.947 Y108.371 E5.12424
G1 X100.980 Y108.538 E5.15460
G1 X100.000 Y108.594 E5.18496
G1 X99.020 Y108.538 E5.21532
G1 X98.053 Y108.371 E5.24568
G1 X97.112 Y108.094 E5.27604
G1 X96.208 Y107.712 E5.30640
G1 X95.354 Y107.230 E5.33677
G1 X94.560 Y106.653 E5.36713
G1 X93.837 Y105.989 E5.39749
G1 X93.194 Y105.248 E5.42785
G1 X92.641 Y104.438 E5.45821
G1 X92.183 Y103.570 E5.48857
G1 X91.827 Y102.656 E5.51893
G1 X91.577 Y101.707 E5.54929
G1 X91.439 Y100.744 E5.57939
G1 X91.410 Y99.753 E5.61006
G1 X91.494 Y98.777 E5.64037
G1 X91.688 Y97.815 E5.67073
G1 X91.992 Y96.882 E5.70109
G1 X92.396 Y95.997 E5.73119
G1 X92.907 Y95.148 E5.76186
G1 X93.505 Y94.372 E5.79217
G1 X94.189 Y93.668 E5.82253
G1 X94.949 Y93.047 E5.85289
G1 X95.774 Y92.517 E5.88326
G1 X96.655 Y92.084 E5.91362
G1 X97.579 Y91.754 E5.94398
G1 X98.535 Y91.532 E5.97434
G1 X99.567 Y91.413 E6.00649
G1 X100.432 Y91.413 E6.03327
G1 X101.465 Y91.532 E6.06544 F1800.000
G1 X102.421 Y91.754 E6.09581
G1 X103.345 Y92.084 E6.12617
G1 X104.226 Y92.517 E6.15653
G1 X105.051 Y93.047 E6.18689
G1 X105.811 Y93.668 E6.21725
G1 X106.495 Y94.372 E6.24761
G1 X107.094 Y95.149 E6.27797
G1 X107.601 Y95.989 E6.30833
G1 X108.008 Y96.882 E6.33869
G1 X108.312 Y97.815 E6.36905
G1 X108.506 Y98.777 E6.39941
G1 X108.590 Y99.755 E6.42977
G1 X108.562 Y100.735 E6.46014
G1 X108.424 Y101.698 E6.49024
G1 X108.173 Y102.657 E6.52090
G1 X107.817 Y103.570 E6.55122
G1 X107.359 Y104.438 E6.58158
G1 X106.806 Y105.248 E6.61194
G1 X106.259 Y105.879 E6.63777
G1 X106.682 Y106.345 F7800.000
G1 X105.836 Y107.137 E6.67364 F1800.000
G1 X104.985 Y107.756 E6.70621
G1 X104.068 Y108.274 E6.73878
G1 X103.098 Y108.684 E6.77135
G1 X102.088 Y108.980 E6.80392
G1 X101.051 Y109.160 E6.83650
G1 X100.000 Y109.220 E6.86907
G1 X98.949 Y109.160 E6.90164
G1 X97.912 Y108.980 E6.93421
G1 X96.902 Y108.684 E6.96678
G1 X95.932 Y108.274 E6.99936
G1 X95.015 Y107.756 E7.03193
G1 X94.164 Y107.137 E7.06450
G1 X93.388 Y106.426 E7.09707
G1 X92.699 Y105.630 E7.12964
G1 X92.105 Y104.761 E7.16222
G1 X91.613 Y103.830 E7.19479
G1 X91.231 Y102.849 E7.22736
G1 X90.964 Y101.831 E7.25993
G1 X90.815 Y100.798 E7.29224
G1 X90.784 Y99.735 E7.32512
G1 X90.874 Y98.688 E7.35765
G1 X91.083 Y97.656 E7.39022
G1 X91.408 Y96.655 E7.42279
G1 X91.842 Y95.705 E7.45510
G1 X92.390 Y94.795 E7.48797
G1 X93.032 Y93.962 E7.52050
G1 X93.766 Y93.207 E7.55308
G1 X94.581 Y92.541 E7.58565
G1 X95.466 Y91.972 E7.61822
G1 X96.411 Y91.507 E7.65079
G1 X97.402 Y91.154 E7.68336
G1 X98.428 Y90.915 E7.71594
G1 X99.522 Y90.790 E7.75003
G1 X100.004 Y90.776 E7.76494
G1 X100.477 Y90.789 E7.77957
G1 X101.572 Y90.915 E7.81368 F1800.000
G1 X102.598 Y91.154 E7.84626
G1 X103.589 Y91.507 E7.87883
G1 X104.534 Y91.972 E7.91140
G1 X105.419 Y92.541 E7.94397
G1 X106.234 Y93.207 E7.97655
G1 X106.968 Y93.962 E8.00912
G1 X107.611 Y94.796 E8.04169
G1 X108.154 Y95.697 E8.07426
G1 X108.592 Y96.655 E8.10683
G1 X108.917 Y97.656 E8.13941
G1 X109.126 Y98.688 E8.17198
G1 X109.216 Y99.737 E8.20455
G1 X109.186 Y100.789 E8.23712
G1 X109.037 Y101.822 E8.26943
G1 X108.768 Y102.850 E8.30231
G1 X108.387 Y103.830 E8.33484
G1 X107.895 Y104.761 E8.36741
G1 X107.301 Y105.630 E8.39998
G1 X106.731 Y106.288 E8.42691
G1 X107.154 Y106.754 F7800.000
G1 X107.061 Y106.862 E8.43134 F1800.000
G1 X106.233 Y107.622 E8.46612
G1 X105.323 Y108.283 E8.50090
G1 X104.344 Y108.836 E8.53569
G1 X103.309 Y109.273 E8.57047
G1 X102.230 Y109.590 E8.60525
G1 X101.122 Y109.782 E8.64004
G1 X100.000 Y109.846 E8.67482
G1 X98.878 Y109.782 E8.70960
G1 X97.770 Y109.590 E8.74439
G1 X96.691 Y109.273 E8.77917
G1 X95.656 Y108.836 E8.81395
G1 X94.677 Y108.283 E8.84874
G1 X93.767 Y107.622 E8.88352
G1 X92.939 Y106.862 E8.91830
G1 X92.203 Y106.012 E8.95309
G1 X91.569 Y105.084 E8.98787
G1 X91.044 Y104.090 E9.02265
G1 X90.636 Y103.043 E9.05744
G1 X90.350 Y101.955 E9.09222
G1 X90.192 Y100.851 E9.12673
G1 X90.158 Y99.718 E9.16182
G1 X90.254 Y98.599 E9.19657
G1 X90.478 Y97.497 E9.23135
G1 X90.825 Y96.428 E9.26613
G1 X91.288 Y95.413 E9.30064
G1 X91.873 Y94.442 E9.33573
G1 X92.559 Y93.552 E9.37048
G1 X93.343 Y92.746 E9.40526
G1 X94.213 Y92.035 E9.44005
G1 X95.159 Y91.427 E9.47483
G1 X96.167 Y90.931 E9.50961
G1 X97.226 Y90.553 E9.54440
G1 X98.321 Y90.298 E9.57918
G1 X99.478 Y90.166 E9.61521
G1 X100.004 Y90.151 E9.63151
G1 X100.522 Y90.166 E9.64751
G1 X101.679 Y90.298 E9.68356 F1800.000
G1 X102.774 Y90.553 E9.71834
G1 X103.833 Y90.931 E9.75313
G1 X104.841 Y91.427 E9.78791
G1 X105.787 Y92.035 E9.82269
G1 X106.657 Y92.746 E9.85748
G1 X107.441 Y93.552 E9.89226
G1 X108.127 Y94.443 E9.92704
G1 X108.708 Y95.405 E9.96183
G1 X109.175 Y96.428 E9.99661
G1 X109.522 Y97.497 E10.03139
G1 X109.746 Y98.599 E10.06618
G1 X109.842 Y99.719 E10.10096
G1 X109.810 Y100.843 E10.13574
G1 X109.651 Y101.946 E10.17025
G1 X109.363 Y103.044 E10.20534
G1 X108.956 Y104.090 E10.24009
G1 X108.431 Y105.084 E10.27487
G1 X107.797 Y106.012 E10.30966
G1 X107.203 Y106.697 E10.33770
G1 X107.627 Y107.163 F7800.000
G1 X107.510 Y107.298 E10.34322 F1800.000
G1 X106.629 Y108.107 E10.38022
G1 X105.661 Y108.809 E10.41721
G1 X104.620 Y109.397 E10.45421
G1 X103.519 Y109.863 E10.49120
G1 X102.372 Y110.200 E10.52820
G1 X101.194 Y110.403 E10.56519
G1 X100.000 Y110.472 E10.60219
G1 X98.806 Y110.403 E10.63918
G1 X97.628 Y110.200 E10.67617
G1 X96.481 Y109.863 E10.71317
G1 X95.380 Y109.397 E10.75016
G1 X94.339 Y108.809 E10.78716
G1 X93.371 Y108.107 E10.82415
G1 X92.490 Y107.298 E10.86115
G1 X91.707 Y106.395 E10.89814
G1 X91.033 Y105.408 E10.93514
G1 X90.475 Y104.350 E10.97213
G1 X90.041 Y103.236 E11.00912
G1 X89.737 Y102.080 E11.04612
G1 X89.568 Y100.905 E11.08283
G1 X89.533 Y99.700 E11.12013
G1 X89.635 Y98.510 E11.15710
G1 X89.872 Y97.338 E11.19409
G1 X90.242 Y96.201 E11.23109
G1 X90.735 Y95.121 E11.26780
G1 X91.356 Y94.089 E11.30510
G1 X92.086 Y93.142 E11.34207
G1 X92.919 Y92.285 E11.37907
G1 X93.845 Y91.528 E11.41606
G1 X94.851 Y90.882 E11.45305
G1 X95.924 Y90.354 E11.49005
G1 X97.050 Y89.952 E11.52704
G1 X98.214 Y89.682 E11.56404
G1 X99.433 Y89.542 E11.60200
G1 X100.005 Y89.526 E11.61968
G1 X100.566 Y89.542 E11.63707
G1 X101.786 Y89.682 E11.67505 F1800.000
G1 X102.950 Y89.952 E11.71204
G1 X104.076 Y90.354 E11.74904
G1 X105.149 Y90.882 E11.78603
G1 X106.155 Y91.528 E11.82303
G1 X107.081 Y92.285 E11.86002
G1 X107.914 Y93.142 E11.89702
G1 X108.644 Y94.089 E11.93401
G1 X109.262 Y95.113 E11.97100
G1 X109.758 Y96.201 E12.00800
G1 X110.128 Y97.338 E12.04499
G1 X110.365 Y98.510 E12.08199
G1 X110.467 Y99.701 E12.11898
G1 X110.433 Y100.896 E12.15598
G1 X110.264 Y102.071 E12.19269
G1 X109.959 Y103.237 E12.22999
G1 X109.525 Y104.350 E12.26696
G1 X108.967 Y105.408 E12.30395
G1 X108.293 Y106.395 E12.34095
G1 X107.676 Y107.106 E12.37009
G1 X108.099 Y107.572 F7800.000
G1 X107.958 Y107.734 E12.37673 F1800.000
G1 X107.025 Y108.591 E12.41593
G1 X106.000 Y109.336 E12.45514
G1 X104.896 Y109.959 E12.49434
G1 X103.729 Y110.452 E12.53355
G1 X102.514 Y110.809 E12.57275
G1 X101.265 Y111.025 E12.61196
G1 X100.000 Y111.098 E12.65117
G1 X98.735 Y111.025 E12.69037
G1 X97.486 Y110.809 E12.72958
G1 X96.271 Y110.452 E12.76878
G1 X95.103 Y109.959 E12.80799
G1 X94.000 Y109.336 E12.84719
G1 X92.975 Y108.591 E12.88640
G1 X92.042 Y107.734 E12.92561
G1 X91.212 Y106.777 E12.96481
G1 X90.497 Y105.731 E13.00402
G1 X89.905 Y104.610 E13.04322
G1 X89.446 Y103.429 E13.08243
G1 X89.123 Y102.204 E13.12163
G1 X88.944 Y100.959 E13.16055
G1 X88.907 Y99.682 E13.20006
G1 X89.015 Y98.421 E13.23925
G1 X89.267 Y97.179 E13.27846
G1 X89.659 Y95.974 E13.31766
G1 X90.181 Y94.830 E13.35658
G1 X90.840 Y93.736 E13.39609
G1 X91.613 Y92.733 E13.43528
G1 X92.496 Y91.824 E13.47448
G1 X93.477 Y91.022 E13.51369
G1 X94.543 Y90.337 E13.55289
G1 X95.680 Y89.778 E13.59210
G1 X96.873 Y89.352 E13.63130
G1 X98.108 Y89.065 E13.67051
G1 X99.389 Y88.918 E13.71041
G1 X100.005 Y88.901 E13.72948
G1 X100.611 Y88.918 E13.74824
G1 X101.892 Y89.065 E13.78815 F1800.000
G1 X103.127 Y89.352 E13.82736
G1 X104.320 Y89.778 E13.86656
G1 X105.457 Y90.337 E13.90577
G1 X106.523 Y91.022 E13.94497
G1 X107.504 Y91.824 E13.98418
G1 X108.387 Y92.733 E14.02339
G1 X109.161 Y93.736 E14.06259
G1 X109.815 Y94.821 E14.10180
G1 X110.341 Y95.974 E14.14100
G1 X110.733 Y97.179 E14.18021
