; generated by Slic3r 1.2.9 on 2017-03-14 at 15:18:59

; external perimeters extrusion width = 0.50mm
; perimeters extrusion width = 0.72mm
; infill extrusion width = 0.72mm
; solid infill extrusion width = 0.72mm
; top infill extrusion width = 0.72mm

M107
M104 S200 ; set temperature
G28 ; home all axes
G1 Z5 F5000 ; lift nozzle

M109 S200 ; wait for temperature to be reached
G21 ; set units to millimeters
G90 ; use absolute coordinates
M82 ; use absolute distances for extrusion
G92 E0
G1 Z0.350 F7800.000
G1 E-2.00000 F2400.00000
G92 E0
G1 X86.662 Y86.026 F7800.000
G1 E2.00000 F2400.00000
G1 X87.219 Y85.515 E2.02340 F1800.000
G1 X88.341 Y84.597 E2.06827
G1 X88.953 Y84.152 E2.09167
G1 X90.173 Y83.368 E2.13654
G1 X90.832 Y82.996 E2.15994
G1 X92.133 Y82.357 E2.20481
G1 X92.830 Y82.062 E2.22822
G1 X94.196 Y81.575 E2.27309
G1 X94.921 Y81.362 E2.29649
G1 X96.334 Y81.033 E2.34135
G1 X97.079 Y80.904 E2.36476
G1 X98.520 Y80.739 E2.40964
G1 X99.085 Y80.699 E2.42717
G1 X100.193 Y80.678 E2.46146
G1 X100.914 Y80.699 E2.48377 F1800.000
G1 X101.480 Y80.739 E2.50133
G1 X102.921 Y80.904 E2.54620
G1 X103.666 Y81.033 E2.56960
G1 X105.079 Y81.362 E2.61447
G1 X105.804 Y81.575 E2.63787
G1 X107.171 Y82.062 E2.68276
G1 X107.867 Y82.357 E2.70614
G1 X109.168 Y82.996 E2.75101
G1 X109.827 Y83.368 E2.77441
G1 X111.047 Y84.152 E2.81928
G1 X111.659 Y84.597 E2.84268
G1 X112.781 Y85.515 E2.88755
G1 X113.338 Y86.026 E2.91095
G1 X114.342 Y87.059 E2.95551
G1 X114.844 Y87.638 E2.97923
G1 X115.730 Y88.786 E3.02410
G1 X116.157 Y89.410 E3.04750
G1 X116.906 Y90.652 E3.09236
G1 X117.259 Y91.321 E3.11577
G1 X117.861 Y92.640 E3.16064
G1 X118.135 Y93.345 E3.18404
G1 X118.583 Y94.724 E3.22891
G1 X118.776 Y95.456 E3.25231
G1 X119.064 Y96.878 E3.29720
G1 X119.171 Y97.626 E3.32058
G1 X119.295 Y99.060 E3.36514
G1 X119.317 Y99.827 E3.38885
G1 X119.276 Y101.276 E3.43373
G1 X119.211 Y102.030 E3.45712
G1 X119.005 Y103.465 E3.50199
G1 X118.854 Y104.206 E3.52540
G1 X118.486 Y105.609 E3.57026
G1 X118.252 Y106.328 E3.59367
G1 X117.726 Y107.679 E3.63853
G1 X117.412 Y108.367 E3.66194
G1 X116.735 Y109.650 E3.70680
G1 X116.344 Y110.298 E3.73021
G1 X115.525 Y111.495 E3.77509
G1 X115.064 Y112.094 E3.79848
G1 X114.114 Y113.189 E3.84335
G1 X113.587 Y113.732 E3.86675
G1 X112.519 Y114.712 E3.91162
G1 X111.933 Y115.191 E3.93502
G1 X110.760 Y116.044 E3.97989
G1 X110.124 Y116.453 E4.00329
G1 X108.861 Y117.166 E4.04816
G1 X108.182 Y117.499 E4.07156
G1 X106.847 Y118.064 E4.11643
G1 X106.134 Y118.318 E4.13983
G1 X104.742 Y118.727 E4.18473
G1 X104.006 Y118.898 E4.20811
G1 X102.577 Y119.145 E4.25297
G1 X101.826 Y119.231 E4.27638
G1 X100.378 Y119.314 E4.32125
G1 X99.622 Y119.314 E4.34465
G1 X98.174 Y119.231 E4.38951
G1 X97.423 Y119.145 E4.41292
G1 X95.994 Y118.898 E4.45779
G1 X95.257 Y118.726 E4.48119
G1 X93.866 Y118.318 E4.52606
G1 X93.153 Y118.064 E4.54946
G1 X91.817 Y117.499 E4.59434
G1 X91.139 Y117.166 E4.61773
G1 X89.876 Y116.453 E4.66260
G1 X89.240 Y116.044 E4.68600
G1 X88.067 Y115.191 E4.73087
G1 X87.481 Y114.712 E4.75427
G1 X86.412 Y113.732 E4.79916
G1 X85.886 Y113.189 E4.82255
G1 X84.936 Y112.094 E4.86742
G1 X84.474 Y111.495 E4.89082
G1 X83.656 Y110.298 E4.93568
G1 X83.265 Y109.650 E4.95909
G1 X82.588 Y108.367 E5.00397
G1 X82.274 Y107.679 E5.02736
G1 X81.748 Y106.328 E5.07222
G1 X81.514 Y105.609 E5.09563
G1 X81.146 Y104.206 E5.14051
G1 X80.995 Y103.465 E5.16390
G1 X80.789 Y102.030 E5.20877
G1 X80.724 Y101.276 E5.23217
G1 X80.683 Y99.826 E5.27704
G1 X80.705 Y99.070 E5.30044
G1 X80.829 Y97.625 E5.34533
G1 X80.936 Y96.877 E5.36871
G1 X81.222 Y95.466 E5.41327
G1 X81.417 Y94.724 E5.43698
G1 X81.865 Y93.345 E5.48186
G1 X82.139 Y92.640 E5.50526
G1 X82.742 Y91.321 E5.55014
G1 X83.094 Y90.652 E5.57353
G1 X83.843 Y89.410 E5.61839
G1 X84.270 Y88.786 E5.64180
G1 X85.156 Y87.638 E5.68666
G1 X85.651 Y87.066 E5.71007
G1 X86.609 Y86.080 E5.75262
G1 E3.75262 F2400.00000
G92 E0
G1 X107.958 Y107.734 F7800.000
G1 E2.00000 F2400.00000
G1 X107.025 Y108.591 E2.03921 F1800.000
G1 X106.000 Y109.336 E2.07841
G1 X104.896 Y109.959 E2.11762
G1 X103.729 Y110.452 E2.15682
G1 X102.514 Y110.809 E2.19603
G1 X101.265 Y111.025 E2.23523
G1 X100.000 Y111.098 E2.27444
G1 X98.735 Y111.025 E2.31365
G1 X97.486 Y110.809 E2.35285
G1 X96.271 Y110.452 E2.39206
G1 X95.103 Y109.959 E2.43126
G1 X94.000 Y109.336 E2.47047
G1 X92.975 Y108.591 E2.50967
G1 X92.042 Y107.734 E2.54888
G1 X91.212 Y106.777 E2.58809
G1 X90.497 Y105.731 E2.62729
G1 X89.905 Y104.610 E2.66650
G1 X89.446 Y103.429 E2.70570
G1 X89.123 Y102.204 E2.74491
G1 X88.944 Y100.959 E2.78382
G1 X88.907 Y99.682 E2.82334
G1 X89.015 Y98.421 E2.86252
G1 X89.267 Y97.179 E2.90173
G1 X89.659 Y95.974 E2.94093
G1 X90.181 Y94.830 E2.97985
G1 X90.840 Y93.736 E3.01936
G1 X91.613 Y92.733 E3.05855
G1 X92.496 Y91.824 E3.09776
G1 X93.477 Y91.022 E3.13696
G1 X94.543 Y90.337 E3.17617
G1 X95.680 Y89.778 E3.21537
G1 X96.873 Y89.352 E3.25458
G1 X98.108 Y89.065 E3.29378
G1 X99.389 Y88.918 E3.33369
G1 X100.005 Y88.901 E3.35275
G1 X100.611 Y88.918 E3.37151
G1 X101.892 Y89.065 E3.41143 F1800.000
G1 X103.127 Y89.352 E3.45063
G1 X104.320 Y89.778 E3.48984
G1 X105.457 Y90.337 E3.52904
G1 X106.523 Y91.022 E3.56825
G1 X107.504 Y91.824 E3.60745
G1 X108.387 Y92.733 E3.64666
G1 X109.161 Y93.736 E3.68587
G1 X109.815 Y94.821 E3.72507
G1 X110.341 Y95.974 E3.76428
G1 X110.733 Y97.179 E3.80348
G1 X110.985 Y98.421 E3.84269
G1 X111.093 Y99.683 E3.88189
G1 X111.057 Y100.950 E3.92110
G1 X110.878 Y102.195 E3.96002
G1 X110.554 Y103.430 E3.99953
G1 X110.095 Y104.610 E4.03871
G1 X109.503 Y105.731 E4.07792
G1 X108.788 Y106.777 E4.11713
G1 X108.008 Y107.678 E4.15401
G1 X108.431 Y108.144 F7800.000
G1 X107.421 Y109.076 E4.19653 F1800.000
G1 X106.338 Y109.862 E4.23794
G1 X105.173 Y110.521 E4.27936
G1 X103.940 Y111.042 E4.32078
G1 X102.655 Y111.419 E4.36219
G1 X101.336 Y111.647 E4.40361
G1 X100.000 Y111.724 E4.44503
G1 X98.664 Y111.647 E4.48645
G1 X97.345 Y111.419 E4.52786
G1 X96.060 Y111.042 E4.56928
G1 X94.827 Y110.521 E4.61070
G1 X93.662 Y109.862 E4.65211
G1 X92.579 Y109.076 E4.69353
G1 X91.593 Y108.171 E4.73495
G1 X90.716 Y107.159 E4.77636
G1 X89.961 Y106.054 E4.81778
G1 X89.336 Y104.870 E4.85920
G1 X88.850 Y103.623 E4.90061
G1 X88.510 Y102.328 E4.94203
G1 X88.321 Y101.013 E4.98315
G1 X88.281 Y99.665 E5.02487
G1 X88.396 Y98.332 E5.06628
G1 X88.662 Y97.020 E5.10770
G1 X89.075 Y95.747 E5.14911
G1 X89.627 Y94.538 E5.19023
G1 X90.323 Y93.382 E5.23196
G1 X91.140 Y92.323 E5.27336
G1 X92.073 Y91.363 E5.31478
G1 X93.109 Y90.515 E5.35620
G1 X94.235 Y89.792 E5.39761
G1 X95.436 Y89.201 E5.43903
G1 X96.697 Y88.751 E5.48045
G1 X98.001 Y88.448 E5.52186
G1 X99.344 Y88.294 E5.56371
G1 X100.005 Y88.275 E5.58415
G1 X100.655 Y88.294 E5.60429
G1 X101.999 Y88.448 E5.64614 F1800.000
G1 X103.303 Y88.751 E5.68755
G1 X104.564 Y89.201 E5.72897
G1 X105.765 Y89.792 E5.77039
G1 X106.891 Y90.515 E5.81180
G1 X107.927 Y91.363 E5.85322
G1 X108.860 Y92.323 E5.89464
G1 X109.677 Y93.383 E5.93605
G1 X110.369 Y94.529 E5.97747
G1 X110.925 Y95.747 E6.01889
G1 X111.338 Y97.020 E6.06031
G1 X111.604 Y98.332 E6.10172
G1 X111.719 Y99.665 E6.14314
G1 X111.681 Y101.003 E6.18456
G1 X111.491 Y102.319 E6.22568
G1 X111.150 Y103.623 E6.26740
G1 X110.664 Y104.870 E6.30881
G1 X110.039 Y106.054 E6.35022
G1 X109.284 Y107.159 E6.39164
G1 X108.480 Y108.087 E6.42963
G1 X108.903 Y108.553 F7800.000
G1 X107.817 Y109.560 E6.47546 F1800.000
G1 X106.677 Y110.389 E6.51908
G1 X105.449 Y111.082 E6.56271
G1 X104.150 Y111.631 E6.60634
G1 X102.797 Y112.028 E6.64997
G1 X101.408 Y112.269 E6.69360
G1 X100.000 Y112.349 E6.73722
G1 X98.592 Y112.269 E6.78085
G1 X97.203 Y112.028 E6.82448
G1 X95.850 Y111.631 E6.86811
G1 X94.551 Y111.082 E6.91174
G1 X93.323 Y110.389 E6.95536
G1 X92.183 Y109.560 E6.99899
G1 X91.144 Y108.607 E7.04262
G1 X90.220 Y107.541 E7.08625
G1 X89.425 Y106.377 E7.12988
G1 X88.767 Y105.130 E7.17351
G1 X88.255 Y103.816 E7.21713
G1 X87.897 Y102.452 E7.26076
G1 X87.697 Y101.067 E7.30408
G1 X87.656 Y99.647 E7.34802
G1 X87.776 Y98.242 E7.39164
G1 X88.056 Y96.861 E7.43527
G1 X88.492 Y95.520 E7.47890
G1 X89.074 Y94.246 E7.52222
G1 X89.806 Y93.029 E7.56616
G1 X90.667 Y91.913 E7.60978
G1 X91.650 Y90.902 E7.65341
G1 X92.741 Y90.009 E7.69704
G1 X93.927 Y89.247 E7.74067
G1 X95.193 Y88.625 E7.78430
G1 X96.521 Y88.151 E7.82792
G1 X97.894 Y87.831 E7.87155
G1 X99.300 Y87.670 E7.91533
G1 X100.005 Y87.650 E7.93716
G1 X100.700 Y87.670 E7.95867
G1 X102.106 Y87.831 E8.00246 F1800.000
G1 X103.479 Y88.151 E8.04608
G1 X104.807 Y88.625 E8.08971
G1 X106.073 Y89.247 E8.13334
G1 X107.259 Y90.009 E8.17697
G1 X108.350 Y90.902 E8.22060
G1 X109.333 Y91.913 E8.26422
G1 X110.194 Y93.029 E8.30785
G1 X110.922 Y94.237 E8.35148
G1 X111.508 Y95.520 E8.39511
G1 X111.944 Y96.861 E8.43874
G1 X112.224 Y98.242 E8.48236
G1 X112.344 Y99.647 E8.52599
G1 X112.304 Y101.057 E8.56962
G1 X112.105 Y102.443 E8.61294
G1 X111.745 Y103.816 E8.65688
G1 X111.233 Y105.130 E8.70050
G1 X110.575 Y106.377 E8.74413
G1 X109.780 Y107.541 E8.78776
G1 X108.952 Y108.496 E8.82686
G1 X108.420 Y108.423 F7800.000
G1 X110.279 Y97.161 F7800.000
G1 X102.822 Y89.704 E9.16106 F1800.000
G1 X101.647 Y89.434 E9.19928
G1 X110.552 Y98.339 E9.59840
G1 X110.674 Y99.366 E9.63116
G1 X100.624 Y89.317 E10.08155
G1 X99.687 Y89.285 E10.11127
G1 X110.701 Y100.298 E10.60484
G1 X110.661 Y101.164 E10.63231
G1 X98.845 Y89.347 E11.16190
G1 X98.036 Y89.443 E11.18772
G1 X110.548 Y101.955 E11.74846
G1 X110.385 Y102.698 E11.77255
G1 X97.301 Y89.614 E12.35893
G1 X96.596 Y89.814 E12.38215
G1 X110.196 Y103.414 E12.99167
G1 X109.942 Y104.065 E13.01382
G1 X95.929 Y90.052 E13.64186
G1 X95.306 Y90.334 E13.66354
G1 X109.672 Y104.700 E14.30739
G1 X109.359 Y105.292 E14.32862
G1 X94.699 Y90.632 E14.98565
G1 X94.145 Y90.983 E15.00644
G1 X109.020 Y105.858 E15.67312
G1 X108.653 Y106.396 E15.69376
G1 X93.598 Y91.342 E16.36843
G1 X93.101 Y91.749 E16.38882
G1 X108.252 Y106.900 E17.06786
G1 X107.826 Y107.380 E17.08817
G1 X92.627 Y92.180 E17.76937
G1 X92.174 Y92.633 E17.78965
G1 X107.373 Y107.832 E18.47083
G1 X106.901 Y108.265 E18.49113
G1 X91.739 Y93.102 E19.17067
G1 X91.344 Y93.613 E19.19112
G1 X106.385 Y108.653 E19.86517
G1 X105.860 Y109.034 E19.88571
G1 X90.975 Y94.149 E20.55282
G1 X90.635 Y94.714 E20.57372
G1 X105.282 Y109.361 E21.23017
G1 X104.694 Y109.678 E21.25134
G1 X90.329 Y95.313 E21.89514
G1 X90.045 Y95.935 E21.91678
G1 X104.058 Y109.947 E22.54478
G1 X103.395 Y110.189 E22.56715
G1 X89.814 Y96.609 E23.17579
G1 X89.604 Y97.303 E23.19879
G1 X102.695 Y110.395 E23.78550
G1 X101.940 Y110.545 E23.80989
G1 X89.451 Y98.056 E24.36961
G1 X89.347 Y98.857 E24.39520
G1 X101.150 Y110.660 E24.92418
G1 X100.294 Y110.709 E24.95135
G1 X89.290 Y99.705 E25.44450
G1 X89.318 Y100.638 E25.47407
G1 X99.354 Y110.674 E25.92384
G1 X98.319 Y110.544 E25.95689
G1 X89.450 Y101.676 E26.35435
G1 X89.726 Y102.856 E26.39276
G1 X97.137 Y110.268 E26.72493
G1 X95.695 Y109.731 F7800.000
G1 X90.248 Y104.284 E26.96904 F1800.000
G1 X92.092 Y107.033 F7800.000
G1 X92.886 Y107.826 E27.00459 F1800.000
G1 X109.729 Y95.706 F7800.000
G1 X104.287 Y90.264 E27.24851 F1800.000
G1 X106.870 Y91.942 F7800.000
G1 X108.146 Y93.217 E27.30569 F1800.000
G1 Z0.650 F7800.000
G1 X108.072 Y107.833 F7800.000
G1 X107.120 Y108.708 E27.34161 F3600.000
G1 X106.081 Y109.462 E27.37728
G1 X104.963 Y110.094 E27.41295
G1 X103.780 Y110.594 E27.44863
G1 X102.548 Y110.956 E27.48430
G1 X101.282 Y111.175 E27.51998
G1 X100.000 Y111.248 E27.55565
G1 X98.718 Y111.175 E27.59133
G1 X97.452 Y110.956 E27.62700
G1 X96.220 Y110.594 E27.66267
G1 X95.037 Y110.094 E27.69835
G1 X93.919 Y109.462 E27.73402
G1 X92.880 Y108.708 E27.76970
G1 X91.934 Y107.839 E27.80537
G1 X91.093 Y106.869 E27.84105
G1 X90.368 Y105.808 E27.87672
G1 X89.768 Y104.673 E27.91240
G1 X89.312 Y103.501 E27.94732
G1 X88.976 Y102.232 E27.98378
G1 X88.793 Y100.963 E28.01941
G1 X88.757 Y99.679 E28.05509
G1 X88.866 Y98.399 E28.09076
G1 X89.121 Y97.141 E28.12644
G1 X89.518 Y95.919 E28.16211
G1 X90.052 Y94.751 E28.19779
G1 X90.715 Y93.651 E28.23346
G1 X91.483 Y92.655 E28.26839
G1 X92.396 Y91.712 E28.30485
G1 X93.389 Y90.900 E28.34048
G1 X94.469 Y90.206 E28.37615
G1 X95.621 Y89.639 E28.41183
G1 X96.831 Y89.208 E28.44750
G1 X98.082 Y88.917 E28.48318
G1 X99.378 Y88.768 E28.51940
G1 X100.013 Y88.751 E28.53707
G1 X100.622 Y88.768 E28.55397
G1 X101.918 Y88.917 E28.59022 F3600.000
G1 X103.169 Y89.208 E28.62589
G1 X104.379 Y89.639 E28.66157
G1 X105.531 Y90.206 E28.69724
G1 X106.611 Y90.900 E28.73292
G1 X107.606 Y91.713 E28.76859
G1 X108.501 Y92.634 E28.80427
G1 X109.285 Y93.651 E28.83994
G1 X109.948 Y94.751 E28.87562
G1 X110.482 Y95.919 E28.91129
G1 X110.879 Y97.141 E28.94696
G1 X111.134 Y98.399 E28.98264
G1 X111.243 Y99.679 E29.01831
G1 X111.207 Y100.963 E29.05399
G1 X111.024 Y102.234 E29.08966
G1 X110.698 Y103.476 E29.12534
G1 X110.232 Y104.673 E29.16101
G1 X109.632 Y105.808 E29.19668
G1 X108.907 Y106.869 E29.23236
G1 X108.121 Y107.776 E29.26571
G1 X108.567 Y108.261 F7800.000
G1 X107.535 Y109.215 E29.30474 F3600.000
G1 X106.436 Y110.014 E29.34249
G1 X105.252 Y110.682 E29.38024
G1 X104.000 Y111.211 E29.41800
G1 X102.696 Y111.594 E29.45575
G1 X101.357 Y111.826 E29.49350
G1 X100.000 Y111.904 E29.53126
G1 X98.643 Y111.826 E29.56901
G1 X97.304 Y111.594 E29.60676
G1 X96.000 Y111.211 E29.64452
G1 X94.748 Y110.682 E29.68227
G1 X93.564 Y110.014 E29.72002
G1 X92.465 Y109.215 E29.75778
G1 X91.464 Y108.296 E29.79553
G1 X90.573 Y107.269 E29.83329
G1 X89.806 Y106.147 E29.87104
G1 X89.172 Y104.945 E29.90879
G1 X88.689 Y103.704 E29.94578
G1 X88.333 Y102.363 E29.98432
G1 X88.140 Y101.019 E30.02205
G1 X88.101 Y99.660 E30.05980
G1 X88.218 Y98.306 E30.09756
G1 X88.487 Y96.974 E30.13531
G1 X88.907 Y95.681 E30.17306
G1 X89.472 Y94.445 E30.21082
G1 X90.174 Y93.281 E30.24857
G1 X90.987 Y92.227 E30.28556
G1 X91.952 Y91.230 E30.32410
G1 X93.003 Y90.370 E30.36183
G1 X94.147 Y89.635 E30.39958
G1 X95.366 Y89.035 E30.43733
G1 X96.646 Y88.579 E30.47509
G1 X97.970 Y88.271 E30.51284
G1 X99.331 Y88.115 E30.55090
G1 X100.014 Y88.096 E30.56986
G1 X100.668 Y88.114 E30.58805
G1 X102.030 Y88.271 E30.62612 F3600.000
G1 X103.354 Y88.579 E30.66387
G1 X104.634 Y89.035 E30.70163
G1 X105.853 Y89.635 E30.73938
G1 X106.997 Y90.370 E30.77713
G1 X108.049 Y91.230 E30.81489
G1 X108.996 Y92.205 E30.85264
G1 X109.826 Y93.281 E30.89039
G1 X110.528 Y94.445 E30.92815
G1 X111.093 Y95.681 E30.96590
G1 X111.513 Y96.974 E31.00366
G1 X111.782 Y98.306 E31.04141
G1 X111.899 Y99.660 E31.07916
G1 X111.860 Y101.019 E31.11692
G1 X111.667 Y102.364 E31.15467
G1 X111.321 Y103.678 E31.19242
G1 X110.828 Y104.945 E31.23018
G1 X110.194 Y106.147 E31.26793
G1 X109.427 Y107.269 E31.30568
G1 X108.616 Y108.205 E31.34008
G1 X108.979 Y108.618 F7800.000
G1 X107.881 Y109.638 E31.36778 F1800.000
G1 X106.731 Y110.473 E31.39406
G1 X105.493 Y111.172 E31.42034
G1 X104.184 Y111.726 E31.44662
G1 X102.820 Y112.126 E31.47290
G1 X101.419 Y112.368 E31.49918
G1 X100.000 Y112.450 E31.52546
G1 X98.581 Y112.368 E31.55174
G1 X97.180 Y112.126 E31.57802
G1 X95.816 Y111.726 E31.60430
G1 X94.507 Y111.172 E31.63058
G1 X93.269 Y110.473 E31.65686
G1 X92.119 Y109.638 E31.68314
G1 X91.072 Y108.677 E31.70942
G1 X90.141 Y107.602 E31.73570
G1 X89.339 Y106.429 E31.76198
G1 X88.675 Y105.172 E31.78826
G1 X88.170 Y103.873 E31.81402
G1 X87.798 Y102.472 E31.84082
G1 X87.596 Y101.065 E31.86710
G1 X87.555 Y99.644 E31.89338
G1 X87.677 Y98.228 E31.91966
G1 X87.959 Y96.835 E31.94594
G1 X88.399 Y95.483 E31.97222
G1 X88.989 Y94.190 E31.99850
G1 X89.723 Y92.973 E32.02478
G1 X90.574 Y91.870 E32.05054
G1 X91.582 Y90.828 E32.07734
G1 X92.682 Y89.928 E32.10362
G1 X93.878 Y89.160 E32.12990
